assets/luts/0002.CUBE
#Created by: Adobe Photoshop Export Color Lookup Plugin
TITLE "Untitled"
#LUT size
LUT_3D_SIZE 5
#data domain
#LUT data points
DOMAIN_MIN 0.000000 0.000000 0.000000
DOMAIN_MAX 0.903226 0.903226 0.903226
0.105988 0.141144 0.203918
0.172882 0.130920 0.195190
0.239044 0.138153 0.174744
0.299438 0.151581 0.171997
0.392792 0.191406 0.193939
0.092499 0.178375 0.174164
0.157104 0.170471 0.154358
0.228058 0.168060 0.167145
0.305298 0.182495 0.176575
0.401764 0.224579 0.207031
0.121338 0.240875 0.179291
0.150574 0.242676 0.161957
0.243591 0.247498 0.170563
0.340881 0.265747 0.196747
0.453552 0.318207 0.249084
0.234741 0.379791 0.250366
0.258087 0.390930 0.239288
0.322998 0.403625 0.234863
0.447113 0.432800 0.257507
0.593475 0.500183 0.321259
0.489075 0.672913 0.422211
0.506256 0.684235 0.420898
0.570282 0.712799 0.417053
0.704010 0.769623 0.452606
0.873505 0.844788 0.511139
0.076874 0.133331 0.279602
0.154694 0.133331 0.252869
0.220245 0.142639 0.234741
0.291870 0.158722 0.234344
0.380371 0.193176 0.243073
0.091614 0.178375 0.233215
0.139069 0.168060 0.232330
0.212372 0.174377 0.235626
0.290100 0.184906 0.234131
0.398041 0.225250 0.252441
0.125580 0.237671 0.236542
0.151489 0.241791 0.232056
0.240509 0.248993 0.220245
0.330261 0.267242 0.249695
0.446655 0.316620 0.290466
0.235443 0.379150 0.297546
0.255249 0.385254 0.293854
0.321442 0.404388 0.281982
0.447571 0.441071 0.301849
0.593353 0.504364 0.360809
0.491455 0.666016 0.456329
0.518982 0.683167 0.462402
0.577515 0.713806 0.460602
0.702271 0.771973 0.488342
0.875458 0.847900 0.544373
0.087097 0.128510 0.359558
0.151367 0.130341 0.333984
0.210541 0.145966 0.296814
0.275787 0.161896 0.292358
0.370056 0.203186 0.313141
0.044830 0.171967 0.319855
0.118286 0.168976 0.317444
0.203644 0.176880 0.293793
0.280853 0.190552 0.294067
0.388489 0.233307 0.322784
0.122253 0.238586 0.292633
0.156891 0.242676 0.293518
0.224792 0.251404 0.309357
0.319214 0.275177 0.327576
0.439697 0.326996 0.359467
0.246979 0.380707 0.361389
0.272308 0.388519 0.370789
0.330292 0.408569 0.378326
0.441650 0.440857 0.382507
0.589386 0.515930 0.447632
0.526886 0.671600 0.536102
0.543213 0.679688 0.541077
0.604401 0.719849 0.557220
0.703918 0.777924 0.565460
0.872589 0.852600 0.622955
0.096619 0.126160 0.420837
0.136841 0.130981 0.411469
0.207794 0.142059 0.378632
0.274475 0.167419 0.347015
0.371216 0.212708 0.373779
0.069885 0.170471 0.398895
0.116272 0.168976 0.393646
0.203888 0.173737 0.378815
0.281464 0.194397 0.359192
0.387787 0.245941 0.381592
0.105530 0.245697 0.365723
0.135925 0.248749 0.376221
0.216064 0.256866 0.387970
0.321045 0.280762 0.384735
0.445099 0.338013 0.426208
0.262085 0.390228 0.418915
0.288391 0.397186 0.425171
0.351379 0.417145 0.440582
0.444519 0.453644 0.475128
0.592163 0.527588 0.540344
0.540680 0.684479 0.609467
0.560120 0.694092 0.611176
0.622437 0.724121 0.636261
0.733063 0.791992 0.684601
0.888275 0.869843 0.726868
0.093567 0.129425 0.485413
0.133911 0.131195 0.478729
0.201172 0.141663 0.463684
0.284912 0.170654 0.441101
0.380524 0.226288 0.437225
0.061859 0.170715 0.471558
0.114716 0.171967 0.472412
0.202454 0.175354 0.465485
0.297058 0.201630 0.449677
0.396149 0.259125 0.452698
0.081970 0.252258 0.472137
0.131958 0.258362 0.471008
0.222168 0.267029 0.483063
0.333099 0.292694 0.487549
0.460663 0.358765 0.504547
0.280518 0.406738 0.499939
0.297455 0.410919 0.504364
0.353302 0.437866 0.540497
0.454102 0.473419 0.574677
0.611053 0.548615 0.614410
0.576355 0.715363 0.687317
0.597900 0.721283 0.691071
0.657593 0.755920 0.718353
0.762024 0.812164 0.762451
0.898621 0.889069 0.834900
