assets/luts/0002.CUBE
#Created by: Adobe Photoshop Export Color Lookup Plugin
TITLE "Untitled"
#LUT size
LUT_3D_SIZE 32
#data domain
DOMAIN_MIN 0.0 0.0 0.0
DOMAIN_MAX 1.0 1.0 1.0
#LUT data points
0.105988 0.141144 0.203918
0.108002 0.139130 0.201874
0.110687 0.136993 0.199860
0.122772 0.132935 0.197845
0.135162 0.129700 0.196350
0.149292 0.131714 0.198364
0.162659 0.132935 0.199219
0.172882 0.130920 0.195190
0.183075 0.129944 0.191681
0.193146 0.131958 0.189636
0.202606 0.133331 0.186340
0.210663 0.133331 0.180267
0.219574 0.134125 0.176575
0.229797 0.136139 0.176575
0.239044 0.138153 0.174744
0.247131 0.140167 0.170715
0.254120 0.141144 0.168762
0.260071 0.141144 0.168762
0.269409 0.142242 0.168762
0.281525 0.144287 0.168762
0.291229 0.147522 0.169983
0.299438 0.151581 0.171997
0.310303 0.156982 0.176758
0.322418 0.163025 0.182831
0.334503 0.167694 0.184387
0.346619 0.171844 0.184387
0.362091 0.177551 0.187622
0.378387 0.183594 0.191681
0.392792 0.191406 0.193939
0.406891 0.199493 0.195953
0.423035 0.209442 0.199860
0.439331 0.219543 0.203918
0.101807 0.143158 0.201874
0.114075 0.143158 0.197845
0.116333 0.141144 0.195953
0.122772 0.139008 0.195831
0.135162 0.135468 0.194061
0.149292 0.135742 0.194336
0.161865 0.136993 0.195587
0.168854 0.134949 0.193176
0.180084 0.132935 0.189117
0.193146 0.131958 0.185608
0.202606 0.133972 0.182953
0.210663 0.135345 0.178253
0.218750 0.136902 0.175323
0.227661 0.140167 0.176575
0.236969 0.140381 0.174744
0.245117 0.140167 0.170715
0.253113 0.143188 0.169769
0.260071 0.145172 0.170776
0.268311 0.145172 0.169647
0.279510 0.146301 0.168762
0.292938 0.149536 0.172455
0.303467 0.153595 0.176056
0.311584 0.157623 0.175323
0.322418 0.163025 0.178772
0.335999 0.169189 0.181824
0.348633 0.173859 0.182343
0.359222 0.177917 0.185608
0.374329 0.183594 0.189636
0.392242 0.191406 0.193695
0.406891 0.199493 0.195953
0.424927 0.211334 0.205536
0.441345 0.221558 0.209961
0.097412 0.145447 0.199615
0.109650 0.145325 0.195587
0.121887 0.145172 0.191528
0.127930 0.143158 0.191528
0.135010 0.141418 0.191681
0.149139 0.141418 0.191681
0.161743 0.141144 0.191406
0.167938 0.139130 0.189392
0.175903 0.137115 0.186859
0.190033 0.135101 0.182831
0.202454 0.134369 0.179169
0.210541 0.136383 0.175140
0.218872 0.139069 0.173309
0.226959 0.143097 0.175323
0.234955 0.144287 0.174591
0.243164 0.142242 0.170563
0.251373 0.143463 0.169647
0.259308 0.147430 0.171631
0.268433 0.149353 0.171814
0.278534 0.149353 0.169800
0.290771 0.151703 0.172455
0.305054 0.155731 0.178528
0.315369 0.159637 0.179108
0.323456 0.163696 0.177094
0.335876 0.169312 0.178314
0.350006 0.175507 0.180328
0.361237 0.180206 0.183868
0.371460 0.184235 0.187897
0.388611 0.191803 0.192047
0.406769 0.199860 0.196106
0.425049 0.211334 0.205414
0.443359 0.223450 0.215485
0.089325 0.151489 0.193542
0.101562 0.149475 0.189514
0.113800 0.149231 0.185486
0.125916 0.147186 0.181458
0.132996 0.145447 0.181702
0.147125 0.145447 0.183594
0.159729 0.145447 0.183594
0.165924 0.145172 0.183350
0.173096 0.143158 0.180786
0.183990 0.141144 0.176758
0.197449 0.140442 0.174683
0.208527 0.142456 0.175140
0.218201 0.144470 0.172668
0.229095 0.147125 0.173309
0.236267 0.147522 0.172546
0.243164 0.144287 0.168427
0.252258 0.146362 0.167542
0.261322 0.151459 0.169617
0.270447 0.154358 0.172729
0.280548 0.155396 0.173828
0.289490 0.156647 0.174286
0.301025 0.159760 0.178528
0.313812 0.162537 0.179108
0.323456 0.165833 0.177094
0.334503 0.171356 0.181061
0.347992 0.177521 0.184387
0.362213 0.185211 0.186401
0.373474 0.190308 0.189911
0.390625 0.197845 0.195709
0.408783 0.205933 0.200134
0.427094 0.212097 0.204163
0.445374 0.223450 0.213470
0.082825 0.157562 0.187500
0.094269 0.155823 0.183716
0.106506 0.153931 0.179962
0.118622 0.152039 0.176178
0.130463 0.149750 0.171600
0.144592 0.149750 0.173615
0.157959 0.149750 0.175507
0.164154 0.149750 0.175507
0.171600 0.149475 0.175232
0.181702 0.147461 0.171204
0.191925 0.146484 0.169128
0.204041 0.148499 0.171143
0.215393 0.149994 0.172394
0.227631 0.152008 0.172394
0.238129 0.152344 0.171326
0.244202 0.148315 0.167145
0.252533 0.148651 0.165924
0.262451 0.154602 0.168060
0.271942 0.158417 0.170959
0.282043 0.160431 0.175018
0.291748 0.162720 0.177551
0.299957 0.164734 0.179565
0.310822 0.166809 0.179108
0.322937 0.168976 0.177094
0.335022 0.174011 0.181305
0.347137 0.180084 0.187378
0.360718 0.187775 0.190430
0.375000 0.195831 0.192444
0.392639 0.203918 0.197968
0.410797 0.211975 0.204041
0.428833 0.218689 0.208191
0.447144 0.224762 0.212250
0.086853 0.163757 0.181458
0.093048 0.163757 0.179443
0.104492 0.162140 0.175903
0.116608 0.162140 0.175903
0.128448 0.159973 0.171600
0.138550 0.155792 0.163391
0.152313 0.155792 0.165405
0.164154 0.155792 0.167297
0.171875 0.155792 0.167816
0.183716 0.155518 0.169067
0.193146 0.154175 0.167023
0.201996 0.154541 0.169128
0.211792 0.154999 0.170380
0.219421 0.154022 0.170380
0.232574 0.156952 0.171295
0.244202 0.158386 0.171326
0.253296 0.156433 0.169281
0.264465 0.158630 0.170074
0.272278 0.162506 0.172150
0.280029 0.164612 0.175018
0.292664 0.167877 0.176575
0.303986 0.170929 0.177551
0.314850 0.172943 0.178192
0.326965 0.175018 0.177094
0.339081 0.180084 0.182556
0.351166 0.186127 0.189392
0.363403 0.193817 0.193817
0.377014 0.201874 0.196472
0.394653 0.209961 0.202026
0.412842 0.218048 0.208069
0.429230 0.228119 0.212250
0.447144 0.234985 0.216278
0.090485 0.170319 0.176178
0.095886 0.169922 0.173737
0.102448 0.170044 0.171600
0.114594 0.170319 0.171082
0.126160 0.170044 0.170807
0.136139 0.166016 0.162994
0.147003 0.162262 0.156372
0.159241 0.162262 0.158386
0.170685 0.161865 0.160034
0.182800 0.161865 0.162048
0.195160 0.161865 0.164459
0.203247 0.161865 0.166626
0.210938 0.161865 0.168335
0.216980 0.159851 0.168335
0.225555 0.159393 0.169281
0.239838 0.163422 0.171295
0.252899 0.166565 0.173035
0.264801 0.166565 0.173035
0.274292 0.167725 0.174164
0.280334 0.169861 0.176178
0.291046 0.172394 0.176575
0.305298 0.176422 0.176575
0.318115 0.180267 0.177734
0.330231 0.182281 0.177734
0.343109 0.186523 0.182159
0.355225 0.192566 0.190247
0.367828 0.200256 0.195435
0.380066 0.208344 0.199493
0.397064 0.216431 0.205658
0.415222 0.224518 0.211731
0.431244 0.234161 0.216278
0.447510 0.244385 0.220306
0.092499 0.178375 0.174164
0.094543 0.176361 0.169983
0.100311 0.176117 0.167419
0.112549 0.178131 0.163391
0.124146 0.178131 0.162598
0.132233 0.176117 0.160583
0.142975 0.172485 0.154358
0.157104 0.170471 0.154358
0.168304 0.169952 0.155853
0.176758 0.168060 0.156006
0.190155 0.168060 0.158661
0.205261 0.168060 0.162445
0.213348 0.168854 0.164551
0.221008 0.170074 0.166168
0.228058 0.168060 0.167145
0.237823 0.167603 0.169281
0.250885 0.172638 0.172302
0.262787 0.176788 0.175049
0.273712 0.177887 0.176178
0.282349 0.179962 0.178192
0.292206 0.180786 0.177734
0.305298 0.182495 0.176575
0.318115 0.189270 0.180664
0.330231 0.194397 0.183777
0.345337 0.196411 0.183777
0.359253 0.200653 0.188232
0.373108 0.208344 0.194672
0.386108 0.216400 0.199493
0.401764 0.224579 0.207031
0.419281 0.232697 0.213745
0.433777 0.240784 0.219788
0.449554 0.250458 0.224335
0.094025 0.185944 0.172668
0.096588 0.184967 0.169037
0.098724 0.182922 0.164856
0.109375 0.184174 0.160797
0.121887 0.185944 0.156769
0.130737 0.184174 0.154480
0.139587 0.182556 0.153259
0.153564 0.180664 0.153381
0.167725 0.178650 0.152863
0.175934 0.176636 0.152863
0.184631 0.175262 0.153137
0.200775 0.175262 0.157166
0.214844 0.175507 0.160950
0.222900 0.177521 0.162964
0.232086 0.178253 0.165558
0.240295 0.176239 0.167694
0.249908 0.177277 0.170288
0.261810 0.183258 0.174255
0.272736 0.187042 0.177673
0.282806 0.189056 0.179688
0.293701 0.190369 0.180786
0.305969 0.190369 0.178772
0.319153 0.196350 0.181702
0.331268 0.204437 0.187775
0.345337 0.208008 0.189850
0.361481 0.210022 0.189850
0.376617 0.216431 0.194733
0.390869 0.224518 0.200775
0.407288 0.232666 0.207550
0.423431 0.240875 0.215637
0.439911 0.250000 0.222351
0.454163 0.258057 0.228424
0.094025 0.191986 0.172668
0.098175 0.194000 0.170624
0.100891 0.193024 0.167023
0.104919 0.191010 0.162842
0.115814 0.191986 0.158783
0.129944 0.191986 0.154755
0.139587 0.190613 0.153259
0.151672 0.190613 0.155273
0.165710 0.188721 0.154877
0.179993 0.186707 0.152863
0.188141 0.185333 0.152863
0.196747 0.185333 0.153137
0.211334 0.185333 0.157166
0.222900 0.185608 0.160950
0.232849 0.186707 0.163910
0.244324 0.186310 0.167694
0.253418 0.186371 0.169769
0.263824 0.189301 0.172241
0.274750 0.193085 0.176239
0.284851 0.195129 0.179688
0.295013 0.197144 0.182953
0.305969 0.198425 0.184814
0.320831 0.205261 0.186920
0.335297 0.214508 0.191803
0.347412 0.218079 0.194855
0.361481 0.220123 0.195892
0.377716 0.225494 0.200775
0.392883 0.232727 0.206848
0.410553 0.240784 0.211121
0.427460 0.248932 0.217651
0.449402 0.260803 0.225830
0.466278 0.270172 0.232574
0.096649 0.198700 0.172668
0.100128 0.200714 0.170624
0.104431 0.202606 0.168884
0.108978 0.201111 0.166290
0.113007 0.199341 0.161346
0.125183 0.199341 0.156128
0.138550 0.198944 0.153259
0.150391 0.198700 0.155273
0.163055 0.198700 0.157288
0.177307 0.196808 0.155518
0.191528 0.196075 0.153503
0.199615 0.196075 0.153503
0.209229 0.195435 0.153778
0.221344 0.195435 0.157806
0.232208 0.196075 0.161224
0.244446 0.196075 0.165375
0.256805 0.196472 0.169769
0.266754 0.198456 0.171753
0.277405 0.200439 0.174866
0.287506 0.202454 0.178925
0.298340 0.205139 0.182281
0.308563 0.207153 0.186340
0.323456 0.214050 0.192963
0.339600 0.224121 0.196991
0.352142 0.229523 0.200195
0.364227 0.231537 0.202209
0.380310 0.236877 0.207489
0.396606 0.243073 0.213531
0.414551 0.251556 0.217865
0.432709 0.259613 0.221924
0.454742 0.270874 0.229797
0.477081 0.282990 0.238007
0.104858 0.206757 0.172668
0.106873 0.208771 0.170624
0.110474 0.210663 0.168884
0.116516 0.210663 0.170898
0.121094 0.209442 0.167542
0.125122 0.209442 0.157318
0.136536 0.209045 0.153259
0.146606 0.207031 0.155273
0.159027 0.206757 0.157288
0.173279 0.206757 0.159302
0.187500 0.206177 0.157562
0.201630 0.208191 0.155518
0.211243 0.207428 0.155518
0.223358 0.205536 0.155792
0.233704 0.206421 0.158905
0.242432 0.208191 0.161224
0.255554 0.208191 0.166382
0.268768 0.208527 0.171753
0.279907 0.210541 0.174866
0.291534 0.212555 0.178925
0.302948 0.215820 0.181702
0.314606 0.219269 0.184326
0.330231 0.225464 0.193817
0.347656 0.234344 0.203064
0.359406 0.241455 0.207092
0.370422 0.245819 0.210266
0.387421 0.251068 0.215546
0.404663 0.257202 0.221619
0.422699 0.266785 0.226013
0.440918 0.275757 0.230133
0.462860 0.285858 0.237946
0.485138 0.297241 0.246094
0.111450 0.216461 0.173431
0.114258 0.217682 0.171417
0.116394 0.219574 0.169525
0.121796 0.219574 0.170898
0.127075 0.219574 0.172119
0.130066 0.219574 0.163452
0.135681 0.219574 0.154022
0.146149 0.217957 0.154480
0.156281 0.216980 0.157043
0.170013 0.217224 0.159302
0.185547 0.217224 0.161316
0.199921 0.219116 0.159576
0.213318 0.220367 0.159149
0.225433 0.218323 0.159149
0.238831 0.218140 0.158447
0.247040 0.220154 0.160492
0.255859 0.221924 0.163818
0.269775 0.221924 0.169922
0.285095 0.223022 0.174866
0.297180 0.225037 0.178925
0.309326 0.228302 0.184814
0.321564 0.232330 0.186829
0.337097 0.238373 0.193359
0.355255 0.246582 0.205475
0.368256 0.252411 0.211578
0.378479 0.258453 0.215637
0.395111 0.266907 0.222900
0.413269 0.272949 0.228943
0.431549 0.281738 0.234863
0.449860 0.291840 0.239044
0.472626 0.302765 0.247650
0.494843 0.312988 0.255707
0.115479 0.228699 0.175446
0.119537 0.228699 0.173431
0.122467 0.229797 0.171539
0.126495 0.229797 0.171539
0.131104 0.229797 0.172119
0.131104 0.229797 0.167938
0.135681 0.229797 0.160095
0.147766 0.229797 0.154022
0.158295 0.229218 0.154999
0.168518 0.231232 0.159058
0.183502 0.231476 0.161316
0.201691 0.231476 0.163330
0.215332 0.232605 0.163208
0.227570 0.232605 0.165344
0.241516 0.232391 0.164368
0.257141 0.234406 0.162506
0.265228 0.236420 0.165588
0.273804 0.238190 0.169922
0.290131 0.239288 0.174866
0.307404 0.241302 0.178925
0.319519 0.244568 0.186676
0.331665 0.248596 0.194916
0.346649 0.254028 0.199677
0.363464 0.260712 0.207489
0.377136 0.265808 0.213593
0.388580 0.270569 0.217651
0.405212 0.281616 0.226685
0.423370 0.291260 0.235138
0.441650 0.299072 0.242950
0.459930 0.308105 0.249146
0.483917 0.320099 0.258850
0.507080 0.331177 0.267822
0.121338 0.240875 0.179291
0.123566 0.240875 0.176361
0.127594 0.240997 0.174469
0.131622 0.241791 0.174469
0.136200 0.241791 0.174225
0.138794 0.241791 0.170746
0.139984 0.242157 0.166992
0.150574 0.242676 0.161957
0.162689 0.242676 0.157471
0.173279 0.244324 0.160736
0.184082 0.245697 0.162811
0.201477 0.245697 0.164307
0.218903 0.246460 0.167114
0.231415 0.246582 0.169373
0.243591 0.247498 0.170563
0.259735 0.249512 0.168427
0.276276 0.251526 0.168518
0.284241 0.253510 0.172638
0.295074 0.256439 0.177612
0.313385 0.258453 0.181641
0.328766 0.261688 0.186676
0.340881 0.265747 0.196747
0.355835 0.270294 0.206848
0.372101 0.276337 0.212891
0.387115 0.282715 0.216522
0.399200 0.286774 0.220581
0.416260 0.295532 0.229614
0.434418 0.307770 0.239838
0.453552 0.318207 0.249084
0.471863 0.326294 0.257141
0.493988 0.336365 0.266205
0.518341 0.348480 0.276306
0.129425 0.252991 0.185333
0.129425 0.252991 0.181305
0.131622 0.253113 0.178497
0.135681 0.255127 0.178497
0.140228 0.255920 0.178253
0.148285 0.255920 0.176239
0.152100 0.256287 0.173157
0.158295 0.258301 0.171143
0.168854 0.258820 0.167694
0.180969 0.258820 0.167694
0.192169 0.259827 0.169006
0.204285 0.259827 0.166992
0.220947 0.260590 0.169250
0.237213 0.262604 0.173309
0.249664 0.263641 0.174591
0.261749 0.265656 0.174591
0.278900 0.267670 0.174591
0.296478 0.269653 0.176666
0.306702 0.272766 0.181824
0.319427 0.276611 0.187683
0.335175 0.279877 0.191742
0.348969 0.283905 0.196747
0.363892 0.288025 0.208221
0.380188 0.292633 0.218933
0.396362 0.300171 0.221985
0.411316 0.307068 0.224609
0.428436 0.314362 0.233643
0.446686 0.323914 0.243866
0.466583 0.336060 0.253967
0.485992 0.346466 0.263214
0.506165 0.354645 0.271271
0.528442 0.364746 0.280334
0.140503 0.267059 0.193420
0.142639 0.269104 0.191406
0.142487 0.268982 0.187500
0.143768 0.269196 0.186615
0.148102 0.271210 0.185852
0.155457 0.271973 0.182281
0.163513 0.271973 0.179871
0.170319 0.273376 0.177216
0.177490 0.276459 0.176239
0.189087 0.278015 0.176758
0.201904 0.277374 0.176117
0.214417 0.276978 0.174103
0.224976 0.277771 0.173615
0.240234 0.279785 0.177429
0.255554 0.280884 0.180542
0.267761 0.282806 0.180664
0.283966 0.286835 0.183746
0.301971 0.288818 0.185730
0.317780 0.290924 0.186859
0.329865 0.294952 0.192932
0.345337 0.298981 0.197754
0.359467 0.303040 0.201782
0.375000 0.309143 0.210266
0.391266 0.313324 0.222382
0.407501 0.319366 0.229095
0.423645 0.327423 0.231110
0.443512 0.336578 0.240723
0.461823 0.344666 0.250946
0.482849 0.356262 0.261047
0.503021 0.368347 0.271149
0.522308 0.376740 0.279419
0.542633 0.384949 0.287476
0.154419 0.282928 0.203339
0.158569 0.286987 0.203339
0.160492 0.288849 0.201416
0.158356 0.286804 0.199402
0.160004 0.287109 0.197754
0.166199 0.289124 0.191711
0.173584 0.289856 0.187836
0.181671 0.289856 0.183777
0.189423 0.292358 0.182220
0.199493 0.298523 0.184235
0.211823 0.299347 0.184052
0.226105 0.297333 0.182037
0.237000 0.297760 0.181580
0.245087 0.299774 0.183594
0.259521 0.300873 0.186493
0.273651 0.300873 0.188538
0.289917 0.304840 0.191681
0.309906 0.310822 0.197632
0.325806 0.312805 0.198547
0.339813 0.314941 0.198883
0.355713 0.319000 0.203705
0.373505 0.323029 0.207733
0.389008 0.329803 0.215881
0.405182 0.337128 0.226349
0.421448 0.342712 0.234070
0.437683 0.349274 0.239197
0.458710 0.359070 0.249359
0.479706 0.368622 0.260864
0.501495 0.380219 0.270996
0.523010 0.392334 0.281067
0.541443 0.400665 0.289398
0.560638 0.408783 0.297546
0.169617 0.303497 0.213348
0.172607 0.305298 0.211151
0.176636 0.309204 0.211273
0.176514 0.309143 0.211212
0.175415 0.307404 0.209198
0.181549 0.308563 0.204834
0.187317 0.310577 0.199158
0.193970 0.311310 0.195129
0.202576 0.311829 0.192139
0.212708 0.316772 0.193573
0.222809 0.320984 0.194275
0.236115 0.319427 0.192261
0.250336 0.320526 0.192596
0.259369 0.323212 0.194946
0.270233 0.323395 0.195129
0.284393 0.323212 0.196747
0.300476 0.326355 0.199768
0.320374 0.332306 0.205658
0.340546 0.338318 0.211670
0.354675 0.340332 0.211670
0.370178 0.343597 0.214233
0.388458 0.347626 0.218262
0.407593 0.355530 0.225281
0.423737 0.363586 0.235382
0.442139 0.370148 0.244720
0.458405 0.376221 0.250916
0.477325 0.385620 0.258545
0.499512 0.395874 0.270660
0.521820 0.406616 0.282196
0.544159 0.418732 0.292267
0.567078 0.430389 0.304962
0.585388 0.438446 0.313171
0.185913 0.327850 0.223450
0.187927 0.327850 0.219421
0.190765 0.329529 0.217316
0.192780 0.331543 0.219330
0.193726 0.331757 0.219269
0.199768 0.331757 0.217255
0.205475 0.332916 0.213287
0.209534 0.334930 0.209259
0.216705 0.336182 0.206268
0.226929 0.338196 0.206268
0.237061 0.341156 0.206390
0.247162 0.341156 0.204376
0.260406 0.342712 0.204681
0.274536 0.348785 0.208740
0.286377 0.349640 0.209259
0.300659 0.347626 0.207245
0.316742 0.350555 0.209869
0.334625 0.356659 0.213837
0.354675 0.362671 0.219727
0.374969 0.368713 0.225800
0.390350 0.371979 0.228363
0.406616 0.376007 0.232513
0.426300 0.384155 0.239288
0.446075 0.393982 0.247620
0.465210 0.400574 0.257721
0.484650 0.406616 0.267059
0.502563 0.416046 0.273132
0.521851 0.426270 0.280731
0.544159 0.436371 0.292969
0.566498 0.447113 0.304504
0.592499 0.461121 0.320282
0.615662 0.472900 0.333344
0.208374 0.353424 0.236084
0.205353 0.354675 0.234528
0.207520 0.354523 0.230774
0.210724 0.354340 0.231659
0.212982 0.356354 0.232666
0.218079 0.357330 0.228668
0.225677 0.358490 0.227051
0.233948 0.362213 0.224701
0.236450 0.363190 0.221191
0.242310 0.363770 0.220459
0.254486 0.366455 0.220459
0.266357 0.367615 0.219055
0.276459 0.367615 0.217041
0.289673 0.372284 0.219696
0.304718 0.379272 0.224640
0.319275 0.378906 0.223938
0.335480 0.378937 0.223969
0.353363 0.384583 0.227722
0.368073 0.389618 0.232849
0.387878 0.395569 0.238892
0.410675 0.400360 0.241241
0.426819 0.404419 0.245422
0.447021 0.413788 0.253479
0.467346 0.423889 0.261536
0.485077 0.432220 0.266144
0.505249 0.438263 0.276245
0.528870 0.448914 0.289368
0.547150 0.459137 0.295410
0.567657 0.466766 0.305542
0.589996 0.476868 0.317780
0.616058 0.491974 0.329956
0.642303 0.506104 0.346100
0.234741 0.379791 0.250366
0.228546 0.381805 0.250366
0.225677 0.382935 0.249054
0.229858 0.380890 0.249054
0.233307 0.380707 0.248932
0.237335 0.382721 0.242889
0.243988 0.384857 0.239288
0.258087 0.390930 0.239288
0.264832 0.393616 0.237457
0.262817 0.391571 0.235443
0.270630 0.392822 0.234741
0.286896 0.396851 0.234741
0.298798 0.398041 0.233307
0.308868 0.398041 0.231293
0.322998 0.403625 0.234863
0.339142 0.411682 0.240906
0.355652 0.413391 0.242279
0.373657 0.415375 0.244263
0.388397 0.419891 0.249115
0.400513 0.424072 0.255188
0.422760 0.428772 0.257507
0.447113 0.432800 0.257507
0.467468 0.442291 0.265717
0.489655 0.454285 0.275665
0.506897 0.462891 0.279236
0.523560 0.470703 0.282288
0.548737 0.481750 0.297394
0.573547 0.493591 0.311676
0.593475 0.500183 0.321259
0.614197 0.507263 0.331909
0.640320 0.523041 0.342133
0.666656 0.538513 0.354187
0.255554 0.410278 0.264526
0.259033 0.412292 0.267273
0.253510 0.414185 0.267151
0.257690 0.413391 0.265900
0.261566 0.411652 0.265625
0.264496 0.412537 0.261810
0.269318 0.415344 0.256531
0.280518 0.421387 0.255554
0.292023 0.425385 0.255554
0.292572 0.423370 0.254364
0.295105 0.423950 0.252350
0.309875 0.428680 0.251648
0.323822 0.431183 0.250854
0.333954 0.431183 0.248840
0.346771 0.433899 0.250458
0.362915 0.441498 0.256531
0.375885 0.447479 0.259460
0.392487 0.449799 0.261108
0.413971 0.454102 0.265320
0.427673 0.458527 0.271362
0.444824 0.466339 0.278748
0.468903 0.470764 0.279266
0.491791 0.474792 0.282013
0.514130 0.486908 0.292114
0.534698 0.497375 0.297577
0.550842 0.505463 0.299591
0.575226 0.518280 0.311646
0.601593 0.530518 0.327942
0.628052 0.542847 0.340271
0.648224 0.548889 0.350372
0.675568 0.561646 0.364563
0.701935 0.577789 0.374664
0.273712 0.442688 0.278656
0.281769 0.444702 0.282684
0.285919 0.446594 0.285309
0.290100 0.446594 0.283295
0.294006 0.446075 0.281769
0.296021 0.446075 0.279755
0.299713 0.447784 0.276703
0.307800 0.453827 0.274689
0.316376 0.457794 0.273712
0.320435 0.455780 0.273712
0.325500 0.456360 0.272552
0.337616 0.462402 0.270508
0.350067 0.465607 0.269012
0.360291 0.465607 0.266998
0.373138 0.468353 0.268616
0.389282 0.474396 0.274689
0.402252 0.479889 0.277618
0.412170 0.483887 0.277618
0.432129 0.488556 0.281464
0.456482 0.494720 0.287506
0.475220 0.502808 0.294891
0.495544 0.512878 0.303101
0.518158 0.517303 0.306366
0.540375 0.521362 0.310394
0.561188 0.531952 0.316010
0.581238 0.541931 0.319916
0.605652 0.554993 0.331696
0.632019 0.569000 0.346100
0.660004 0.582886 0.358856
0.686707 0.595428 0.370697
0.714569 0.607147 0.386444
0.742432 0.620300 0.401031
0.309967 0.479614 0.297363
0.310547 0.478638 0.301422
0.318359 0.480652 0.305054
0.322418 0.482025 0.303040
0.326599 0.482788 0.302063
0.329926 0.486511 0.304993
0.331573 0.486115 0.302216
0.335205 0.487732 0.297974
0.344299 0.493805 0.295959
0.352264 0.495697 0.294983
0.358246 0.495636 0.295624
0.369507 0.500824 0.295288
0.379272 0.506897 0.292511
0.388031 0.509033 0.289764
0.401886 0.509033 0.290466
0.418640 0.513336 0.295929
0.436798 0.520447 0.301941
0.449127 0.525391 0.303375
0.460266 0.529388 0.305603
0.482239 0.535156 0.311249
0.509064 0.546234 0.318542
0.530426 0.556854 0.326721
0.553406 0.565552 0.333588
0.575714 0.569855 0.337738
0.599518 0.578491 0.341797
0.619843 0.588593 0.345825
0.648041 0.603424 0.359497
0.674408 0.617706 0.373627
0.699524 0.630432 0.383026
0.727753 0.644562 0.395264
0.757660 0.661285 0.412750
0.786041 0.673401 0.428894
0.352478 0.518097 0.317688
0.350464 0.516083 0.321716
0.350769 0.515106 0.325378
0.354797 0.517120 0.323364
0.358887 0.519257 0.322388
0.363068 0.525330 0.328430
0.365997 0.528656 0.330597
0.365997 0.526611 0.324524
0.370667 0.528229 0.320312
0.382782 0.534302 0.318268
0.392700 0.538147 0.317963
0.402771 0.542175 0.319977
0.411713 0.547394 0.318878
0.417755 0.553436 0.314819
0.430145 0.555603 0.314819
0.448425 0.555603 0.318848
0.467194 0.560944 0.324280
0.487213 0.569000 0.330231
0.500885 0.574066 0.333984
0.513000 0.578094 0.338013
0.537476 0.588745 0.344910
0.565857 0.602875 0.352997
0.589844 0.612122 0.359802
0.614075 0.620178 0.365997
0.638000 0.629089 0.370178
0.662354 0.639313 0.374207
0.690796 0.654266 0.388000
0.720947 0.670288 0.404022
0.745575 0.682800 0.412872
0.770416 0.695282 0.421478
0.800690 0.713196 0.439392
0.830688 0.730194 0.457275
0.395081 0.566345 0.351044
0.394714 0.565948 0.350189
0.392822 0.564056 0.354095
0.393860 0.564575 0.355072
0.398163 0.566864 0.353302
0.403595 0.571533 0.355255
0.408142 0.576416 0.359375
0.411835 0.575653 0.354553
0.413910 0.574707 0.350067
0.423828 0.578613 0.349152
0.432678 0.583374 0.347137
0.438843 0.586426 0.347198
0.452118 0.592804 0.349213
0.463318 0.600555 0.347717
0.472107 0.607513 0.345490
0.488190 0.610382 0.348083
0.504303 0.611420 0.350067
0.522491 0.617645 0.354218
0.542603 0.624603 0.362427
0.556793 0.629181 0.368042
0.576416 0.639496 0.373291
0.604004 0.653625 0.380981
0.628296 0.662292 0.387695
0.652252 0.670105 0.393860
0.682465 0.687256 0.406036
0.707336 0.698151 0.410736
0.731689 0.708252 0.418030
0.762085 0.724396 0.434174
0.792114 0.738678 0.448181
0.816467 0.750916 0.456238
0.846466 0.767181 0.467377
0.876892 0.785339 0.485657
0.437744 0.616913 0.387482
0.437744 0.616913 0.385468
0.437469 0.616669 0.384491
0.437469 0.616669 0.386505
0.438782 0.617432 0.387756
0.444824 0.621490 0.387756
0.450653 0.625000 0.387756
0.456696 0.625000 0.383728
0.462494 0.625305 0.380463
0.470551 0.627441 0.380463
0.477203 0.630066 0.379547
0.479218 0.632080 0.377533
0.488556 0.637482 0.377594
0.506866 0.647552 0.379608
0.520813 0.656219 0.379944
0.532898 0.664307 0.379944
0.546814 0.668182 0.380463
0.560852 0.670197 0.380463
