assets/luts/0002.CUBE
#Created by: Adobe Photoshop Export Color Lookup Plugin
TITLE "Untitled"
#LUT size
LUT_3D_SIZE 8
#data domain
#LUT data points
DOMAIN_MIN 0.000000 0.000000 0.000000
DOMAIN_MAX 0.903226 0.903226 0.903226
0.105988 0.141144 0.203918
0.135162 0.129700 0.196350
0.183075 0.129944 0.191681
0.219574 0.134125 0.176575
0.254120 0.141144 0.168762
0.291229 0.147522 0.169983
0.334503 0.167694 0.184387
0.392792 0.191406 0.193939
0.082825 0.157562 0.187500
0.130463 0.149750 0.171600
0.171600 0.149475 0.175232
0.215393 0.149994 0.172394
0.252533 0.148651 0.165924
0.291748 0.162720 0.177551
0.335022 0.174011 0.181305
0.392639 0.203918 0.197968
0.094025 0.185944 0.172668
0.121887 0.185944 0.156769
0.167725 0.178650 0.152863
0.214844 0.175507 0.160950
0.249908 0.177277 0.170288
0.293701 0.190369 0.180786
0.345337 0.208008 0.189850
0.407288 0.232666 0.207550
0.111450 0.216461 0.173431
0.127075 0.219574 0.172119
0.156281 0.216980 0.157043
0.213318 0.220367 0.159149
0.255859 0.221924 0.163818
0.309326 0.228302 0.184814
0.368256 0.252411 0.211578
0.431549 0.281738 0.234863
0.140503 0.267059 0.193420
0.148102 0.271210 0.185852
0.177490 0.276459 0.176239
0.224976 0.277771 0.173615
0.283966 0.286835 0.183746
0.345337 0.298981 0.197754
0.407501 0.319366 0.229095
0.482849 0.356262 0.261047
0.208374 0.353424 0.236084
0.212982 0.356354 0.232666
0.236450 0.363190 0.221191
0.276459 0.367615 0.217041
0.335480 0.378937 0.223969
0.410675 0.400360 0.241241
0.485077 0.432220 0.266144
0.567657 0.466766 0.305542
0.309967 0.479614 0.297363
0.326599 0.482788 0.302063
0.344299 0.493805 0.295959
0.379272 0.506897 0.292511
0.436798 0.520447 0.301941
0.509064 0.546234 0.318542
0.599518 0.578491 0.341797
0.699524 0.630432 0.383026
0.489075 0.672913 0.422211
0.494324 0.676422 0.422211
0.513885 0.685272 0.418427
0.539368 0.695343 0.412048
0.596710 0.729065 0.418915
0.678101 0.755371 0.444427
0.769501 0.796417 0.471985
0.873505 0.844788 0.511139
0.081787 0.140625 0.244537
0.130463 0.133331 0.224762
0.171082 0.133606 0.220062
0.210419 0.138031 0.211975
0.247314 0.142426 0.204193
0.289551 0.149017 0.198883
0.331512 0.165527 0.208862
0.386475 0.191406 0.216553
0.083069 0.157562 0.216156
0.118500 0.153381 0.216400
0.159393 0.153381 0.212769
0.203644 0.149994 0.204681
0.250977 0.153656 0.201294
0.284332 0.160034 0.199615
0.329620 0.176697 0.205475
0.393036 0.203918 0.221710
0.084656 0.182556 0.212250
0.111206 0.182037 0.207825
0.156006 0.178375 0.189575
0.207550 0.178894 0.197144
0.244446 0.182800 0.203430
0.289856 0.191406 0.206696
0.342133 0.205841 0.215057
0.403900 0.234344 0.231720
0.108063 0.216156 0.209625
0.116913 0.219574 0.200775
0.156006 0.216705 0.182556
0.212769 0.217499 0.189575
0.257721 0.221893 0.191589
0.305420 0.229279 0.208984
0.360260 0.256104 0.229156
0.427246 0.282013 0.249542
0.142090 0.271729 0.221313
0.149963 0.269104 0.212982
0.176727 0.276489 0.205933
0.222076 0.277771 0.200470
0.275879 0.285828 0.200134
0.342682 0.300293 0.220123
0.409302 0.322296 0.246277
0.479675 0.356262 0.280914
0.206879 0.353424 0.258545
0.216888 0.357086 0.254639
0.242157 0.361053 0.249237
0.270905 0.369385 0.238312
0.333221 0.384064 0.246948
0.406311 0.402863 0.261993
0.481689 0.428833 0.281738
0.564545 0.464294 0.322296
0.316193 0.478180 0.319855
0.326843 0.488678 0.328735
0.344177 0.489502 0.314178
0.379059 0.506104 0.315552
0.437469 0.523407 0.318573
0.511932 0.549286 0.335846
0.598999 0.578491 0.359680
0.698029 0.631348 0.398407
0.485413 0.674805 0.438599
0.496277 0.669525 0.438202
0.517822 0.684753 0.433777
0.555847 0.705902 0.436920
0.600464 0.725952 0.430969
0.683228 0.760681 0.461182
0.773041 0.799225 0.491791
0.875397 0.842621 0.527405
0.080475 0.132812 0.293243
0.126038 0.128906 0.277618
0.162781 0.133331 0.260406
0.199463 0.138794 0.247925
0.238495 0.142700 0.241394
0.274811 0.152679 0.239960
0.321350 0.168732 0.240997
0.378754 0.193176 0.252716
0.062500 0.153931 0.272125
0.102600 0.153656 0.268738
0.154968 0.149750 0.252350
0.195312 0.153381 0.244537
0.232269 0.155182 0.243774
0.278656 0.166931 0.241913
0.325714 0.180603 0.242706
0.384064 0.207550 0.254761
0.091705 0.185944 0.240875
0.107544 0.182281 0.241150
0.147125 0.175262 0.237488
0.188538 0.179413 0.242188
0.232544 0.183563 0.244293
0.278534 0.192108 0.243164
0.334503 0.209503 0.251740
0.398560 0.235840 0.268158
0.105194 0.215607 0.241913
0.117188 0.215881 0.242188
0.149231 0.220093 0.244781
0.202332 0.217224 0.227112
0.247528 0.224792 0.235962
0.299957 0.235382 0.248871
0.358032 0.256897 0.269043
0.422577 0.285400 0.288361
0.152283 0.267578 0.254852
0.163269 0.268829 0.257996
0.180389 0.273071 0.253326
0.217926 0.274872 0.235107
0.282440 0.285828 0.242126
0.334869 0.303192 0.259125
0.401764 0.325714 0.286163
0.475250 0.359436 0.315582
0.219177 0.350769 0.296326
0.220154 0.350769 0.295380
0.241516 0.362274 0.290771
0.276215 0.371063 0.281677
0.332703 0.384064 0.282715
0.402863 0.404083 0.292206
0.481689 0.428558 0.316681
0.563751 0.470703 0.355225
0.327148 0.482025 0.363770
0.326660 0.482025 0.361755
0.353699 0.493347 0.367615
0.385895 0.504883 0.356415
0.432465 0.525879 0.349182
0.506409 0.551575 0.370148
0.593201 0.575104 0.389404
0.698090 0.636108 0.434753
0.495056 0.669525 0.469574
0.508087 0.675323 0.475067
0.528046 0.685791 0.474609
0.555725 0.703033 0.472321
0.603912 0.727722 0.474487
0.680725 0.759644 0.489319
0.773682 0.803497 0.518982
0.871490 0.847382 0.553558
0.092438 0.126312 0.338013
0.122131 0.128906 0.331757
0.158875 0.133087 0.307800
0.192169 0.141937 0.281494
0.228882 0.146851 0.277588
0.268646 0.158020 0.273682
0.309235 0.173248 0.278320
0.375244 0.200195 0.295807
0.064301 0.152344 0.313782
0.102051 0.152863 0.313538
0.150787 0.146362 0.304413
0.183838 0.153931 0.280731
0.228119 0.158844 0.274475
0.266296 0.167908 0.274933
0.319153 0.185028 0.283844
0.380798 0.212250 0.295685
0.071869 0.182556 0.285675
0.087769 0.182281 0.289062
0.135681 0.178894 0.290405
0.186981 0.179413 0.274475
0.228638 0.186981 0.280243
0.274109 0.191223 0.280640
0.324799 0.213959 0.289032
0.393158 0.240021 0.305511
0.108337 0.215607 0.270569
0.121094 0.216461 0.274200
0.146362 0.216980 0.268982
0.190613 0.218018 0.276855
0.235901 0.225830 0.285461
0.289490 0.236603 0.293732
0.348541 0.255463 0.301727
0.418793 0.290741 0.326294
0.142365 0.270172 0.292450
0.157227 0.271210 0.290344
0.184265 0.275696 0.300018
0.215027 0.280640 0.295807
0.276154 0.286835 0.288513
0.328033 0.302277 0.306519
0.397034 0.330200 0.330811
0.472595 0.364594 0.365997
0.220398 0.352966 0.329041
0.228424 0.352051 0.328156
0.253906 0.356689 0.335205
0.282379 0.369171 0.335785
0.330841 0.389496 0.334839
0.404083 0.403320 0.341064
0.473694 0.431610 0.365784
0.559875 0.476746 0.411011
0.341583 0.483521 0.408691
0.351868 0.481903 0.409485
0.364777 0.490936 0.410004
0.392487 0.503693 0.411743
0.441467 0.524841 0.406586
0.505157 0.548950 0.411438
0.593933 0.586304 0.436310
0.698914 0.639893 0.477966
0.521576 0.673676 0.521149
0.522766 0.673889 0.520874
0.535645 0.686249 0.524445
0.577454 0.709015 0.528931
0.616425 0.732208 0.528900
0.679901 0.762756 0.530426
0.768799 0.802979 0.562408
0.876617 0.852600 0.600739
0.089081 0.125519 0.373871
0.105164 0.128937 0.369019
0.151886 0.132843 0.352570
0.196655 0.137238 0.325684
0.224731 0.149994 0.310089
0.264038 0.160583 0.307648
0.309052 0.177155 0.313995
0.369110 0.208069 0.329224
0.056396 0.148987 0.359650
0.094299 0.148987 0.357269
0.139862 0.146088 0.343109
0.182037 0.150543 0.326721
0.224731 0.162506 0.307220
0.269226 0.169922 0.308136
0.316010 0.189636 0.313843
0.375366 0.218811 0.334167
0.032410 0.179688 0.337921
0.067688 0.175751 0.337921
0.119446 0.179169 0.334534
0.177856 0.179688 0.326721
0.221863 0.187988 0.310608
0.267761 0.194580 0.309174
0.324432 0.216492 0.325378
0.390045 0.246094 0.346436
0.115479 0.216461 0.306915
0.113586 0.216156 0.310059
0.138580 0.217987 0.316040
0.177063 0.220062 0.318878
0.239563 0.230499 0.318146
0.290131 0.243347 0.325317
0.345428 0.263275 0.343292
0.415924 0.296692 0.366852
0.145508 0.273071 0.321991
0.162415 0.271484 0.317841
0.187347 0.276978 0.326935
0.219208 0.284546 0.334259
0.268341 0.290741 0.342621
0.323303 0.305389 0.355194
0.395447 0.334564 0.376434
0.477478 0.373352 0.404175
0.226440 0.358368 0.365723
0.233856 0.356934 0.366730
0.256592 0.363495 0.367157
0.289734 0.372620 0.376343
0.332001 0.385498 0.388702
0.403259 0.408813 0.390656
0.477020 0.439331 0.420898
0.555939 0.480774 0.455475
0.349701 0.487427 0.439301
0.360931 0.489746 0.441986
0.369415 0.491974 0.445160
0.405914 0.504242 0.453156
0.448090 0.526886 0.464539
0.511200 0.559967 0.463165
0.603973 0.597900 0.495392
0.693634 0.640350 0.526031
0.534882 0.678131 0.560547
0.540192 0.681061 0.563721
0.555817 0.685577 0.568878
0.588745 0.707336 0.581390
0.626526 0.730896 0.585419
0.695526 0.772461 0.595337
0.774353 0.810120 0.615234
0.882385 0.860077 0.648285
0.092590 0.128174 0.412781
0.108795 0.129181 0.411530
0.144257 0.132812 0.399475
0.187805 0.137573 0.374634
0.229645 0.149780 0.355652
0.262390 0.163239 0.340942
0.313538 0.183472 0.350983
0.372711 0.211670 0.367126
0.067963 0.146088 0.401520
0.083588 0.149475 0.400787
0.135620 0.146088 0.387634
0.187042 0.149536 0.375336
0.227875 0.159607 0.358032
0.259003 0.175903 0.341034
0.314606 0.192139 0.352814
0.376617 0.223450 0.367371
0.053101 0.179169 0.383484
0.071106 0.176239 0.379822
0.119598 0.178650 0.381012
0.173981 0.176758 0.377747
0.225739 0.186768 0.358856
0.268036 0.200439 0.351807
0.328339 0.223999 0.359741
0.393219 0.252472 0.379303
0.076996 0.217224 0.361938
0.087860 0.220367 0.372131
0.120026 0.223785 0.371643
0.179657 0.221924 0.369446
0.234467 0.227295 0.372620
0.289032 0.244598 0.362396
0.350037 0.267761 0.378021
0.421844 0.302826 0.401947
0.157806 0.274323 0.355865
0.164337 0.276733 0.358521
0.188354 0.279877 0.362213
0.216583 0.286560 0.374664
0.263397 0.296936 0.386658
0.324799 0.310333 0.390137
0.391968 0.339966 0.411285
0.473480 0.375336 0.436157
0.235718 0.359802 0.392670
0.243591 0.362732 0.394348
0.266632 0.368134 0.403748
0.300018 0.374786 0.408386
0.337585 0.391937 0.423584
0.399994 0.413147 0.440674
0.480469 0.449188 0.472961
0.562836 0.489105 0.504944
0.351746 0.494080 0.473816
0.365417 0.498962 0.476807
0.382111 0.502197 0.481049
0.414368 0.512543 0.490601
0.456818 0.531281 0.506195
0.524750 0.563538 0.530304
0.612213 0.607788 0.553925
0.704071 0.655640 0.594421
0.538666 0.684967 0.601746
0.544769 0.684296 0.601746
0.565186 0.697693 0.607025
0.603455 0.719208 0.622009
0.652618 0.738678 0.641449
0.712341 0.779877 0.667847
0.783112 0.821136 0.672791
0.888275 0.865814 0.709534
0.099518 0.127930 0.447723
0.111969 0.127014 0.443176
0.144257 0.129944 0.438324
0.181244 0.136383 0.424530
0.220825 0.147583 0.407410
0.272858 0.160828 0.391144
0.312561 0.190369 0.385559
0.370941 0.216339 0.400787
0.073517 0.144867 0.441162
0.092834 0.146088 0.439911
0.124268 0.149475 0.439667
0.181122 0.151245 0.421692
0.227905 0.159088 0.409607
0.272217 0.173248 0.394592
0.315582 0.197723 0.389709
0.378387 0.229218 0.407623
0.053864 0.179169 0.427582
0.070892 0.177917 0.426575
0.115936 0.178192 0.424591
0.172150 0.183075 0.420441
0.226807 0.184601 0.414825
0.279846 0.201691 0.401947
0.328857 0.228210 0.402222
0.395447 0.257874 0.418579
0.042175 0.222809 0.423218
0.070496 0.221863 0.418396
0.123627 0.222443 0.418152
0.185333 0.223419 0.416016
0.239075 0.232239 0.419464
0.298737 0.250702 0.420349
0.354736 0.274139 0.421509
0.427063 0.311432 0.439056
0.133240 0.278961 0.411194
0.145935 0.281372 0.414886
0.170166 0.282440 0.425812
0.210999 0.294403 0.436127
0.270935 0.303497 0.444519
0.337463 0.318085 0.451843
0.405762 0.350800 0.456909
0.475464 0.383850 0.480835
0.250702 0.366638 0.429474
0.254517 0.372772 0.438721
0.275146 0.376221 0.447052
0.308685 0.384308 0.453918
0.345184 0.403168 0.476013
0.401489 0.424866 0.497467
0.480774 0.453674 0.510925
0.569824 0.501892 0.543152
0.372711 0.499725 0.509369
0.378113 0.504364 0.514252
0.395844 0.508057 0.515289
0.430847 0.522369 0.529205
0.474152 0.541229 0.544983
0.532928 0.574188 0.570770
0.611816 0.608826 0.601349
0.708710 0.668213 0.654816
0.549652 0.696106 0.635864
0.565063 0.700684 0.641968
0.579681 0.713470 0.656860
0.614655 0.727539 0.665405
0.665649 0.749939 0.682251
0.729492 0.788330 0.715485
0.801239 0.828003 0.746094
0.891785 0.872009 0.765747
0.093567 0.129425 0.485413
0.111725 0.131195 0.480865
0.144470 0.131714 0.476685
0.185547 0.138794 0.469604
0.229645 0.151001 0.459839
0.270325 0.164490 0.444214
0.325409 0.191864 0.439514
0.380524 0.226288 0.437225
0.075897 0.144592 0.478851
0.095642 0.146088 0.477600
0.132355 0.149994 0.474945
0.180267 0.150513 0.471558
0.223846 0.162567 0.457672
0.273895 0.177856 0.445953
0.330231 0.202606 0.444122
0.387756 0.238800 0.445679
0.049866 0.180389 0.471558
0.088837 0.179169 0.467133
0.120819 0.179169 0.468872
0.173340 0.183319 0.467194
0.225403 0.192932 0.465515
0.283356 0.202026 0.455322
0.343018 0.229736 0.451416
0.399780 0.267731 0.459900
0.073883 0.221924 0.463165
0.091187 0.224060 0.465759
0.127472 0.225555 0.467529
0.182587 0.231476 0.469971
0.238983 0.238098 0.472229
0.303680 0.255463 0.474854
0.366974 0.278625 0.474457
0.439758 0.323761 0.488464
0.121613 0.284393 0.474670
0.133209 0.286072 0.479889
0.156860 0.291718 0.485077
0.214874 0.299835 0.485779
0.270294 0.308441 0.492767
0.342072 0.325989 0.508148
0.413208 0.355682 0.510040
0.492065 0.399811 0.525818
0.244568 0.379333 0.491302
0.247864 0.378265 0.492645
0.263275 0.385559 0.502472
0.307190 0.401917 0.520111
0.349915 0.411987 0.537201
0.410095 0.434937 0.555450
0.499878 0.468079 0.577301
0.580627 0.510132 0.592621
0.382141 0.509827 0.554413
0.390015 0.513031 0.557343
0.418030 0.522156 0.560608
0.450745 0.535187 0.574310
0.491913 0.555206 0.598969
0.548187 0.589813 0.630920
0.624207 0.629395 0.668610
0.722443 0.682861 0.696503
0.576355 0.715363 0.687317
0.590485 0.714111 0.684174
0.601990 0.723816 0.692566
0.639313 0.740356 0.704803
0.689728 0.768341 0.725250
0.740753 0.802094 0.752869
0.824554 0.842804 0.787811
0.898621 0.889069 0.834900
