assets/luts/0003.CUBE
#Created by: Adobe Photoshop Export Color Lookup Plugin
TITLE "Screenshot from 2024-08-15 12-32-58.png"
#LUT size
LUT_3D_SIZE 5
#data domain
#LUT data points
DOMAIN_MIN 0.000000 0.000000 0.000000
DOMAIN_MAX 0.903226 0.903226 0.903226
0.000000 0.000000 0.000000
0.113220 0.000000 0.037445
0.224792 0.000000 0.142975
0.343109 0.000000 0.163300
0.477936 0.023743 0.180084
0.066040 0.090424 0.130981
0.141205 0.080200 0.147766
0.248993 0.069397 0.162659
0.358948 0.072266 0.173737
0.502930 0.113312 0.190033
0.187744 0.187744 0.182281
0.227173 0.188660 0.185272
0.310699 0.193481 0.193085
0.426758 0.208771 0.198181
0.592072 0.256927 0.202667
0.379791 0.366119 0.214325
0.417664 0.373352 0.213470
0.492859 0.383179 0.212616
0.624969 0.414307 0.185028
0.816376 0.492035 0.096039
0.734894 0.706451 0.174194
0.749420 0.711823 0.184967
0.798737 0.736176 0.229858
0.878998 0.786713 0.323730
0.976227 0.847321 0.446747
0.007233 0.000000 0.104706
0.104706 0.002411 0.135803
0.213074 0.000000 0.217773
0.331146 0.000000 0.226318
0.470398 0.030457 0.239807
0.051575 0.086517 0.200043
0.123962 0.080200 0.216278
0.235596 0.070892 0.230225
0.350342 0.073120 0.233673
0.500122 0.109009 0.245209
0.184418 0.193146 0.235626
0.216980 0.187744 0.237122
0.308289 0.194366 0.238953
0.426361 0.208832 0.244354
0.591553 0.253784 0.249268
0.378052 0.369385 0.252869
0.408386 0.370941 0.253052
0.491364 0.384674 0.251556
0.643005 0.427368 0.222473
0.825897 0.496277 0.163025
0.727356 0.701294 0.206268
0.750702 0.714905 0.229431
0.804291 0.736115 0.274902
0.877625 0.790375 0.362976
0.975586 0.854736 0.488861
0.059753 0.000000 0.206360
0.088593 0.014709 0.252014
0.211456 0.000000 0.302521
0.326691 0.000000 0.307526
0.476166 0.042450 0.320160
0.039856 0.082611 0.294128
0.118561 0.077209 0.301941
0.231689 0.071808 0.306641
0.349091 0.077667 0.311432
0.502533 0.116882 0.321014
0.184753 0.192566 0.313538
0.217285 0.189575 0.305939
0.308624 0.198273 0.315338
0.432617 0.214233 0.326416
0.598206 0.260956 0.329285
0.390625 0.367432 0.321472
0.422607 0.377197 0.325500
0.504089 0.393982 0.327057
0.646973 0.424408 0.295776
0.840393 0.503479 0.254791
0.743683 0.713593 0.324249
0.755707 0.715363 0.325500
0.804810 0.750641 0.374756
0.883209 0.793671 0.448334
0.969666 0.859039 0.567871
0.004547 0.016266 0.350281
0.080200 0.012115 0.375305
0.209808 0.000000 0.385254
0.333954 0.000000 0.388306
0.485748 0.057220 0.399628
0.067291 0.077850 0.384552
0.127869 0.075714 0.383698
0.230072 0.077667 0.387848
0.356171 0.084442 0.392212
0.514099 0.129639 0.398499
0.195282 0.189941 0.388947
0.233185 0.194977 0.391357
0.315277 0.199890 0.392059
0.444489 0.219574 0.400665
0.619965 0.271912 0.406250
0.414307 0.376556 0.400024
0.453491 0.381317 0.396942
0.529724 0.405975 0.401459
0.673157 0.442535 0.371338
0.862091 0.520660 0.357208
0.756439 0.727448 0.430878
0.773651 0.732269 0.440704
0.818146 0.754944 0.472260
0.889069 0.810638 0.567688
0.973938 0.869965 0.668823
0.035461 0.007812 0.461578
0.123291 0.000000 0.459839
0.219513 0.005157 0.468506
0.346893 0.015839 0.472931
0.506256 0.076447 0.482605
0.105591 0.080719 0.467255
0.148804 0.077850 0.464386
0.250519 0.079865 0.468750
0.375549 0.097229 0.474213
0.536621 0.139435 0.482880
0.226990 0.199127 0.473358
0.264557 0.199890 0.471802
0.345459 0.210968 0.478119
0.472137 0.235718 0.483521
0.658020 0.293518 0.483154
0.473877 0.392426 0.489532
0.496307 0.395477 0.489899
0.583649 0.417755 0.472992
0.720886 0.463287 0.442139
0.893524 0.543030 0.451416
0.788879 0.745239 0.549072
0.800598 0.752930 0.559998
0.835083 0.780273 0.604431
0.896545 0.826752 0.680267
0.970947 0.887299 0.787292
