assets/luts/0003.CUBE
#Created by: Adobe Photoshop Export Color Lookup Plugin
TITLE "Screenshot from 2024-08-15 12-32-58.png"
#LUT size
LUT_3D_SIZE 8
#data domain
#LUT data points
DOMAIN_MIN 0.000000 0.000000 0.000000
DOMAIN_MAX 0.903226 0.903226 0.903226
0.000000 0.000000 0.000000
0.058350 0.000000 0.001038
0.121857 0.001038 0.056244
0.184357 0.009369 0.128632
0.263153 0.000000 0.151001
0.324951 0.000000 0.159241
0.397858 0.000000 0.170258
0.477936 0.023743 0.180084
0.001831 0.052856 0.050781
0.069550 0.045044 0.071106
0.137512 0.040619 0.110138
0.203949 0.027374 0.142456
0.263672 0.020599 0.153381
0.329132 0.016541 0.166168
0.405945 0.032379 0.174164
0.482361 0.063538 0.183075
0.093262 0.101074 0.150513
0.114563 0.097168 0.150513
0.166412 0.089355 0.157806
0.220337 0.087006 0.159668
0.283783 0.083618 0.169800
0.346130 0.089874 0.171234
0.422058 0.097351 0.179626
0.509491 0.131592 0.190552
0.155243 0.155243 0.174225
0.167999 0.154724 0.177338
0.211212 0.155243 0.178894
0.254150 0.156036 0.185944
0.307983 0.153687 0.182800
0.380035 0.162720 0.190308
0.463715 0.179535 0.195190
0.559418 0.206268 0.199799
0.223053 0.224091 0.192383
0.236053 0.226959 0.189514
0.272766 0.226990 0.191376
0.318878 0.231903 0.200256
0.375549 0.238892 0.198151
0.449921 0.250183 0.205139
0.533356 0.274414 0.209747
0.640533 0.308319 0.198395
0.341339 0.333710 0.210297
0.349915 0.333710 0.212708
0.384003 0.339569 0.210297
0.428284 0.340881 0.209961
0.490448 0.355103 0.212952
0.568176 0.373810 0.199127
0.661560 0.409821 0.183075
0.779022 0.452057 0.126923
0.518738 0.481689 0.170258
0.544098 0.491547 0.166962
0.574585 0.497833 0.157898
0.610626 0.505066 0.144501
0.673767 0.519592 0.129730
0.753601 0.553131 0.117126
0.834351 0.590790 0.122955
0.917114 0.641510 0.181030
0.734894 0.706451 0.174194
0.738800 0.713348 0.176178
0.755005 0.712891 0.183594
0.783630 0.728027 0.212921
0.824249 0.749725 0.253265
0.866364 0.775085 0.300964
0.917328 0.806183 0.371277
0.976227 0.847321 0.446747
0.000000 0.000000 0.057281
0.057281 0.000000 0.058075
0.124207 0.001038 0.103394
0.180176 0.006256 0.163055
0.254822 0.000000 0.185944
0.317139 0.000000 0.189117
0.393707 0.000000 0.201294
0.473724 0.025909 0.208466
0.001831 0.048950 0.091675
0.068237 0.045044 0.115356
0.126282 0.044006 0.150787
0.195801 0.034607 0.186462
0.260529 0.017731 0.187988
0.327606 0.022156 0.197906
0.402039 0.026917 0.203064
0.484894 0.061646 0.208466
0.078674 0.097687 0.179932
0.107025 0.097412 0.186188
0.161987 0.093506 0.187225
0.215668 0.083344 0.191132
0.278595 0.086731 0.197418
0.339752 0.090637 0.202271
0.420288 0.100739 0.210083
0.510284 0.127014 0.215057
0.148743 0.158905 0.199738
0.164368 0.158905 0.202087
0.200806 0.155518 0.205475
0.257263 0.156036 0.205994
0.310303 0.153412 0.206238
0.380493 0.163452 0.207733
0.461121 0.180054 0.216949
0.554779 0.207520 0.218231
0.222809 0.226959 0.211670
0.232666 0.227234 0.214050
0.263367 0.224854 0.215088
0.313965 0.229553 0.218750
0.374512 0.238892 0.215851
0.446167 0.253326 0.221863
0.533447 0.274414 0.223572
0.644592 0.307373 0.220093
0.338654 0.333954 0.223053
0.349396 0.334686 0.225983
0.384521 0.337158 0.227631
0.425476 0.341858 0.229370
0.490204 0.357758 0.229156
0.574371 0.380280 0.212341
0.660461 0.410614 0.204376
0.782013 0.449158 0.155518
0.522186 0.489319 0.199066
0.542694 0.497406 0.187439
0.566956 0.495972 0.181580
0.613098 0.505890 0.166473
0.676758 0.524750 0.153992
0.757874 0.559570 0.142792
0.831940 0.588379 0.142090
0.917389 0.645416 0.206726
0.730347 0.706451 0.185730
0.731506 0.705353 0.182404
0.755188 0.711700 0.197937
0.783264 0.731171 0.230713
0.822937 0.748779 0.272614
0.865387 0.779236 0.332245
0.918365 0.813599 0.392517
0.974091 0.849457 0.464508
0.015381 0.000000 0.116913
0.065613 0.000000 0.122375
0.115875 0.004944 0.164093
0.172180 0.009369 0.220856
0.249390 0.000000 0.233887
0.312500 0.000000 0.235687
0.390045 0.000000 0.243927
0.470398 0.032471 0.251495
0.021606 0.045319 0.159668
0.056763 0.052094 0.182556
0.114563 0.047913 0.213287
0.187469 0.028412 0.228149
0.255341 0.020844 0.235474
0.325409 0.023590 0.244385
0.394470 0.033569 0.248505
0.482086 0.062042 0.249603
0.071899 0.097687 0.223724
0.099243 0.097168 0.227631
0.149750 0.090393 0.234924
0.210968 0.089081 0.241913
0.271027 0.083588 0.242432
0.339813 0.091949 0.246857
0.413269 0.101776 0.251221
0.504669 0.127289 0.255920
0.138580 0.155518 0.238800
0.159943 0.158905 0.242432
0.193756 0.152649 0.240356
0.250244 0.156036 0.246338
0.307983 0.159698 0.245850
0.377838 0.163696 0.251038
0.459991 0.184235 0.258057
0.557190 0.210327 0.255920
0.217804 0.227997 0.248901
0.238464 0.230103 0.251007
0.262573 0.225616 0.248383
0.309265 0.230804 0.248657
0.371094 0.242279 0.255157
0.445831 0.256744 0.258057
0.536316 0.276367 0.261444
0.640594 0.310455 0.253357
0.340607 0.334930 0.258789
0.346802 0.334686 0.259766
0.385681 0.342560 0.261963
0.426239 0.343781 0.258789
0.489929 0.358276 0.264648
0.569763 0.378845 0.247070
0.666779 0.412537 0.235352
0.786133 0.454346 0.195251
0.534363 0.493408 0.224609
0.547852 0.498749 0.220428
0.571777 0.499359 0.214722
0.622620 0.511444 0.198792
0.674744 0.522064 0.186554
0.759949 0.560608 0.179108
0.832733 0.587402 0.197937
0.918304 0.649200 0.252899
0.728851 0.705902 0.226135
0.735962 0.713989 0.235931
0.757751 0.718414 0.248749
0.786713 0.730255 0.267273
0.823212 0.749512 0.304443
0.866547 0.778351 0.359314
0.919617 0.815491 0.426331
0.974091 0.854736 0.495422
0.061981 0.000000 0.171661
0.078125 0.001038 0.191132
0.103638 0.015625 0.223724
0.170074 0.009369 0.276031
0.240784 0.000000 0.277588
0.317017 0.000000 0.283112
0.387512 0.003723 0.287750
0.472137 0.042633 0.296967
0.020844 0.045563 0.220337
0.047638 0.047668 0.238586
0.103394 0.047150 0.269287
0.179932 0.028931 0.279419
0.251953 0.025269 0.283356
0.317657 0.029633 0.286957
0.393097 0.042511 0.291199
0.485657 0.069031 0.297974
0.061707 0.093781 0.276031
0.097931 0.096893 0.282288
0.146637 0.093506 0.280243
0.210693 0.087250 0.283112
0.271271 0.087524 0.283630
0.334869 0.093140 0.290680
0.420105 0.108978 0.295624
0.511780 0.132904 0.300232
0.145081 0.159149 0.284668
0.159943 0.152130 0.276581
0.190643 0.152649 0.283630
0.243774 0.156799 0.290924
0.310364 0.160950 0.292480
0.373596 0.167084 0.296844
0.460449 0.185730 0.300232
0.557465 0.211761 0.301880
0.221985 0.230103 0.292206
0.235748 0.227997 0.292450
0.265717 0.234528 0.295074
0.311066 0.235809 0.301880
0.374512 0.239410 0.295868
0.451263 0.257446 0.299774
0.535736 0.278320 0.302429
0.651886 0.318848 0.303864
0.346344 0.333710 0.298431
0.353760 0.333130 0.299011
0.387482 0.340363 0.300507
0.427551 0.346802 0.299988
0.499023 0.360535 0.301056
0.575623 0.379517 0.291901
0.664612 0.411194 0.277405
0.792755 0.456024 0.248657
0.548645 0.498840 0.267029
0.555023 0.498108 0.265472
0.581726 0.502747 0.256256
0.623413 0.513702 0.247192
0.688080 0.527466 0.240143
0.761383 0.561188 0.236603
0.835144 0.593933 0.247894
0.920044 0.649536 0.306152
0.738281 0.712616 0.288361
0.742188 0.712830 0.290802
0.757141 0.722443 0.308563
0.788849 0.741730 0.333374
0.829651 0.752716 0.358002
0.868561 0.778900 0.407776
0.918823 0.816132 0.470551
0.971558 0.859039 0.546448
0.055573 0.002045 0.238678
0.057587 0.009369 0.261322
0.091736 0.013763 0.289917
0.170898 0.000488 0.320190
0.234772 0.000000 0.323853
0.312195 0.002045 0.331665
0.387634 0.005035 0.334564
0.475769 0.046661 0.341980
0.009430 0.048431 0.289490
0.022949 0.047913 0.302032
0.101837 0.042969 0.320221
0.179932 0.031281 0.323608
0.247009 0.022400 0.328522
0.315765 0.031342 0.329468
0.396240 0.048248 0.336334
0.483551 0.080811 0.339966
0.061737 0.093781 0.321472
0.092438 0.094025 0.326996
0.147400 0.090881 0.328278
0.198425 0.090637 0.325653
0.268646 0.088531 0.328308
0.336853 0.093689 0.332397
0.417755 0.107208 0.336060
0.511169 0.133728 0.345184
0.136200 0.158905 0.334564
0.154938 0.153137 0.329071
0.191132 0.156006 0.335327
0.244293 0.157837 0.332703
0.305634 0.162506 0.337372
0.377777 0.167358 0.336273
0.462219 0.187225 0.342712
0.566345 0.216492 0.348114
0.226135 0.230865 0.333710
0.243042 0.230865 0.332947
0.274017 0.233429 0.333710
0.320129 0.240479 0.340271
0.378418 0.245667 0.340515
0.454437 0.258484 0.349640
0.540558 0.282806 0.348236
0.661957 0.322174 0.347931
0.361664 0.337799 0.347290
0.372833 0.339874 0.344910
0.391510 0.343781 0.344635
0.434662 0.348358 0.345673
0.500000 0.367615 0.348114
0.584442 0.383789 0.333893
0.685822 0.420593 0.322449
0.792755 0.459503 0.292236
0.558868 0.498810 0.309631
0.573944 0.504913 0.307922
0.589417 0.502411 0.305695
0.637665 0.517609 0.297028
0.698456 0.539215 0.288483
0.766998 0.563293 0.287903
0.855225 0.606903 0.311432
0.925049 0.652924 0.357452
0.744965 0.719940 0.352386
0.748291 0.718231 0.354828
0.765045 0.728058 0.362610
0.789154 0.738586 0.379822
0.828247 0.761627 0.415741
0.876892 0.791016 0.470154
0.916992 0.821869 0.528320
0.971985 0.863342 0.594574
0.006561 0.018280 0.330109
0.023956 0.019257 0.342163
0.092926 0.012634 0.367676
0.172150 0.000000 0.368958
0.242004 0.000000 0.373352
0.311615 0.000000 0.376190
0.391296 0.017914 0.377411
0.485229 0.049683 0.386993
0.005798 0.047180 0.361694
0.029266 0.044983 0.364807
0.113617 0.035492 0.368195
0.186829 0.029968 0.372681
0.249054 0.033356 0.377197
0.316925 0.029053 0.376434
0.402832 0.050262 0.381592
0.492645 0.087646 0.388885
0.081146 0.093567 0.372620
0.105103 0.093567 0.370209
0.151306 0.093048 0.375458
0.203979 0.091370 0.373596
0.267090 0.091614 0.374054
0.343964 0.096771 0.377411
0.421204 0.116394 0.387634
0.520844 0.144379 0.388947
0.147095 0.152588 0.376190
0.166687 0.156494 0.379303
0.196747 0.157318 0.380096
0.249176 0.157257 0.376190
0.309998 0.164185 0.383087
0.391327 0.174927 0.387909
0.470032 0.192505 0.388947
0.575745 0.222626 0.394745
0.234985 0.232697 0.383575
0.256805 0.233490 0.385101
0.282471 0.236816 0.386963
0.331421 0.241516 0.387695
0.381927 0.250793 0.385010
0.458160 0.261139 0.392609
0.557892 0.290161 0.389435
0.663635 0.327332 0.389465
0.373810 0.340088 0.387909
0.381592 0.343262 0.385223
0.410217 0.345032 0.385040
0.459106 0.356293 0.388672
0.518738 0.368469 0.387268
0.596191 0.391815 0.379425
0.699188 0.424286 0.368195
0.819550 0.473480 0.350494
0.577332 0.503967 0.352783
0.588837 0.506256 0.348694
0.615906 0.511932 0.350586
0.656616 0.522949 0.341980
0.705109 0.539764 0.341339
0.781219 0.572998 0.346802
0.861755 0.612091 0.372711
0.932678 0.663452 0.424957
0.755463 0.726410 0.417084
0.760803 0.728699 0.419098
0.775513 0.732025 0.427826
0.800781 0.753906 0.453339
0.832153 0.765900 0.484039
0.874420 0.798950 0.535767
0.924805 0.825867 0.583008
0.971466 0.864960 0.652222
0.009003 0.012634 0.409576
0.021912 0.013275 0.408997
0.115051 0.002930 0.416809
0.180573 0.000793 0.413666
0.242065 0.003357 0.421112
0.314728 0.009125 0.422302
0.397552 0.021606 0.422302
0.490631 0.062439 0.432526
0.037811 0.038055 0.415558
0.082489 0.031860 0.414673
0.120483 0.035095 0.419769
0.189514 0.028351 0.420044
0.251312 0.035126 0.424255
0.329651 0.037842 0.424469
0.409546 0.048248 0.428894
0.504883 0.087128 0.430389
0.093506 0.091888 0.419769
0.111237 0.096191 0.421082
0.154327 0.096710 0.423218
0.217621 0.093567 0.426056
0.272156 0.097717 0.422302
0.352295 0.104706 0.428375
0.438721 0.121460 0.429596
0.535583 0.146912 0.437408
0.164429 0.156036 0.422302
0.184937 0.159485 0.423553
0.213654 0.158752 0.423798
0.260254 0.161499 0.427002
0.322998 0.166626 0.426270
0.393799 0.182465 0.434479
0.488495 0.197357 0.437225
0.590118 0.229248 0.439514
0.263153 0.234894 0.429199
0.274200 0.236542 0.431793
0.295624 0.240265 0.431549
0.345032 0.244049 0.431915
0.408020 0.256256 0.435608
0.483643 0.272644 0.437195
0.576965 0.299927 0.446350
0.683014 0.333618 0.432587
0.395996 0.344269 0.433044
0.408722 0.350891 0.437469
0.435120 0.359406 0.439178
0.476868 0.367035 0.443359
0.541138 0.379089 0.431976
0.614197 0.401489 0.425903
0.721466 0.433411 0.408447
0.836029 0.481964 0.389740
0.611237 0.513641 0.394012
0.618591 0.510986 0.389832
0.638947 0.520020 0.388733
0.684601 0.533966 0.382568
0.734406 0.554016 0.386261
0.799774 0.583832 0.401215
0.869995 0.624390 0.433716
0.935577 0.674133 0.496918
0.767883 0.734619 0.480164
0.773834 0.732483 0.479523
0.787109 0.749664 0.502167
0.812561 0.755676 0.517242
0.839081 0.781158 0.552521
0.878387 0.807037 0.603424
0.919006 0.842102 0.654694
0.976624 0.876434 0.712952
0.035461 0.007812 0.461578
0.091034 0.000275 0.461578
0.133911 0.000519 0.460876
0.196472 0.001770 0.466278
0.258514 0.005127 0.466522
0.328674 0.010803 0.471893
0.410797 0.039703 0.478455
0.506256 0.076447 0.482605
0.073120 0.033356 0.465240
0.095673 0.035370 0.463745
0.146179 0.033875 0.468811
0.194977 0.033875 0.466736
0.267365 0.038940 0.470428
0.333374 0.050446 0.472076
0.418457 0.071320 0.474548
0.512115 0.105194 0.479523
0.113251 0.093384 0.467255
0.142517 0.092804 0.469543
0.174713 0.093567 0.467438
0.225891 0.097748 0.467255
0.285828 0.099731 0.472595
0.358368 0.113129 0.474548
0.450775 0.125000 0.477478
0.548370 0.156219 0.483429
0.185516 0.159546 0.472534
0.199524 0.161438 0.472839
0.232697 0.160461 0.470703
0.276642 0.166382 0.473114
0.340454 0.171326 0.475128
0.413757 0.182861 0.479248
0.500793 0.207916 0.481903
0.615143 0.246033 0.485535
0.281189 0.239319 0.478241
0.293732 0.238586 0.477234
0.317780 0.243805 0.479095
0.361267 0.250244 0.478729
0.421112 0.263611 0.484283
0.498688 0.281403 0.483459
0.594543 0.310516 0.485077
0.716553 0.350403 0.476227
0.431274 0.356964 0.485016
0.434967 0.357483 0.484497
0.457306 0.359741 0.485809
0.514709 0.374664 0.482788
0.563019 0.390350 0.477234
0.642883 0.417175 0.471985
0.751007 0.449432 0.447449
0.859161 0.498383 0.444733
0.641235 0.519836 0.439117
0.648743 0.522247 0.437225
0.674408 0.528168 0.439697
0.712250 0.543915 0.439178
0.754425 0.562683 0.441833
0.827606 0.598877 0.460480
0.887939 0.637817 0.505707
0.949738 0.691437 0.566833
0.788879 0.745239 0.549072
0.792786 0.749664 0.550659
0.801117 0.755463 0.562073
0.819641 0.766571 0.582092
0.853638 0.795105 0.622131
0.885895 0.821167 0.666046
0.929962 0.851654 0.725067
0.970947 0.887299 0.787292
