assets/luts/0003.CUBE
#Created by: Adobe Photoshop Export Color Lookup Plugin
TITLE "Screenshot from 2024-08-15 12-32-58.png"
#LUT size
LUT_3D_SIZE 32
#data domain
DOMAIN_MIN 0.0 0.0 0.0
DOMAIN_MAX 1.0 1.0 1.0
#LUT data points
0.000000 0.000000 0.000000
0.012115 0.000000 0.000000
0.024475 0.000000 0.000000
0.040771 0.000000 0.000000
0.058350 0.000000 0.001038
0.084717 0.000000 0.009125
0.107147 0.000000 0.019165
0.113220 0.000000 0.037445
0.121857 0.001038 0.056244
0.138000 0.005066 0.076416
0.153534 0.008453 0.095978
0.167816 0.010468 0.114288
0.184357 0.009369 0.128632
0.204529 0.003326 0.136719
0.224792 0.000000 0.142975
0.245087 0.000000 0.147003
0.263153 0.000000 0.151001
0.279022 0.000000 0.154968
0.294037 0.000000 0.156769
0.308289 0.000000 0.156769
0.324951 0.000000 0.159241
0.343109 0.000000 0.163300
0.361359 0.000000 0.166046
0.379669 0.000000 0.168182
0.397858 0.000000 0.170258
0.416016 0.000000 0.172272
0.434296 0.003265 0.174286
0.452606 0.007294 0.176300
0.477936 0.023743 0.180084
0.504303 0.042053 0.184113
0.526764 0.056458 0.184387
0.548950 0.070587 0.184387
0.000000 0.006042 0.000000
0.008087 0.006042 0.000000
0.020721 0.006195 0.000519
0.040771 0.008087 0.008087
0.057800 0.007812 0.010437
0.080536 0.006042 0.027405
0.104584 0.006042 0.036255
0.117249 0.006042 0.049561
0.124847 0.007599 0.067352
0.138000 0.013153 0.084625
0.154846 0.015228 0.102203
0.171844 0.014526 0.116302
0.187622 0.012634 0.130646
0.206543 0.005341 0.138733
0.224976 0.001099 0.144989
0.243073 0.000000 0.149017
0.261139 0.000000 0.149963
0.277008 0.000000 0.150940
0.293121 0.000000 0.154938
0.308289 0.000000 0.156769
0.323700 0.000000 0.159241
0.341095 0.000000 0.163300
0.360718 0.002747 0.167419
0.379669 0.004028 0.170227
0.397858 0.007019 0.172272
0.416016 0.008087 0.174286
0.434296 0.012970 0.174683
0.452606 0.017395 0.176300
0.476166 0.030334 0.180084
0.502289 0.048096 0.184113
0.530396 0.068176 0.188141
0.553009 0.082672 0.188416
0.000000 0.013031 0.001556
0.008606 0.012756 0.001312
0.017334 0.012756 0.002228
0.037628 0.014771 0.010284
0.057678 0.016418 0.019135
0.079865 0.014404 0.037445
0.100922 0.012634 0.054413
0.115204 0.012634 0.066528
0.128906 0.013794 0.079437
0.140991 0.019867 0.095734
0.155243 0.023041 0.110291
0.173523 0.021027 0.122375
0.191925 0.016815 0.132538
0.210083 0.008728 0.140625
0.226990 0.003632 0.146881
0.243286 0.001617 0.150909
0.259369 0.000519 0.151978
0.275269 0.000519 0.149994
0.291351 0.000397 0.151428
0.307648 0.000397 0.155487
0.323975 0.000641 0.159393
0.340118 0.000641 0.163422
0.359100 0.003510 0.167419
0.379395 0.007538 0.171570
0.398132 0.011200 0.174164
0.416290 0.015228 0.176178
0.434418 0.021423 0.176575
0.452728 0.027496 0.176575
0.476410 0.040283 0.180328
0.500763 0.054535 0.184387
0.528656 0.073975 0.188141
0.556915 0.094147 0.192200
0.000000 0.033356 0.025909
0.016144 0.029297 0.021881
0.025391 0.029053 0.022522
0.043701 0.029053 0.036652
0.063202 0.030792 0.044983
0.077850 0.030670 0.055603
0.099701 0.028656 0.072357
0.119232 0.026886 0.082825
0.132935 0.026886 0.094910
0.145050 0.028076 0.107849
0.159790 0.030182 0.120819
0.179596 0.025055 0.128448
0.198669 0.021484 0.136658
0.218292 0.014801 0.140625
0.232819 0.011261 0.146881
0.245300 0.011719 0.150909
0.261383 0.009705 0.152863
0.277283 0.008606 0.152008
0.293396 0.007477 0.154419
0.309662 0.006439 0.159515
0.327087 0.008911 0.162384
0.344147 0.010742 0.165588
0.363129 0.014832 0.168243
0.383453 0.019653 0.171570
0.402161 0.019196 0.174164
0.420319 0.021301 0.176178
0.436951 0.033569 0.176575
0.454742 0.041748 0.176575
0.480072 0.049561 0.183594
0.504822 0.062622 0.188416
0.530914 0.076752 0.188660
0.558929 0.096161 0.192200
0.001831 0.052856 0.050781
0.018250 0.048828 0.047791
0.034119 0.045044 0.044403
0.052032 0.045044 0.058014
0.069550 0.045044 0.071106
0.083679 0.045044 0.081177
0.098450 0.044647 0.090759
0.118774 0.042633 0.100983
0.137512 0.040619 0.110138
0.149628 0.040619 0.122253
0.164337 0.038910 0.132141
0.184662 0.032715 0.138214
0.203949 0.027374 0.142456
0.224243 0.021301 0.144470
0.240234 0.018372 0.147400
0.250305 0.020386 0.151428
0.263672 0.020599 0.153381
0.279541 0.018616 0.153381
0.295654 0.016602 0.156189
0.311951 0.014587 0.162231
0.329132 0.016541 0.166168
0.347290 0.020599 0.168304
0.366638 0.025726 0.169861
0.386963 0.031799 0.171875
0.405945 0.032379 0.174164
0.424103 0.030334 0.176178
0.441528 0.040924 0.177338
0.457794 0.055176 0.177338
0.482361 0.063538 0.183075
0.508728 0.071625 0.191162
0.534973 0.085358 0.192200
0.561218 0.099487 0.192200
0.015930 0.066986 0.079163
0.034241 0.062958 0.083221
0.050415 0.059174 0.080872
0.062500 0.059174 0.086914
0.079620 0.059174 0.099487
0.091888 0.059174 0.105530
0.106384 0.058777 0.114838
0.122803 0.056763 0.121185
0.142090 0.054230 0.128754
0.157837 0.050720 0.130341
0.172516 0.049408 0.139832
0.192749 0.044952 0.144257
0.209930 0.041168 0.147980
0.224243 0.039612 0.148499
0.240875 0.035370 0.151428
0.252319 0.034637 0.155457
0.266449 0.035614 0.157410
0.283600 0.034882 0.157410
0.299713 0.032898 0.158539
0.315979 0.030884 0.162231
0.332184 0.033813 0.167145
0.349304 0.038879 0.170349
0.367554 0.042908 0.169647
0.386963 0.048065 0.169861
0.407166 0.051117 0.173370
0.426117 0.050659 0.176178
0.447632 0.058411 0.181458
0.465881 0.071350 0.183411
0.487427 0.076691 0.181641
0.512756 0.083710 0.187103
0.539124 0.097595 0.191406
0.565399 0.111725 0.192200
0.033600 0.080322 0.106750
0.049561 0.076691 0.109619
0.066956 0.072906 0.113525
0.078003 0.072906 0.119080
0.090393 0.072388 0.124329
0.102753 0.072144 0.130005
0.114960 0.072144 0.135681
0.131104 0.070099 0.141724
0.146881 0.067963 0.145844
0.163177 0.063934 0.145844
0.179138 0.060669 0.146729
0.199341 0.056641 0.150787
0.217621 0.054169 0.154449
0.229858 0.054169 0.154449
0.242432 0.053253 0.155487
0.254547 0.051239 0.159515
0.268463 0.050262 0.161469
0.286346 0.050262 0.161469
0.303741 0.050323 0.162201
0.320007 0.048309 0.164215
0.336639 0.050049 0.167542
0.352783 0.056122 0.171692
0.370361 0.060425 0.172058
0.388641 0.064453 0.170044
0.408752 0.066986 0.172150
0.428925 0.069000 0.176178
0.450439 0.078339 0.181458
0.472778 0.088440 0.187500
0.495483 0.093628 0.187317
0.517822 0.097687 0.185272
0.543549 0.109314 0.188538
0.569916 0.123566 0.192566
0.066040 0.090424 0.130981
0.072205 0.088409 0.128967
0.087250 0.085022 0.131683
0.091309 0.085022 0.133728
0.102631 0.084503 0.138458
0.116760 0.080475 0.138458
0.129089 0.080200 0.143738
0.141205 0.080200 0.147766
0.156860 0.078186 0.151764
0.171234 0.076050 0.149872
0.186188 0.073303 0.150513
0.199341 0.072784 0.152802
0.218781 0.070312 0.157654
0.235901 0.070312 0.162659
0.248993 0.069397 0.162659
0.262604 0.067383 0.163696
0.274628 0.066406 0.165649
0.288361 0.066406 0.165649
0.306458 0.068604 0.165649
0.324036 0.070496 0.166382
0.341553 0.069702 0.169617
0.358948 0.072266 0.173737
0.376465 0.075592 0.175049
0.394714 0.078583 0.174072
0.415985 0.081116 0.175049
0.437134 0.083130 0.178192
0.457336 0.095032 0.182220
0.478821 0.106720 0.187500
0.502930 0.113312 0.190033
0.525909 0.117981 0.189331
0.550110 0.122040 0.191071
0.575958 0.133667 0.194580
0.093262 0.101074 0.150513
0.099915 0.099060 0.148499
0.105835 0.097168 0.146606
0.109497 0.097168 0.148254
0.114563 0.097168 0.150513
0.128448 0.093658 0.151031
0.142212 0.090393 0.151031
0.154327 0.090393 0.154816
0.166412 0.089355 0.157806
0.180695 0.087341 0.155792
0.194244 0.086487 0.155121
0.206360 0.086487 0.157135
0.220337 0.087006 0.159668
0.238647 0.087006 0.165863
0.254028 0.086090 0.169281
0.268158 0.084076 0.169281
0.283783 0.083618 0.169800
0.295685 0.083618 0.169800
0.308502 0.084290 0.169800
0.326782 0.088318 0.169800
0.346130 0.089874 0.171234
0.364410 0.089874 0.175262
0.383667 0.093323 0.178131
0.401825 0.095337 0.178131
0.422058 0.097351 0.179626
0.444366 0.099365 0.181641
0.465546 0.108643 0.184235
0.485718 0.122894 0.188293
0.509491 0.131592 0.190552
0.533844 0.137665 0.192566
0.559235 0.142853 0.193542
0.583588 0.146881 0.195587
0.105499 0.113312 0.156586
0.113586 0.111298 0.154541
0.119965 0.109406 0.152679
0.122009 0.109406 0.152679
0.126678 0.109406 0.154541
0.138794 0.109406 0.158600
0.152283 0.106659 0.159119
0.164520 0.106659 0.159119
0.176666 0.105621 0.161835
0.188751 0.101593 0.161835
0.202332 0.100861 0.161163
0.214447 0.102753 0.163300
0.228149 0.103546 0.165344
0.244690 0.105286 0.167877
0.259308 0.104401 0.171295
0.270172 0.102386 0.171295
0.288361 0.102417 0.172302
0.307953 0.103943 0.173828
0.317749 0.102814 0.173828
0.328796 0.102570 0.173828
0.349579 0.104126 0.173828
0.370483 0.104126 0.175262
0.391418 0.110962 0.180664
0.411926 0.117676 0.184174
0.430176 0.119690 0.185669
0.450439 0.121704 0.187683
0.472778 0.125336 0.188080
0.493927 0.135010 0.190308
0.517609 0.147522 0.192566
0.541931 0.155945 0.194580
0.570038 0.163879 0.192841
0.595703 0.169220 0.193542
0.119659 0.126160 0.162659
0.127075 0.124786 0.161957
0.134613 0.122894 0.160065
0.136108 0.122894 0.160065
0.139984 0.122894 0.159790
0.152893 0.122894 0.162659
0.163818 0.122894 0.166321
0.175262 0.122894 0.166565
0.186432 0.121857 0.166565
0.198303 0.117828 0.166565
0.210449 0.116394 0.167877
0.222565 0.118408 0.170013
0.236877 0.119141 0.170166
0.253143 0.121155 0.172211
0.265991 0.122009 0.173950
0.276093 0.119965 0.173950
0.291016 0.119385 0.174316
0.313019 0.121368 0.176331
0.330597 0.123108 0.178497
0.338654 0.121063 0.178497
0.353546 0.120941 0.179169
0.375885 0.120941 0.179169
0.398804 0.126526 0.181305
0.421021 0.136627 0.187378
0.440918 0.141357 0.191071
0.459229 0.143402 0.193085
0.481415 0.147675 0.193481
0.503754 0.151733 0.193481
0.528412 0.161560 0.193939
0.552643 0.173798 0.195953
0.582062 0.183441 0.196808
0.610443 0.191528 0.194794
0.137817 0.140289 0.168854
0.143860 0.140289 0.170868
0.150757 0.139038 0.170288
0.150757 0.139038 0.170288
0.154114 0.139038 0.170013
0.170380 0.139038 0.167999
0.182129 0.139038 0.170471
0.188171 0.139038 0.172516
0.198547 0.138000 0.172760
0.206635 0.133972 0.172760
0.218506 0.132538 0.174072
0.230774 0.136566 0.178101
0.245209 0.137024 0.177856
0.263245 0.135284 0.174225
0.275818 0.136383 0.176239
0.284149 0.136108 0.177979
0.298340 0.135132 0.177979
0.317047 0.135498 0.178345
0.336945 0.138611 0.181458
0.352783 0.141266 0.184570
0.365906 0.141724 0.185791
0.383942 0.143158 0.187225
0.407654 0.147339 0.187225
0.431244 0.154907 0.189392
0.451935 0.160522 0.193939
0.471313 0.163696 0.197144
0.494507 0.168976 0.197510
0.517883 0.174042 0.197510
0.543732 0.181610 0.195770
0.568909 0.191956 0.195953
0.600800 0.204102 0.201752
0.630768 0.213715 0.202850
0.155243 0.155243 0.174225
0.160522 0.155243 0.175446
0.166321 0.155121 0.177338
0.166962 0.154480 0.177338
0.167999 0.154724 0.177338
0.182159 0.155243 0.175842
0.197266 0.155243 0.174988
0.204102 0.155243 0.177399
0.211212 0.155243 0.178894
0.219574 0.151733 0.178894
0.228943 0.149628 0.179535
0.241180 0.153534 0.183441
0.254150 0.156036 0.185944
0.272308 0.153992 0.181885
0.287537 0.152130 0.179016
0.295593 0.152130 0.181061
0.307983 0.153687 0.182800
0.325989 0.153687 0.182800
0.344147 0.155121 0.183472
0.362305 0.159149 0.187500
0.380035 0.162720 0.190308
0.396301 0.164734 0.192322
0.418060 0.168762 0.193756
0.442413 0.174957 0.193756
0.463715 0.179535 0.195190
0.483917 0.183563 0.199219
0.506622 0.190857 0.200012
0.530975 0.196899 0.200012
0.559418 0.206268 0.199799
0.585785 0.214355 0.197784
0.617035 0.226196 0.200989
0.649475 0.238312 0.207031
0.171509 0.171509 0.178253
0.175568 0.171509 0.178253
0.180573 0.171387 0.179352
0.182587 0.169373 0.179352
0.184296 0.168976 0.179352
0.192352 0.170990 0.179352
0.205322 0.171509 0.179016
0.215424 0.171509 0.183075
0.223328 0.171509 0.184967
0.233551 0.171509 0.184967
0.243195 0.169952 0.185608
0.255310 0.171967 0.187622
0.268280 0.174316 0.189972
0.282379 0.174316 0.189972
0.297882 0.172302 0.186829
0.309875 0.170410 0.185089
0.321991 0.172455 0.187103
0.338104 0.175995 0.188873
0.356262 0.177124 0.188873
0.374542 0.179474 0.189514
0.392700 0.183502 0.192322
0.410431 0.187073 0.194336
0.432190 0.190460 0.196350
0.456543 0.195129 0.197784
0.477905 0.199707 0.197784
0.498169 0.203766 0.199219
0.519958 0.212799 0.200012
0.543091 0.221252 0.200012
0.574463 0.232574 0.201752
0.603943 0.242737 0.201813
0.634094 0.254578 0.201691
0.665619 0.266693 0.205017
0.187744 0.187744 0.182281
0.190857 0.188660 0.183197
0.194916 0.188660 0.182922
0.197693 0.187408 0.181366
0.200775 0.185913 0.181641
0.209534 0.187927 0.182281
0.217621 0.189178 0.182281
0.227173 0.188660 0.185272
0.236755 0.188660 0.189331
0.246552 0.188660 0.190094
0.258087 0.189301 0.190735
0.270477 0.191315 0.192780
0.284149 0.193329 0.194000
0.298401 0.193481 0.194000
0.310699 0.193481 0.193085
0.322937 0.191437 0.191071
0.338043 0.190704 0.190216
0.353943 0.194672 0.192200
0.372009 0.199463 0.194916
0.390320 0.201477 0.194916
0.408569 0.204712 0.196167
0.426758 0.208771 0.198181
0.448181 0.213715 0.200195
0.472534 0.217743 0.202209
0.493835 0.221771 0.200897
0.514160 0.225830 0.200897
0.537872 0.234772 0.200012
0.560059 0.245026 0.200012
0.592072 0.256927 0.202667
0.624512 0.269043 0.204681
0.652313 0.280243 0.204803
0.682709 0.292358 0.204803
0.203888 0.203888 0.186310
0.205902 0.205902 0.188354
0.209045 0.206818 0.188995
0.213074 0.206818 0.184967
0.216919 0.206085 0.183655
0.227142 0.208099 0.185669
0.235901 0.209351 0.186310
0.243988 0.207336 0.186310
0.253021 0.206818 0.189331
0.261108 0.206818 0.193359
0.272217 0.207458 0.194794
0.286469 0.209473 0.196808
0.300415 0.211487 0.198029
0.316559 0.213531 0.198029
0.329010 0.213654 0.197144
0.339081 0.213654 0.195129
0.354340 0.212677 0.194122
0.372253 0.212830 0.194214
0.390503 0.218018 0.197327
0.410492 0.223816 0.200958
0.428772 0.227051 0.202209
0.447052 0.231110 0.204224
0.468048 0.236511 0.206238
0.490845 0.242096 0.208252
0.512085 0.246124 0.205780
0.532318 0.250183 0.202942
0.557526 0.259094 0.201294
0.582397 0.269226 0.200012
0.615265 0.281219 0.203522
0.648865 0.293396 0.206696
0.673737 0.303619 0.206848
0.701019 0.314697 0.206848
0.223053 0.224091 0.192383
0.227142 0.225067 0.193359
0.229156 0.226959 0.195251
0.232300 0.226959 0.193024
0.236053 0.226959 0.189514
0.243164 0.228210 0.190765
0.253754 0.229462 0.191589
0.263123 0.227448 0.190338
0.272766 0.226990 0.191376
0.282410 0.227997 0.195404
0.291107 0.228638 0.198151
0.304596 0.230652 0.199799
0.318878 0.231903 0.200256
0.334778 0.233673 0.200012
0.350922 0.236603 0.201813
0.361359 0.236816 0.200134
0.375549 0.238892 0.198151
0.393555 0.238892 0.198151
0.409698 0.239136 0.200348
0.429871 0.245331 0.204407
0.449921 0.250183 0.205139
0.468201 0.254242 0.207153
0.490204 0.260742 0.208160
0.512543 0.266785 0.210175
0.533356 0.274414 0.209747
0.553528 0.278442 0.205719
0.582794 0.288391 0.203308
0.609161 0.298492 0.201294
0.640533 0.308319 0.198395
0.674957 0.320587 0.202423
0.704071 0.331909 0.193390
0.728424 0.341980 0.193390
0.245026 0.248047 0.200317
0.251099 0.248047 0.200317
0.255096 0.248962 0.201233
0.257111 0.248962 0.201233
0.260040 0.248962 0.199432
0.262054 0.248962 0.199432
0.269653 0.249451 0.199554
0.281769 0.247437 0.195496
0.292633 0.246979 0.195343
0.306885 0.251007 0.199371
0.317078 0.252594 0.202118
0.327148 0.254639 0.202118
0.340698 0.255859 0.202240
0.354980 0.255859 0.200226
0.370911 0.258575 0.201813
0.387054 0.262604 0.205841
0.401489 0.264832 0.204102
0.419495 0.268799 0.202118
0.435394 0.268799 0.204346
0.449860 0.269165 0.208374
0.470123 0.274017 0.208679
0.490204 0.278076 0.207153
0.512512 0.284943 0.207825
0.536377 0.292725 0.208191
0.557220 0.301788 0.208710
0.577484 0.310364 0.207703
0.609192 0.320923 0.205292
0.641083 0.332367 0.203278
0.670959 0.340729 0.195984
0.702911 0.350372 0.192505
0.735443 0.362610 0.175629
0.764282 0.373901 0.165466
0.272766 0.274445 0.205017
0.277710 0.274445 0.206116
0.283386 0.274445 0.206116
0.284424 0.274445 0.206116
0.287476 0.274445 0.205872
0.292877 0.274445 0.205017
0.295685 0.274841 0.205017
0.305634 0.274261 0.202423
0.317261 0.273285 0.199951
0.330353 0.276733 0.203400
0.343903 0.278809 0.205475
0.354462 0.279907 0.205017
0.365326 0.281921 0.205780
0.379242 0.282257 0.204437
0.395325 0.284088 0.203339
0.411682 0.288116 0.206970
0.427704 0.294189 0.208923
0.445618 0.298309 0.207031
0.466003 0.301208 0.205017
0.480133 0.301208 0.209045
0.498047 0.304810 0.211578
0.518372 0.308838 0.209564
0.540222 0.316803 0.208923
0.564453 0.325012 0.208923
0.590210 0.332397 0.203369
0.610504 0.342499 0.203369
0.641113 0.355316 0.193909
0.675568 0.367432 0.191895
0.707611 0.377197 0.177948
0.738007 0.385284 0.169861
0.769196 0.399414 0.154449
0.801605 0.411652 0.136169
0.305176 0.302826 0.207031
0.309235 0.302826 0.209045
0.313782 0.302826 0.210175
0.313782 0.302826 0.210175
0.315857 0.302826 0.209900
0.325958 0.302826 0.207886
0.332153 0.303223 0.207031
0.338196 0.305237 0.207031
0.347656 0.305695 0.205994
0.357880 0.307739 0.208008
0.370270 0.309235 0.209503
0.382385 0.307220 0.207489
0.393707 0.308319 0.207825
0.405823 0.310333 0.209839
0.421539 0.312469 0.209381
0.439850 0.316498 0.209381
0.456085 0.322571 0.210938
0.471985 0.330505 0.210938
0.492249 0.333649 0.209045
0.514587 0.335663 0.207031
0.532501 0.339386 0.209839
0.552826 0.345306 0.211578
0.574402 0.353546 0.210938
0.596863 0.363495 0.210938
0.624176 0.370117 0.203461
0.651001 0.376953 0.195312
0.681091 0.390289 0.182159
0.714050 0.403900 0.169556
0.746735 0.414368 0.151733
0.778503 0.423889 0.135437
0.808899 0.439514 0.121582
0.840088 0.454163 0.105743
0.341339 0.333710 0.210297
0.342896 0.333710 0.211060
0.346924 0.333710 0.212952
0.349152 0.333710 0.212952
0.349915 0.333710 0.212708
0.358063 0.333710 0.210693
0.368958 0.334869 0.209442
0.378448 0.338593 0.210297
0.384003 0.339569 0.210297
0.391998 0.340149 0.211578
0.403503 0.342163 0.213593
0.416199 0.341339 0.212769
0.428284 0.340881 0.209961
0.440399 0.342896 0.210602
0.454376 0.346710 0.212616
0.472351 0.351074 0.212952
0.490448 0.355103 0.212952
0.506561 0.362610 0.212952
0.526001 0.369507 0.208527
0.548340 0.371796 0.206116
0.568176 0.373810 0.199127
0.588501 0.379883 0.201172
0.620087 0.392456 0.190582
0.642273 0.402679 0.190582
0.661560 0.409821 0.183075
0.689941 0.415863 0.173004
0.721588 0.428436 0.159149
0.754028 0.442566 0.142883
0.779022 0.452057 0.126923
0.811432 0.462280 0.106720
0.843201 0.479279 0.107025
0.873627 0.495422 0.092773
0.379791 0.366119 0.214325
0.379791 0.366119 0.214325
0.381378 0.366119 0.214966
0.385406 0.366119 0.214966
0.388397 0.366119 0.214722
0.394440 0.366119 0.212708
0.403381 0.367310 0.211456
0.417664 0.373352 0.213470
0.426636 0.376038 0.214325
0.430664 0.374023 0.214325
0.439941 0.374603 0.215637
0.454071 0.376617 0.217651
0.466766 0.377319 0.216034
0.478882 0.379333 0.211975
0.492859 0.383179 0.212616
0.509155 0.389221 0.214661
0.526917 0.393585 0.214966
0.544800 0.397552 0.214966
0.564484 0.403961 0.210541
0.586792 0.410004 0.202454
0.606659 0.412292 0.195099
0.624969 0.414307 0.185028
0.657593 0.427307 0.173248
0.695007 0.443176 0.156128
0.712738 0.450317 0.148651
0.730438 0.456360 0.138550
0.762085 0.468933 0.125092
0.794525 0.483063 0.110443
0.816376 0.492035 0.096039
0.839813 0.500763 0.080353
0.872253 0.518402 0.088501
0.904022 0.535919 0.090759
0.419647 0.401276 0.212891
0.427856 0.406769 0.212891
0.427979 0.406494 0.212891
0.430786 0.404022 0.212891
0.434845 0.404022 0.212891
0.439850 0.404022 0.211975
0.447479 0.404816 0.209167
0.461670 0.409882 0.207275
0.473297 0.413849 0.208771
0.477325 0.411835 0.208771
0.483978 0.411774 0.206848
0.497375 0.414520 0.205963
0.511566 0.417297 0.204865
0.524292 0.419922 0.200256
0.539124 0.421936 0.195251
0.555847 0.427063 0.195404
0.574066 0.435120 0.189209
0.592285 0.440125 0.186798
0.612610 0.445312 0.182343
0.634949 0.451385 0.174286
0.654724 0.458679 0.162415
0.673004 0.461090 0.152069
0.695435 0.467224 0.146057
0.733887 0.483490 0.127777
0.759979 0.492188 0.118317
0.776123 0.498230 0.108215
0.801208 0.513641 0.119568
0.833649 0.527771 0.105316
0.854156 0.542114 0.114441
0.874451 0.550323 0.100311
0.900635 0.565186 0.119873
0.933044 0.583344 0.129974
0.460144 0.437744 0.208862
0.472260 0.445831 0.208862
0.480591 0.451050 0.208862
0.482605 0.446991 0.208862
0.485443 0.444519 0.208862
0.489594 0.444519 0.208862
0.496185 0.445312 0.207153
0.510315 0.449341 0.201111
0.521881 0.452332 0.198700
0.525909 0.450317 0.198700
0.532532 0.450256 0.196747
0.544647 0.454285 0.190674
0.558105 0.457794 0.186707
0.572357 0.461823 0.180664
0.587830 0.464447 0.175049
0.605988 0.466461 0.168884
0.624634 0.473602 0.160797
0.644623 0.483521 0.146912
0.665375 0.489868 0.139832
0.687683 0.496033 0.131775
0.707458 0.503357 0.119904
0.725616 0.511414 0.105652
0.748016 0.517944 0.099396
0.772369 0.526001 0.095337
0.798859 0.534698 0.086151
0.820801 0.540741 0.079834
0.845093 0.556671 0.095917
0.872131 0.574432 0.113525
0.892242 0.590332 0.129272
0.910919 0.604950 0.142822
0.934998 0.618805 0.166595
0.961456 0.634064 0.188782
0.518738 0.481689 0.170258
0.521851 0.485291 0.176239
0.533813 0.493103 0.175476
0.541321 0.494537 0.167267
0.544098 0.491547 0.166962
0.550690 0.494019 0.165649
0.554443 0.493622 0.165649
0.562012 0.494324 0.162933
0.574585 0.497833 0.157898
0.580566 0.497772 0.156921
0.587189 0.497711 0.154327
0.599304 0.501740 0.147430
0.610626 0.505066 0.144501
0.623413 0.508423 0.141327
0.637665 0.513367 0.134338
0.654694 0.516571 0.127625
0.673767 0.519592 0.129730
0.693726 0.528107 0.121521
0.710571 0.535919 0.116364
0.731354 0.542084 0.110229
0.753601 0.553131 0.117126
0.772278 0.561981 0.106781
0.789154 0.572876 0.114502
0.812988 0.581238 0.111908
0.834351 0.590790 0.122955
0.856689 0.596863 0.116882
0.876160 0.609680 0.136749
0.902405 0.627991 0.159088
0.917114 0.641510 0.181030
0.935425 0.657654 0.201202
0.956390 0.671936 0.227203
0.980743 0.686188 0.253571
0.583588 0.528259 0.119659
0.583588 0.530273 0.127747
0.586548 0.533600 0.132965
0.596649 0.537628 0.120850
0.604919 0.540100 0.112366
0.613007 0.544128 0.110199
0.619171 0.546234 0.108887
0.621338 0.544220 0.108887
0.627319 0.544403 0.107178
0.635376 0.546417 0.105164
0.643982 0.548309 0.101593
0.656097 0.552338 0.093536
0.667419 0.555634 0.089752
0.677490 0.557800 0.091766
0.690277 0.562073 0.087677
0.704529 0.568115 0.079590
0.722473 0.572327 0.081177
0.742310 0.576294 0.091095
0.759125 0.582581 0.092010
0.773407 0.588654 0.094025
0.794098 0.599670 0.102844
0.816284 0.613800 0.119141
0.833679 0.625488 0.130798
0.849976 0.637726 0.148956
0.870819 0.647583 0.161438
0.891113 0.657654 0.177704
0.910095 0.670227 0.197815
0.928772 0.684631 0.223938
0.942688 0.697662 0.246155
0.955597 0.710388 0.268097
0.975800 0.724640 0.294067
0.996887 0.738800 0.320435
0.645172 0.587952 0.113159
0.643524 0.586700 0.113068
0.643677 0.588715 0.120239
0.647766 0.591248 0.112640
0.657074 0.594757 0.103394
0.662415 0.596069 0.109528
0.669708 0.599335 0.106628
0.673004 0.598541 0.102905
0.675659 0.597565 0.103943
0.681488 0.599579 0.105255
0.691528 0.602905 0.107788
0.704620 0.607910 0.109497
0.714417 0.611969 0.106873
0.722870 0.614899 0.110596
0.734802 0.619720 0.117218
0.748993 0.626495 0.116394
0.761047 0.630524 0.114532
0.777893 0.633942 0.122650
0.793579 0.640167 0.135986
0.807312 0.646729 0.141663
0.820251 0.656494 0.157379
0.840485 0.670227 0.175201
0.857239 0.677521 0.190033
0.873230 0.688721 0.207672
0.889496 0.703949 0.230438
0.909546 0.714447 0.247223
0.924896 0.722900 0.265137
0.943054 0.737030 0.291504
0.957672 0.749390 0.314240
0.969788 0.761658 0.336456
0.979675 0.775757 0.362549
1.000000 0.789886 0.388916
0.705963 0.650757 0.117188
0.703949 0.648743 0.115173
0.702454 0.647522 0.114197
0.704468 0.649536 0.108124
0.707794 0.651550 0.103394
0.711823 0.651550 0.113464
0.716370 0.652069 0.118866
0.720428 0.652069 0.112823
0.724213 0.652313 0.110138
0.728241 0.654358 0.114166
0.736053 0.657654 0.120026
0.750183 0.663727 0.132141
0.760986 0.668732 0.139313
0.767181 0.672760 0.145355
0.777435 0.678375 0.153687
0.791565 0.686462 0.165924
0.803558 0.691193 0.171295
