assets/luts/0004.CUBE
#Created by: Adobe Photoshop Export Color Lookup Plugin
TITLE "Screenshot from 2024-08-15 12-32-58.png"
#LUT size
LUT_3D_SIZE 32
#data domain
DOMAIN_MIN 0.0 0.0 0.0
DOMAIN_MAX 1.0 1.0 1.0
#LUT data points
0.000000 0.000000 0.027344
0.000000 0.010101 0.033539
0.001709 0.019409 0.039185
0.028076 0.017395 0.037170
0.056244 0.017212 0.036194
0.096741 0.029449 0.042236
0.135284 0.038940 0.044373
0.165710 0.036926 0.030121
0.197144 0.035950 0.017456
0.231598 0.037964 0.009369
0.265381 0.037323 0.003265
0.297791 0.031128 0.001251
0.328674 0.028137 0.000000
0.357056 0.030151 0.000000
0.385376 0.028534 0.000000
0.413635 0.022461 0.000000
0.439697 0.027802 0.000000
0.463684 0.043823 0.000000
0.492310 0.049927 0.000000
0.524719 0.047913 0.000000
0.555908 0.048370 0.000000
0.586304 0.050385 0.000000
0.622192 0.052399 0.000000
0.660675 0.054443 0.000000
0.693146 0.042847 0.000000
0.723541 0.026581 0.000000
0.755585 0.026703 0.000000
0.788025 0.030731 0.000000
0.822205 0.017181 0.000000
0.856628 0.001038 0.000000
0.891083 0.001892 0.000000
0.925507 0.003906 0.000000
0.000000 0.030396 0.037567
0.000000 0.034454 0.023315
0.002594 0.043762 0.028442
0.042206 0.041748 0.018890
0.069611 0.040222 0.017120
0.104828 0.043579 0.017914
0.142975 0.053070 0.022797
0.171753 0.051056 0.020020
0.202698 0.049530 0.009430
0.235626 0.050049 0.007355
0.267456 0.053375 0.001892
0.295776 0.055481 0.001251
0.325836 0.050903 0.000000
0.352875 0.050446 0.000000
0.381287 0.055206 0.000000
0.409607 0.056915 0.000000
0.438751 0.052948 0.000000
0.465698 0.059967 0.000000
0.494324 0.068298 0.000000
0.526733 0.068085 0.000000
0.556671 0.069794 0.000000
0.586304 0.072601 0.000000
0.618073 0.076080 0.000000
0.654602 0.078766 0.000000
0.694580 0.067200 0.000000
0.727600 0.050934 0.000000
0.753113 0.054291 0.000000
0.783966 0.059113 0.000000
0.821686 0.042053 0.000000
0.856628 0.025391 0.000000
0.887299 0.041351 0.000000
0.921478 0.044403 0.000000
0.000000 0.060547 0.047668
0.000519 0.064453 0.033142
0.002472 0.068115 0.019257
0.042969 0.066101 0.009186
0.082306 0.064575 0.000000
0.116730 0.066620 0.000000
0.150543 0.068115 0.000000
0.178925 0.066101 0.000000
0.208344 0.064453 0.000000
0.240784 0.064453 0.000000
0.271515 0.065765 0.000000
0.297882 0.071808 0.000000
0.324463 0.075134 0.000000
0.350708 0.073120 0.000000
0.377106 0.075531 0.000000
0.405487 0.083588 0.000000
0.434723 0.087128 0.000000
0.464630 0.085144 0.000000
0.495941 0.085236 0.000000
0.528351 0.087250 0.000000
0.558716 0.090363 0.000000
0.587097 0.094421 0.000000
0.617950 0.098541 0.000000
0.650391 0.102692 0.000000
0.688538 0.092224 0.000000
0.729034 0.075928 0.000000
0.756744 0.078918 0.000000
0.781097 0.086975 0.000000
0.817902 0.071228 0.000000
0.856384 0.051025 0.000000
0.887421 0.065033 0.000000
0.917847 0.083221 0.000000
0.000000 0.086914 0.055725
0.008087 0.088928 0.037445
0.010559 0.092468 0.023315
0.040955 0.090424 0.015228
0.079895 0.088928 0.005676
0.108673 0.090942 0.000000
0.143494 0.092987 0.000000
0.178925 0.094482 0.000000
0.208344 0.092468 0.000000
0.240784 0.090820 0.000000
0.272552 0.089539 0.000000
0.301910 0.088104 0.000000
0.329834 0.093353 0.000000
0.358917 0.095459 0.000000
0.380585 0.097076 0.000000
0.401459 0.103912 0.000000
0.430664 0.111908 0.000000
0.460602 0.115540 0.000000
0.491913 0.114655 0.000000
0.524323 0.115631 0.000000
0.557983 0.117645 0.000000
0.589111 0.120789 0.000000
0.617493 0.124817 0.000000
0.648346 0.128937 0.000000
0.683777 0.124023 0.000000
0.722961 0.110382 0.000000
0.753693 0.108856 0.000000
0.779083 0.115387 0.000000
0.817505 0.109375 0.000000
0.856384 0.091522 0.000000
0.889191 0.082672 0.000000
0.919861 0.097473 0.000000
0.000275 0.113281 0.062256
0.009399 0.115021 0.045258
0.018494 0.116913 0.026978
0.048492 0.115021 0.018219
0.077881 0.114075 0.010925
0.106262 0.116089 0.004883
0.134918 0.118103 0.000000
0.171356 0.120117 0.000000
0.206787 0.121094 0.000000
0.239227 0.119080 0.000000
0.271515 0.116943 0.000000
0.301910 0.112915 0.000000
0.332825 0.111206 0.000000
0.363251 0.115234 0.000000
0.389313 0.119415 0.000000
0.405457 0.125458 0.000000
0.428986 0.131165 0.000000
0.458893 0.139130 0.000000
0.489685 0.143494 0.000000
0.522125 0.143494 0.000000
0.554993 0.144989 0.000000
0.589447 0.147003 0.000000
0.619781 0.150665 0.000000
0.648163 0.154694 0.000000
0.681488 0.151306 0.000000
0.717957 0.143219 0.000000
0.748932 0.142792 0.000000
0.777344 0.144806 0.000000
0.815491 0.137756 0.000000
0.855988 0.129700 0.000000
0.889191 0.123444 0.000000
0.921600 0.115356 0.000000
0.002289 0.139496 0.058197
0.018555 0.139496 0.050140
0.028717 0.141144 0.033142
0.052948 0.141144 0.014862
0.081909 0.140289 0.006897
0.104248 0.146484 0.004883
0.132233 0.148499 0.000000
0.159271 0.150543 0.000000
0.194672 0.151520 0.000000
0.227112 0.149475 0.000000
0.260162 0.148132 0.000000
0.293854 0.147339 0.000000
0.325806 0.144073 0.000000
0.359192 0.143616 0.000000
0.390533 0.145844 0.000000
0.417694 0.147797 0.000000
0.441925 0.149628 0.000000
0.473022 0.151245 0.000000
0.502106 0.158203 0.000000
0.532196 0.161804 0.000000
0.562134 0.164276 0.000000
0.593475 0.167328 0.000000
0.623810 0.172089 0.000000
0.652191 0.177032 0.000000
0.680573 0.181061 0.000000
0.713928 0.177673 0.000000
0.750397 0.174500 0.000000
0.781372 0.175201 0.000000
0.815033 0.166687 0.000000
0.853973 0.158081 0.000000
0.888794 0.163239 0.000000
0.921600 0.157867 0.000000
0.006256 0.166168 0.054565
0.021729 0.166168 0.044891
0.038025 0.166016 0.036713
0.061188 0.165771 0.019470
0.084900 0.166290 0.003510
0.107117 0.172333 0.001617
0.129425 0.178101 0.000000
0.155792 0.180115 0.000000
0.182556 0.181885 0.000000
0.214966 0.179871 0.000000
0.248047 0.178925 0.000000
0.282471 0.178925 0.000000
0.317322 0.178101 0.000000
0.351746 0.176086 0.000000
0.385284 0.175385 0.000000
0.417725 0.175385 0.000000
0.450653 0.173920 0.000000
0.482422 0.171814 0.000000
0.514679 0.173035 0.000000
0.543060 0.179230 0.000000
0.571838 0.182556 0.000000
0.600250 0.186584 0.000000
0.630188 0.190033 0.000000
0.658569 0.196106 0.000000
0.686554 0.201416 0.000000
0.714966 0.205475 0.000000
0.749084 0.204224 0.000000
0.785522 0.202209 0.000000
0.818298 0.197083 0.000000
0.852722 0.186981 0.000000
0.886780 0.190826 0.000000
0.921234 0.196899 0.000000
0.018341 0.194550 0.052551
0.030609 0.194550 0.036255
0.046082 0.194427 0.026489
0.062225 0.192383 0.016388
0.084900 0.192657 0.001495
0.105225 0.196686 0.001495
0.127411 0.202332 0.000000
0.149597 0.206360 0.000000
0.175964 0.208374 0.000000
0.202728 0.210144 0.000000
0.235809 0.209473 0.000000
0.270233 0.211334 0.000000
0.305450 0.210510 0.000000
0.341522 0.208374 0.000000
0.375061 0.208252 0.000000
0.407501 0.209839 0.000000
0.441742 0.207733 0.000000
0.476379 0.204224 0.000000
0.512939 0.203278 0.000000
0.549133 0.205475 0.000000
0.578766 0.205383 0.000000
0.608307 0.204742 0.000000
0.642181 0.203308 0.000000
0.674713 0.204163 0.000000
0.701599 0.211731 0.000000
0.729095 0.217560 0.000000
0.760712 0.215088 0.000000
0.795624 0.212311 0.000000
0.821533 0.220947 0.000000
0.852722 0.217407 0.000000
0.885284 0.216736 0.000000
0.919220 0.221252 0.000000
0.028931 0.222412 0.051575
0.039581 0.222931 0.035797
0.051941 0.222931 0.020050
0.067719 0.221313 0.010345
0.084900 0.220062 0.000793
0.105743 0.224091 0.000000
0.126831 0.227753 0.000000
0.149170 0.231659 0.000000
0.171906 0.235168 0.000000
0.198273 0.237183 0.000000
0.225159 0.239746 0.000000
0.259583 0.241882 0.000000
0.294281 0.244019 0.000000
0.330750 0.241852 0.000000
0.365387 0.241608 0.000000
0.397827 0.243744 0.000000
0.432587 0.242676 0.000000
0.468475 0.238586 0.000000
0.504822 0.236206 0.000000
0.545319 0.236206 0.000000
0.582214 0.233734 0.000000
0.612610 0.229706 0.000000
0.648163 0.226715 0.000000
0.684631 0.222656 0.000000
0.714111 0.224487 0.000000
0.740479 0.232574 0.000000
0.772766 0.229828 0.000000
0.805206 0.225800 0.000000
0.833710 0.231567 0.000000
0.858063 0.241791 0.000000
0.889954 0.242432 0.000000
0.922394 0.242432 0.000000
0.035126 0.248779 0.053589
0.041168 0.250793 0.039307
0.051941 0.251312 0.024078
0.066071 0.251312 0.016022
0.082886 0.250458 0.006836
0.107239 0.254517 0.000793
0.128845 0.258148 0.000000
0.153198 0.260162 0.000000
0.176056 0.263550 0.000000
0.200287 0.265564 0.000000
0.226654 0.268250 0.000000
0.253540 0.272156 0.000000
0.287964 0.275085 0.000000
0.322693 0.278442 0.000000
0.357330 0.278168 0.000000
0.389740 0.280212 0.000000
0.425018 0.279144 0.000000
0.462402 0.275055 0.000000
0.496399 0.272095 0.000000
0.531189 0.270660 0.000000
0.571686 0.268188 0.000000
0.608582 0.264130 0.000000
0.645813 0.262848 0.000000
0.684631 0.261139 0.000000
0.715088 0.257111 0.000000
0.742493 0.258942 0.000000
0.777008 0.253998 0.000000
0.811249 0.248138 0.000000
0.847198 0.247620 0.000000
0.876221 0.253876 0.000000
0.908112 0.254547 0.000000
0.940552 0.254547 0.000000
0.043213 0.276459 0.053650
0.047974 0.277832 0.044617
0.054688 0.279846 0.030365
0.069336 0.280365 0.020691
0.084259 0.280609 0.012115
0.107819 0.284271 0.004883
0.131378 0.288300 0.000000
0.155212 0.290588 0.000000
0.180054 0.292084 0.000000
0.204407 0.293976 0.000000
0.227356 0.297272 0.000000
0.253723 0.301331 0.000000
0.282562 0.304718 0.000000
0.317017 0.308868 0.000000
0.348602 0.312073 0.000000
0.381012 0.314117 0.000000
0.415649 0.314941 0.000000
0.453522 0.310852 0.000000
0.489685 0.308533 0.000000
0.522125 0.306519 0.000000
0.559509 0.303925 0.000000
0.600006 0.299866 0.000000
0.641144 0.297272 0.000000
0.681641 0.297272 0.000000
0.715088 0.294281 0.000000
0.743469 0.290253 0.000000
0.781006 0.282318 0.000000
0.817474 0.274231 0.000000
0.853302 0.272552 0.000000
0.889740 0.272552 0.000000
0.925018 0.270599 0.000000
0.957458 0.270599 0.000000
0.055328 0.306854 0.049622
0.057343 0.306854 0.051636
0.062744 0.308228 0.042603
0.078888 0.310242 0.028351
0.094330 0.311035 0.018158
0.114655 0.313049 0.006042
0.137451 0.316681 0.000000
0.157776 0.320709 0.000000
0.182068 0.322479 0.000000
0.208313 0.322479 0.000000
0.231415 0.325684 0.000000
0.251709 0.331726 0.000000
0.280426 0.334991 0.000000
0.312988 0.337128 0.000000
0.343781 0.340332 0.000000
0.370941 0.342346 0.000000
0.405182 0.344360 0.000000
0.441406 0.345306 0.000000
0.478516 0.343445 0.000000
0.514038 0.342987 0.000000
0.551422 0.340973 0.000000
0.591919 0.338348 0.000000
0.633789 0.334320 0.000000
0.675568 0.331726 0.000000
0.711578 0.328735 0.000000
0.743469 0.324677 0.000000
0.785004 0.315765 0.000000
0.825684 0.306671 0.000000
0.860382 0.303864 0.000000
0.895935 0.302948 0.000000
0.936188 0.297272 0.000000
0.971710 0.294952 0.000000
0.073730 0.337250 0.051025
0.075745 0.338043 0.053040
0.078278 0.338043 0.054169
0.092468 0.339417 0.040588
0.107330 0.341431 0.026062
0.123962 0.343445 0.012878
0.144287 0.345856 0.001556
0.164581 0.349884 0.000000
0.185425 0.353394 0.000000
0.211151 0.353668 0.000000
0.236755 0.354309 0.000000
0.257324 0.360107 0.000000
0.279968 0.365387 0.000000
0.312378 0.367401 0.000000
0.339752 0.369415 0.000000
0.366119 0.371429 0.000000
0.397430 0.374237 0.000000
0.433319 0.376221 0.000000
0.467957 0.377106 0.000000
0.504425 0.377106 0.000000
0.543365 0.375854 0.000000
0.583862 0.373840 0.000000
0.624939 0.371246 0.000000
0.667450 0.367218 0.000000
0.706299 0.363159 0.000000
0.740753 0.359131 0.000000
0.780273 0.354095 0.000000
0.824951 0.344025 0.000000
0.864594 0.338623 0.000000
0.899048 0.336609 0.000000
0.939178 0.330811 0.000000
0.979675 0.324768 0.000000
0.102112 0.367676 0.061127
0.104126 0.369690 0.063141
0.106659 0.370453 0.064240
0.116760 0.370453 0.052155
0.129639 0.371826 0.038300
0.135712 0.373840 0.022034
0.152344 0.376251 0.009644
0.172668 0.380310 0.001556
0.193512 0.383820 0.000000
0.215820 0.385834 0.000000
0.240906 0.386749 0.000000
0.265137 0.388763 0.000000
0.288025 0.393768 0.000000
0.314423 0.397797 0.000000
0.341370 0.399841 0.000000
0.362091 0.401855 0.000000
0.393402 0.404877 0.000000
0.429260 0.408630 0.000000
0.463257 0.409515 0.000000
0.496338 0.409515 0.000000
0.535278 0.408295 0.000000
0.575775 0.406281 0.000000
0.616272 0.404266 0.000000
0.657349 0.401642 0.000000
0.698364 0.397614 0.000000
0.736725 0.393585 0.000000
0.772797 0.392792 0.000000
0.812683 0.388550 0.000000
0.857239 0.380219 0.000000
0.896881 0.375092 0.000000
0.937103 0.369293 0.000000
0.977661 0.363220 0.000000
0.124084 0.398071 0.075806
0.126099 0.399170 0.071411
0.128235 0.401215 0.073029
0.135986 0.401978 0.064056
0.147400 0.402252 0.051422
0.158051 0.404266 0.035187
0.164490 0.405884 0.018921
0.181641 0.408875 0.008728
0.202484 0.412933 0.001160
0.224823 0.415314 0.000000
0.247101 0.417358 0.000000
0.271057 0.419373 0.000000
0.295319 0.422150 0.000000
0.321564 0.426208 0.000000
0.344299 0.429321 0.001831
0.364624 0.431335 0.001831
0.391174 0.433472 0.000000
0.427063 0.437439 0.000000
0.461945 0.440125 0.000000
0.494385 0.440125 0.000000
0.527222 0.441620 0.000000
0.567719 0.439606 0.000000
0.608215 0.438507 0.000000
0.648712 0.436462 0.000000
0.686462 0.433868 0.000000
0.726959 0.429840 0.000000
0.767853 0.428131 0.000000
0.804291 0.428131 0.000000
0.847778 0.422943 0.000000
0.892334 0.414856 0.000000
0.931335 0.407776 0.000000
0.971954 0.401703 0.000000
0.138214 0.428467 0.096130
0.140228 0.428467 0.083893
0.142365 0.429596 0.079102
0.146393 0.431610 0.075073
0.155457 0.432648 0.065552
0.175781 0.434662 0.049408
0.186829 0.436279 0.033173
0.194885 0.436279 0.016876
0.212585 0.439301 0.007233
0.234894 0.443329 0.001160
0.257202 0.445740 0.000000
0.279388 0.447754 0.000000
0.303406 0.450562 0.000000
0.327759 0.454590 0.000000
0.350372 0.457703 0.001831
0.368652 0.459717 0.005859
0.394989 0.461731 0.003815
0.427063 0.463806 0.000000
0.462158 0.466705 0.000000
0.496399 0.468506 0.000000
0.527588 0.471008 0.000000
0.559631 0.474060 0.000000
0.600128 0.473389 0.000000
0.640625 0.472931 0.000000
0.676636 0.470917 0.000000
0.712830 0.468323 0.000000
0.756592 0.465912 0.000000
0.798248 0.464600 0.000000
0.841736 0.461090 0.000000
0.886261 0.455353 0.000000
0.923248 0.447296 0.000000
0.961731 0.440186 0.000000
0.156403 0.458679 0.115204
0.159424 0.458679 0.105103
0.161316 0.458679 0.093506
0.163574 0.459808 0.090363
0.168640 0.461823 0.085266
0.185852 0.463837 0.070618
0.204224 0.465454 0.051331
0.212982 0.465454 0.030029
0.223633 0.467010 0.015839
0.244934 0.471558 0.009216
0.267914 0.474945 0.008423
0.290497 0.476959 0.010315
0.313538 0.478210 0.006378
0.337891 0.481750 0.005127
0.361267 0.485779 0.012451
0.379791 0.487915 0.017212
0.398987 0.491974 0.022217
0.430908 0.493958 0.018250
0.464203 0.493927 0.019531
0.498657 0.495941 0.019531
0.528564 0.499176 0.014404
0.558960 0.503235 0.014404
0.598267 0.505554 0.000000
0.638763 0.505554 0.000000
0.672699 0.504059 0.000000
0.707153 0.502045 0.000000
0.747681 0.501038 0.000000
0.792206 0.499023 0.000000
0.831635 0.496277 0.000000
0.876160 0.492218 0.000000
0.916199 0.485443 0.000000
0.952667 0.477386 0.000000
0.178375 0.488586 0.133087
0.182404 0.488586 0.125031
0.185303 0.488586 0.115479
0.185303 0.488586 0.113464
0.188629 0.489746 0.109222
0.200745 0.491760 0.096985
0.216125 0.493408 0.079163
0.226349 0.493408 0.046875
0.237671 0.494965 0.027863
0.255829 0.501007 0.019653
0.277832 0.504883 0.018341
0.302185 0.506897 0.028564
0.325592 0.508118 0.026367
0.349945 0.508118 0.016144
0.373322 0.511749 0.022400
0.395508 0.515778 0.038666
0.414886 0.519897 0.044220
0.434875 0.525879 0.050171
0.468170 0.525665 0.051697
0.502625 0.523865 0.057404
0.532104 0.527130 0.051208
0.558960 0.531158 0.042358
0.598938 0.533813 0.023102
0.642731 0.535461 0.000000
0.675720 0.533966 0.000000
0.707153 0.531952 0.000000
0.746490 0.531555 0.000000
0.788239 0.530914 0.000000
0.823975 0.528900 0.000000
0.862244 0.526123 0.000000
0.904907 0.520203 0.000000
0.944733 0.513245 0.000000
0.200470 0.519836 0.152313
0.204590 0.520996 0.147552
0.208893 0.520874 0.139618
0.212799 0.519836 0.135559
0.213318 0.520111 0.131989
0.222046 0.522186 0.118958
0.233765 0.524200 0.107513
0.243927 0.524902 0.083862
0.254669 0.525940 0.055695
0.271118 0.531433 0.045135
0.290558 0.534882 0.035675
0.314423 0.535980 0.040802
0.339569 0.538757 0.051758
0.364227 0.539429 0.045197
0.384888 0.539429 0.038666
0.406494 0.543060 0.053131
0.430664 0.549133 0.065186
0.450897 0.555176 0.071228
0.472198 0.558960 0.076141
0.506622 0.556946 0.082184
0.538330 0.557526 0.087219
0.564697 0.561584 0.077118
0.598938 0.563141 0.071320
0.643494 0.565155 0.042938
0.678619 0.565277 0.021149
0.709045 0.563263 0.021149
0.743164 0.565094 0.008881
0.783661 0.565094 0.008881
0.822205 0.563324 0.000000
0.856628 0.561310 0.000000
0.897522 0.556610 0.000000
0.940033 0.550568 0.000000
0.222687 0.552124 0.172638
0.226837 0.554260 0.170593
0.231232 0.555298 0.165985
0.239288 0.553162 0.159790
0.243713 0.552399 0.154205
0.247772 0.554535 0.140076
0.256073 0.556610 0.127838
0.266174 0.558624 0.119751
0.276886 0.560394 0.100220
0.289124 0.564423 0.083954
0.306854 0.567291 0.072144
0.329041 0.565277 0.060028
0.353699 0.567169 0.065887
0.380066 0.571198 0.078003
0.401031 0.571869 0.075104
0.417175 0.571869 0.073090
0.440735 0.577515 0.083344
0.466705 0.585449 0.091431
0.488342 0.589355 0.096466
0.510651 0.591400 0.100494
0.542633 0.591858 0.106537
0.572784 0.593994 0.111572
0.605988 0.595306 0.109680
0.643494 0.595551 0.107788
0.679016 0.596069 0.080902
0.711060 0.595673 0.059631
0.743103 0.598541 0.041595
0.777588 0.601532 0.025024
0.818085 0.599792 0.010956
0.856628 0.597778 0.000000
0.896759 0.593872 0.000000
0.938019 0.589050 0.000000
0.249908 0.584473 0.192871
0.251526 0.584076 0.189606
0.255951 0.586090 0.187317
0.264099 0.585114 0.181213
0.270874 0.583496 0.174774
0.271973 0.585602 0.163574
0.277954 0.588135 0.150208
0.289734 0.591064 0.141235
0.300354 0.592560 0.132111
0.312561 0.595154 0.117340
0.328705 0.599182 0.104980
0.351532 0.598938 0.095245
0.371368 0.597717 0.083923
0.395416 0.600830 0.090973
0.419983 0.603943 0.101257
0.437134 0.604279 0.100891
0.454254 0.604279 0.099915
0.479340 0.611359 0.107117
0.503235 0.617157 0.112976
0.525574 0.619324 0.117004
0.546661 0.621338 0.119812
0.577057 0.623352 0.125854
0.610352 0.626465 0.132904
0.646790 0.626465 0.134918
0.677795 0.626465 0.134521
0.710205 0.626465 0.108154
0.745117 0.628510 0.088837
0.777527 0.632538 0.066498
0.812042 0.632538 0.054504
0.852539 0.630524 0.038361
0.890564 0.629089 0.021149
0.931061 0.625061 0.021149
0.280334 0.616913 0.213043
0.280334 0.614899 0.209015
0.282196 0.614349 0.205475
0.290405 0.614349 0.199432
0.297241 0.613922 0.193085
0.295227 0.615936 0.184998
0.298279 0.618408 0.174561
0.312408 0.622589 0.164337
0.324707 0.624969 0.154327
0.336823 0.624969 0.142212
0.352905 0.627594 0.131348
0.377258 0.631622 0.127319
0.397736 0.632141 0.118347
0.413879 0.632141 0.108276
0.436127 0.634338 0.113495
0.458435 0.636383 0.121582
0.476593 0.636688 0.122253
0.494598 0.636688 0.122253
0.517517 0.641510 0.127106
0.539703 0.645538 0.131134
0.560791 0.647705 0.133942
0.581116 0.649719 0.135956
0.614258 0.653107 0.143372
0.648804 0.656891 0.151062
0.679291 0.656891 0.154572
0.708191 0.656891 0.154694
0.743866 0.658508 0.136566
0.779541 0.660919 0.119232
0.811981 0.661438 0.109314
0.846466 0.660919 0.099182
0.883209 0.660797 0.073456
0.920959 0.659485 0.055573
0.307983 0.646606 0.227844
0.310730 0.647308 0.229279
0.310608 0.645416 0.225372
0.312531 0.645416 0.221802
0.320709 0.645172 0.215210
0.324249 0.644958 0.205933
0.324188 0.647766 0.197876
0.335449 0.652863 0.188690
0.348541 0.655426 0.181091
0.359802 0.654572 0.174072
0.371918 0.655212 0.157379
0.391907 0.658539 0.145386
0.414703 0.661804 0.140564
0.432037 0.662384 0.131653
0.450012 0.664276 0.129761
0.471863 0.666779 0.137817
0.490967 0.667755 0.140717
0.508636 0.667755 0.140381
0.531219 0.668854 0.142670
0.553955 0.672638 0.146729
0.578644 0.677917 0.155701
0.599335 0.680206 0.158386
0.622375 0.679474 0.159027
0.656830 0.683502 0.167114
0.682678 0.684540 0.170807
0.711060 0.684540 0.174835
0.747314 0.688904 0.177643
0.783783 0.690948 0.161499
0.816742 0.692566 0.153778
0.849152 0.692566 0.145691
0.882629 0.691193 0.124603
0.919067 0.691193 0.098236
0.334351 0.674988 0.240082
0.338379 0.677002 0.244110
0.341003 0.677856 0.245667
0.338989 0.677856 0.243652
0.340881 0.677582 0.239563
0.348969 0.675568 0.229340
0.354462 0.676147 0.220062
0.362671 0.682220 0.212006
0.372894 0.685699 0.205444
0.382996 0.683685 0.205444
0.394226 0.683472 0.193848
0.406342 0.685486 0.167480
0.424774 0.688049 0.154694
0.445099 0.690063 0.148651
0.464264 0.692535 0.147919
0.484467 0.696686 0.156006
0.503082 0.698151 0.158875
0.519073 0.698151 0.156891
0.541321 0.699280 0.158813
0.567688 0.701294 0.162994
0.592896 0.706299 0.171997
0.619141 0.712372 0.184113
0.642578 0.711884 0.185394
0.666931 0.709869 0.185394
0.692383 0.710907 0.188965
0.715088 0.710907 0.191132
0.751617 0.715790 0.196777
0.789856 0.721344 0.199982
0.822784 0.723358 0.192627
0.855194 0.724976 0.186188
0.887634 0.723083 0.166656
0.921082 0.721588 0.144775
0.360718 0.704865 0.261200
0.363251 0.703888 0.265259
0.367035 0.705902 0.268494
0.366394 0.707275 0.262390
0.365662 0.707550 0.260376
0.373749 0.708008 0.255188
0.381805 0.706360 0.246155
0.389954 0.709106 0.240295
0.397125 0.714111 0.229614
0.404327 0.714050 0.220795
0.413788 0.713989 0.216858
0.424194 0.716858 0.196442
0.438629 0.717316 0.176361
0.458191 0.717896 0.168854
0.479401 0.721710 0.167358
0.500214 0.726440 0.174255
0.519226 0.727448 0.179199
0.535706 0.726959 0.178162
0.556305 0.728088 0.179474
0.582275 0.730103 0.183624
0.606171 0.733429 0.186462
0.631897 0.739258 0.197296
0.658234 0.743927 0.205292
0.682709 0.742310 0.205688
0.703949 0.743286 0.211761
0.726288 0.743286 0.213776
0.757172 0.745178 0.213074
0.795624 0.751221 0.219116
0.824341 0.752258 0.226624
0.856781 0.754272 0.220551
0.886200 0.755524 0.207245
0.918610 0.753510 0.186951
0.387085 0.735260 0.285431
0.389099 0.733246 0.289459
0.391388 0.732269 0.292725
0.391388 0.734283 0.284637
0.392029 0.735931 0.278534
0.400116 0.737946 0.276520
0.408173 0.738800 0.272522
0.416260 0.738800 0.268494
0.423340 0.740479 0.260040
0.427521 0.742493 0.241852
0.434082 0.744385 0.229126
0.442169 0.748413 0.216858
0.454926 0.749725 0.202728
0.473083 0.747711 0.192627
0.493530 0.750122 0.189697
0.515869 0.756165 0.193726
0.535522 0.757721 0.197479
0.553375 0.755737 0.199493
0.574463 0.756317 0.201813
0.598816 0.758362 0.205841
0.622314 0.761688 0.208679
0.644653 0.765869 0.210693
0.670471 0.770294 0.217407
0.696838 0.774353 0.223450
0.718231 0.775696 0.229919
0.738403 0.777710 0.238129
0.768890 0.779358 0.236908
0.801697 0.781616 0.235413
0.829620 0.782410 0.244965
0.856781 0.782684 0.252991
0.885406 0.784698 0.241272
0.914581 0.785919 0.227570
0.419983 0.767303 0.311371
0.418732 0.766907 0.310547
0.420898 0.765045 0.313782
0.423889 0.765564 0.305725
0.423889 0.767578 0.299469
0.426483 0.769592 0.302917
0.433380 0.771210 0.299744
0.437744 0.771210 0.293213
0.444763 0.771210 0.288147
0.448883 0.772125 0.275513
0.455597 0.774780 0.257324
0.465637 0.778839 0.242126
0.476105 0.782074 0.232300
0.492615 0.781769 0.223907
0.510773 0.781555 0.213806
0.531616 0.786194 0.212799
0.549683 0.789124 0.215790
0.566406 0.787750 0.217773
0.586670 0.786835 0.218658
0.610443 0.788330 0.221680
0.637299 0.790344 0.229431
0.660797 0.794098 0.233002
0.681763 0.795441 0.229553
0.707336 0.798981 0.234039
0.733704 0.803101 0.243073
0.754303 0.805267 0.251404
0.776093 0.808899 0.256256
0.808533 0.810913 0.254242
0.834045 0.811188 0.261139
0.860413 0.811188 0.271240
0.891937 0.813080 0.270325
0.920319 0.815094 0.258209
0.454407 0.799744 0.337738
0.452393 0.799744 0.335724
0.451294 0.799469 0.334106
0.455322 0.799469 0.326019
0.458313 0.799988 0.319794
0.458313 0.802002 0.325836
0.459747 0.803650 0.328125
0.461761 0.803650 0.320038
0.465088 0.803650 0.312500
0.469116 0.803650 0.304413
0.475769 0.805206 0.291748
0.487885 0.809235 0.273468
0.500305 0.812500 0.260681
0.514557 0.814514 0.254608
0.531097 0.816010 0.246216
0.549255 0.818024 0.236145
0.565857 0.819519 0.234100
