assets/luts/0004.CUBE
#Created by: Adobe Photoshop Export Color Lookup Plugin
TITLE "Screenshot from 2024-08-15 12-32-58.png"
#LUT size
LUT_3D_SIZE 8
#data domain
#LUT data points
DOMAIN_MIN 0.000000 0.000000 0.000000
DOMAIN_MAX 0.903226 0.903226 0.903226
0.000000 0.000000 0.027344
0.056244 0.017212 0.036194
0.197144 0.035950 0.017456
0.328674 0.028137 0.000000
0.439697 0.027802 0.000000
0.555908 0.048370 0.000000
0.693146 0.042847 0.000000
0.822205 0.017181 0.000000
0.000275 0.113281 0.062256
0.077881 0.114075 0.010925
0.206787 0.121094 0.000000
0.332825 0.111206 0.000000
0.428986 0.131165 0.000000
0.554993 0.144989 0.000000
0.681488 0.151306 0.000000
0.815491 0.137756 0.000000
0.028931 0.222412 0.051575
0.084900 0.220062 0.000793
0.171906 0.235168 0.000000
0.294281 0.244019 0.000000
0.432587 0.242676 0.000000
0.582214 0.233734 0.000000
0.714111 0.224487 0.000000
0.833710 0.231567 0.000000
0.073730 0.337250 0.051025
0.107330 0.341431 0.026062
0.185425 0.353394 0.000000
0.279968 0.365387 0.000000
0.397430 0.374237 0.000000
0.543365 0.375854 0.000000
0.706299 0.363159 0.000000
0.864594 0.338623 0.000000
0.156403 0.458679 0.115204
0.168640 0.461823 0.085266
0.223633 0.467010 0.015839
0.313538 0.478210 0.006378
0.398987 0.491974 0.022217
0.528564 0.499176 0.014404
0.672699 0.504059 0.000000
0.831635 0.496277 0.000000
0.249908 0.584473 0.192871
0.270874 0.583496 0.174774
0.300354 0.592560 0.132111
0.371368 0.597717 0.083923
0.454254 0.604279 0.099915
0.546661 0.621338 0.119812
0.677795 0.626465 0.134521
0.812042 0.632538 0.054504
0.360718 0.704865 0.261200
0.365662 0.707550 0.260376
0.397125 0.714111 0.229614
0.438629 0.717316 0.176361
0.519226 0.727448 0.179199
0.606171 0.733429 0.186462
0.703949 0.743286 0.211761
0.824341 0.752258 0.226624
0.471161 0.828644 0.357086
0.478333 0.830139 0.340942
0.486450 0.834839 0.331268
0.520294 0.840149 0.288086
0.583344 0.847443 0.253448
0.663391 0.851166 0.258850
0.757141 0.855347 0.272308
0.851288 0.867859 0.286896
0.000000 0.023956 0.079681
0.015381 0.045044 0.080231
0.108307 0.100555 0.104156
0.244293 0.121338 0.108063
0.376373 0.132324 0.101837
0.526428 0.120697 0.082306
0.674713 0.089050 0.082245
0.817688 0.029633 0.083679
0.002625 0.116669 0.095581
0.054169 0.125275 0.103912
0.174469 0.133606 0.100037
0.289093 0.152344 0.095581
0.417542 0.146088 0.077881
0.551666 0.148315 0.065887
0.682678 0.149170 0.061188
0.820557 0.129700 0.068176
0.048157 0.218506 0.123962
0.076843 0.223724 0.111206
0.160187 0.239594 0.079956
0.288025 0.244019 0.030762
0.437836 0.247406 0.003143
0.545746 0.261993 0.021637
0.678314 0.264221 0.030426
0.810486 0.263214 0.041779
0.100555 0.337769 0.148193
0.114319 0.344818 0.118744
0.174500 0.353394 0.070312
0.278137 0.369293 0.062500
0.398956 0.376831 0.022736
0.549225 0.373444 0.001312
0.706635 0.366608 0.000000
0.846405 0.358612 0.000000
0.170502 0.458405 0.171112
0.165192 0.459198 0.151245
0.227539 0.468018 0.113129
0.309631 0.476868 0.088257
0.395081 0.491974 0.091797
0.522308 0.500000 0.085968
0.674896 0.505371 0.013184
0.838196 0.495819 0.003143
0.245819 0.583252 0.222351
0.276550 0.587067 0.217926
0.305511 0.592041 0.196533
0.358734 0.600891 0.142426
0.450317 0.610626 0.148193
0.544983 0.622559 0.162018
0.669312 0.629150 0.169983
0.811340 0.630371 0.114258
0.363861 0.704620 0.300446
0.377319 0.706360 0.302917
0.393005 0.712494 0.273560
0.436218 0.721008 0.234558
0.515289 0.729797 0.206482
0.608063 0.735840 0.232391
0.696472 0.746918 0.236237
0.816925 0.757416 0.257690
0.465485 0.828369 0.386902
0.469696 0.827148 0.379028
0.492767 0.832794 0.360535
0.525055 0.841125 0.326965
0.584259 0.846008 0.283112
0.663513 0.853821 0.285645
0.751740 0.861267 0.307678
0.848877 0.869720 0.319214
0.000000 0.037506 0.120819
0.023956 0.061981 0.128632
0.114044 0.109100 0.144257
0.177582 0.158905 0.152893
0.257050 0.210114 0.168762
0.409393 0.240234 0.187103
0.556549 0.259247 0.196045
0.719025 0.259583 0.202820
0.018250 0.115112 0.137238
0.047638 0.133606 0.144531
0.126556 0.157837 0.148987
0.191132 0.195831 0.157837
0.287506 0.235168 0.174438
0.435852 0.257538 0.185211
0.585693 0.268829 0.197205
0.738403 0.269989 0.199371
0.065125 0.222931 0.153137
0.091431 0.230499 0.156006
0.140656 0.243744 0.168762
0.259644 0.260437 0.173157
0.374573 0.276550 0.174469
0.505768 0.287964 0.175507
0.642975 0.291687 0.179016
0.783783 0.295258 0.191498
0.130493 0.337769 0.193726
0.152649 0.344818 0.197632
0.178375 0.351074 0.183838
0.266693 0.372925 0.162781
0.396881 0.379944 0.127960
0.551788 0.376801 0.107513
0.664581 0.388275 0.153473
0.806641 0.393829 0.175415
0.210846 0.450806 0.235840
0.225220 0.457855 0.248322
0.230438 0.467010 0.221588
0.300262 0.480011 0.167542
0.389069 0.494843 0.182465
0.512817 0.504120 0.167145
0.674652 0.505585 0.134674
0.843811 0.489105 0.105286
0.301086 0.577393 0.313293
0.296967 0.580322 0.301117
0.306213 0.591797 0.283234
0.360565 0.600677 0.242218
0.441528 0.609741 0.226166
0.538147 0.623810 0.235443
0.658447 0.633057 0.236084
0.804535 0.634491 0.204529
0.385284 0.700958 0.379333
0.383057 0.704102 0.367401
0.397095 0.710266 0.345215
0.441254 0.719269 0.322815
0.503021 0.727142 0.275482
0.601227 0.736389 0.290588
0.688416 0.745697 0.302063
0.806824 0.757660 0.314209
0.471191 0.826874 0.439606
0.476410 0.831757 0.433044
0.501892 0.830383 0.423492
0.533691 0.839111 0.401062
0.582428 0.845795 0.367340
0.653381 0.855469 0.344879
0.747589 0.863281 0.354218
0.845978 0.871490 0.363525
0.023468 0.069794 0.168518
0.058838 0.088806 0.169830
0.109863 0.126556 0.179138
0.185120 0.171661 0.195282
0.259247 0.221802 0.210693
0.333221 0.281799 0.226898
0.434052 0.334625 0.257111
0.586670 0.366364 0.290924
0.046356 0.133850 0.177856
0.071869 0.149231 0.188263
0.123413 0.170349 0.192688
0.196106 0.203918 0.200775
0.262329 0.256409 0.212738
0.340271 0.305573 0.237518
0.450714 0.350037 0.262177
0.613007 0.372375 0.296387
0.084656 0.227875 0.201294
0.103943 0.235443 0.207794
0.143494 0.253143 0.210968
0.216431 0.280212 0.218781
0.283234 0.316864 0.230988
0.372650 0.353424 0.255981
0.511780 0.381042 0.280945
0.667480 0.395844 0.308228
0.148224 0.341949 0.222687
0.161499 0.345856 0.226349
0.196625 0.358093 0.228424
0.250244 0.380432 0.247894
0.355530 0.396118 0.260986
0.477509 0.409088 0.276855
0.610870 0.421051 0.288452
0.750854 0.434967 0.310242
0.211884 0.458160 0.275452
0.231659 0.459686 0.273834
0.257141 0.469910 0.286652
0.296783 0.483429 0.288696
0.378418 0.503448 0.268951
0.523590 0.508362 0.254150
0.682983 0.504150 0.248901
0.804352 0.513947 0.290161
0.311768 0.579346 0.356262
0.324951 0.580109 0.357513
0.342621 0.584473 0.363129
0.369690 0.600372 0.355652
0.436127 0.616089 0.311737
0.531952 0.630371 0.322510
0.651062 0.635071 0.310608
0.812500 0.633698 0.289490
0.424927 0.695557 0.447968
0.430450 0.696350 0.447296
0.443726 0.705322 0.442291
0.450348 0.715729 0.421387
0.502594 0.730072 0.387878
0.589417 0.738190 0.364319
0.686584 0.752716 0.379059
0.791138 0.762360 0.381409
0.517151 0.820038 0.526154
0.520538 0.821533 0.528748
0.522461 0.824097 0.507477
0.533966 0.841125 0.485535
0.574799 0.847687 0.462860
0.642151 0.858002 0.412140
0.729279 0.864136 0.421448
0.837616 0.874603 0.438568
0.063782 0.099213 0.202240
0.084076 0.114014 0.208466
0.130157 0.143463 0.218964
0.199982 0.187195 0.240051
0.258423 0.236633 0.254303
0.336334 0.295990 0.272614
0.416107 0.355164 0.296387
0.502777 0.414062 0.326294
0.070465 0.153625 0.221588
0.094513 0.163544 0.229156
0.138214 0.186707 0.229675
0.206818 0.222656 0.244995
0.265991 0.263702 0.255585
0.347290 0.318298 0.282745
0.426483 0.372589 0.303284
0.511292 0.428101 0.339203
0.089264 0.240112 0.242096
0.114807 0.251038 0.249420
0.150482 0.267700 0.253326
0.218475 0.289825 0.260040
0.290771 0.325684 0.275940
0.362976 0.366791 0.291107
0.442108 0.415192 0.317261
0.541046 0.462463 0.362640
0.160950 0.352356 0.275726
0.165619 0.356506 0.276001
0.206482 0.366150 0.277527
0.247345 0.389343 0.289276
0.323029 0.410370 0.304321
0.394745 0.441437 0.324371
0.476318 0.481781 0.358215
0.620361 0.501892 0.396881
0.230865 0.462585 0.311310
0.240479 0.465973 0.309448
0.269379 0.471924 0.317963
0.320465 0.487823 0.333160
0.363556 0.510468 0.356598
0.480774 0.521240 0.375946
0.609589 0.535126 0.394928
0.738586 0.551941 0.422424
0.319733 0.584045 0.392059
0.333252 0.584259 0.394135
0.353455 0.591797 0.401978
0.394501 0.597778 0.408112
0.440582 0.615784 0.417358
0.527130 0.632660 0.399048
0.664276 0.638153 0.387421
0.817902 0.630585 0.375000
0.431427 0.699463 0.477142
0.440430 0.701721 0.481323
0.453400 0.704407 0.483490
0.488953 0.712738 0.494995
0.511414 0.731140 0.483490
0.577759 0.743011 0.443604
0.667908 0.758789 0.464050
0.791687 0.762604 0.448364
0.542633 0.815796 0.571381
0.546387 0.816528 0.570587
0.554993 0.823792 0.578369
0.581207 0.830139 0.579346
0.588440 0.846008 0.558838
0.644440 0.861877 0.516998
0.721222 0.870758 0.502197
0.828552 0.879669 0.508881
0.097809 0.138275 0.258484
0.111969 0.144653 0.256531
0.151917 0.170654 0.266296
0.201355 0.205414 0.275330
0.276978 0.250427 0.297821
0.348267 0.306671 0.311981
0.429016 0.367096 0.341614
0.512421 0.423950 0.373627
0.101349 0.175781 0.266541
0.126190 0.186523 0.268250
0.160706 0.207123 0.277557
0.215607 0.239532 0.289642
0.285095 0.278931 0.304352
0.354126 0.325989 0.322021
0.434418 0.383392 0.349243
0.515472 0.434509 0.381439
0.126709 0.259796 0.289886
0.140381 0.267334 0.288971
0.179291 0.279846 0.298462
0.233978 0.304871 0.307037
0.301758 0.339264 0.323181
0.370789 0.379822 0.337036
0.449646 0.425690 0.362610
0.540283 0.474518 0.401978
0.174652 0.363831 0.318756
0.184814 0.371643 0.327087
0.212341 0.378784 0.323700
0.260712 0.395477 0.332672
0.325623 0.421783 0.350677
0.404144 0.450653 0.370941
0.478424 0.490265 0.401550
0.563141 0.531677 0.437775
0.229065 0.471832 0.369598
0.259033 0.475067 0.364258
0.284485 0.483337 0.373016
0.319824 0.495819 0.382050
0.360687 0.519562 0.399658
0.445770 0.540161 0.423553
0.518921 0.571747 0.449463
0.605560 0.605316 0.480377
0.341522 0.584473 0.426483
0.348877 0.591522 0.430634
0.377502 0.593079 0.430908
0.409149 0.605072 0.443665
0.462860 0.622345 0.461670
0.511261 0.639435 0.485138
0.628113 0.652679 0.513000
0.742249 0.665405 0.534027
0.440094 0.702454 0.514893
0.453308 0.704865 0.522034
0.468994 0.708313 0.526733
0.501282 0.716583 0.533691
0.537262 0.729034 0.542694
0.582031 0.748566 0.555328
0.660431 0.763794 0.546783
0.800079 0.768158 0.532349
0.541199 0.824219 0.608765
0.542236 0.824463 0.609283
0.559814 0.825775 0.610687
0.589325 0.835938 0.623169
0.620819 0.842407 0.629059
0.648773 0.863434 0.626526
0.711212 0.875397 0.583130
0.818817 0.884827 0.599976
0.136322 0.166779 0.301605
0.145538 0.177673 0.305756
0.180267 0.199219 0.311584
0.226410 0.230316 0.320251
0.283875 0.274353 0.340454
0.360779 0.322998 0.361755
0.432220 0.376678 0.389130
0.516846 0.432922 0.421783
0.147400 0.202423 0.308868
0.155945 0.212250 0.312836
0.181763 0.230621 0.321625
0.235626 0.260223 0.331451
0.290039 0.297455 0.350372
0.370544 0.343567 0.373749
0.445679 0.393768 0.403534
0.525330 0.448700 0.435272
0.154785 0.277893 0.330261
0.174255 0.281860 0.334198
0.202881 0.295990 0.340057
0.248688 0.321442 0.357605
0.306885 0.353027 0.368500
0.384979 0.393127 0.392426
0.459320 0.436157 0.416656
0.542542 0.482849 0.455933
0.191132 0.377747 0.368195
0.201172 0.382141 0.372894
0.238434 0.391510 0.375488
0.282928 0.406921 0.384033
0.336212 0.434479 0.400330
0.405609 0.465332 0.424561
0.487915 0.497498 0.452515
0.571136 0.543610 0.485657
0.260803 0.480652 0.414429
0.273712 0.484833 0.414673
0.287964 0.494873 0.425690
0.325745 0.504913 0.434540
0.378601 0.528320 0.454193
0.443207 0.552765 0.471802
0.539948 0.578644 0.500214
0.613159 0.610748 0.525238
0.358307 0.595215 0.476654
0.361115 0.599396 0.492218
0.376007 0.605713 0.497833
0.415344 0.614349 0.502838
0.453278 0.628845 0.512665
0.510071 0.650177 0.532593
0.587097 0.666840 0.560211
0.660950 0.698212 0.584839
0.454895 0.708771 0.554108
0.470703 0.707336 0.550323
0.480530 0.713196 0.556427
0.513000 0.721283 0.566711
0.541870 0.732483 0.577972
0.591156 0.750305 0.592194
0.646606 0.773041 0.627991
0.754944 0.782867 0.650391
0.545685 0.824738 0.642822
0.554688 0.825958 0.646484
0.571075 0.830658 0.651428
0.591583 0.837219 0.661530
0.632141 0.844543 0.666473
0.671570 0.857208 0.682343
0.712616 0.877014 0.690399
0.804413 0.891998 0.680206
0.175262 0.200989 0.349945
0.182617 0.209961 0.349548
0.206970 0.226929 0.359619
0.256104 0.260223 0.371155
0.303711 0.300873 0.391205
0.380096 0.344269 0.417206
0.452148 0.396240 0.443085
0.532379 0.446808 0.479675
0.171143 0.230896 0.356750
0.190674 0.236847 0.361908
0.213379 0.257019 0.372131
0.259766 0.286255 0.380402
0.320892 0.321320 0.398254
0.376312 0.363953 0.421631
0.457611 0.407501 0.447052
0.535706 0.461578 0.489044
0.201508 0.299072 0.380127
0.208862 0.304871 0.385925
0.235962 0.317505 0.389709
0.277588 0.341278 0.402496
0.329376 0.373810 0.418854
0.390625 0.406799 0.434052
0.472687 0.451416 0.469055
0.551483 0.496216 0.510925
0.226013 0.395325 0.416656
0.237030 0.399689 0.421539
0.264740 0.408295 0.423615
0.303894 0.425415 0.436829
0.356293 0.448303 0.452454
0.419708 0.478088 0.475708
0.503754 0.510712 0.508118
0.585785 0.552917 0.538849
0.273621 0.494171 0.468018
0.280334 0.496582 0.470398
0.299957 0.507019 0.475830
0.344269 0.518433 0.488373
0.399048 0.538818 0.506195
0.466644 0.561859 0.525879
0.540344 0.592010 0.547424
0.625305 0.623749 0.582367
0.374390 0.604797 0.539825
0.377380 0.604584 0.536682
0.392303 0.615082 0.545471
0.428101 0.626068 0.557983
0.472076 0.638275 0.568695
0.517456 0.658417 0.588684
0.589386 0.682983 0.608948
0.669708 0.706055 0.630798
0.474854 0.716858 0.601074
0.480194 0.716858 0.603485
0.494385 0.721558 0.606873
0.519226 0.733246 0.625702
0.542603 0.742371 0.637451
0.595947 0.762939 0.656586
0.658173 0.778687 0.675507
0.718811 0.801666 0.692963
0.568024 0.830383 0.683197
0.570953 0.834686 0.687744
0.585327 0.836060 0.688354
0.607544 0.840759 0.691406
0.644012 0.851349 0.704132
0.684662 0.864136 0.722321
0.733917 0.880920 0.739655
0.786774 0.900970 0.763336
