assets/luts/0004.CUBE
#Created by: Adobe Photoshop Export Color Lookup Plugin
TITLE "Screenshot from 2024-08-15 12-32-58.png"
#LUT size
LUT_3D_SIZE 5
#data domain
#LUT data points
DOMAIN_MIN 0.000000 0.000000 0.000000
DOMAIN_MAX 0.903226 0.903226 0.903226
0.000000 0.000000 0.027344
0.165710 0.036926 0.030121
0.385376 0.028534 0.000000
0.586304 0.050385 0.000000
0.822205 0.017181 0.000000
0.018341 0.194550 0.052551
0.149597 0.206360 0.000000
0.375061 0.208252 0.000000
0.608307 0.204742 0.000000
0.821533 0.220947 0.000000
0.124084 0.398071 0.075806
0.181641 0.408875 0.008728
0.344299 0.429321 0.001831
0.567719 0.439606 0.000000
0.847778 0.422943 0.000000
0.280334 0.616913 0.213043
0.312408 0.622589 0.164337
0.436127 0.634338 0.113495
0.581116 0.649719 0.135956
0.811981 0.661438 0.109314
0.471161 0.828644 0.357086
0.482880 0.834290 0.337769
0.547760 0.844269 0.273254
0.691254 0.853180 0.267914
0.851288 0.867859 0.286896
0.000000 0.033813 0.110107
0.093323 0.092407 0.127655
0.226654 0.179840 0.152588
0.473419 0.222992 0.169342
0.745361 0.225739 0.177490
0.051361 0.193054 0.136963
0.119751 0.212830 0.151093
0.320221 0.241089 0.153564
0.550018 0.256927 0.147675
0.796967 0.250275 0.157043
0.166840 0.396240 0.202454
0.191071 0.408875 0.183136
0.330505 0.433228 0.142487
0.569672 0.440308 0.088867
0.834991 0.430115 0.080658
0.311951 0.613007 0.307709
0.323669 0.619171 0.277618
0.415100 0.636749 0.221832
0.579803 0.655396 0.235107
0.800262 0.665802 0.210358
0.463470 0.825378 0.418335
0.493866 0.831909 0.413849
0.553619 0.843628 0.360870
0.680695 0.855591 0.329895
0.847015 0.871490 0.351349
0.044769 0.085022 0.187103
0.108948 0.125244 0.201233
0.225952 0.206360 0.228943
0.352081 0.303223 0.252838
0.521423 0.402985 0.316650
0.076874 0.210266 0.217224
0.129150 0.233276 0.224457
0.251404 0.283630 0.241089
0.372742 0.360840 0.271271
0.586273 0.427002 0.333893
0.186554 0.404968 0.261963
0.221771 0.411285 0.268921
0.305878 0.442871 0.295990
0.506744 0.469696 0.328278
0.742523 0.492859 0.365143
0.345978 0.610382 0.392944
0.371704 0.616974 0.401917
0.424164 0.636810 0.401825
0.565216 0.661713 0.376495
0.809814 0.664368 0.344391
0.536133 0.816925 0.555573
0.546143 0.816467 0.547394
0.559143 0.840881 0.518982
0.661163 0.861786 0.461731
0.829895 0.874542 0.477600
0.104004 0.146362 0.270569
0.147980 0.171783 0.276062
0.238831 0.234833 0.295105
0.372620 0.320923 0.328125
0.510468 0.427002 0.386810
0.132568 0.240967 0.290161
0.168793 0.257507 0.298218
0.260468 0.306396 0.315796
0.386566 0.377716 0.349243
0.532745 0.464783 0.406006
0.203949 0.419952 0.349792
0.236847 0.430756 0.358398
0.311523 0.461609 0.378845
0.445007 0.504730 0.414917
0.587677 0.571442 0.469543
0.373932 0.616913 0.456879
0.399841 0.624969 0.462280
0.459473 0.643738 0.482147
0.545685 0.671844 0.521606
0.748291 0.695801 0.562866
0.542175 0.823242 0.615356
0.558777 0.824738 0.620392
0.606750 0.837372 0.630981
0.664032 0.865448 0.645355
0.816803 0.886841 0.618683
0.175262 0.200989 0.349945
0.200378 0.221802 0.359619
0.276154 0.279480 0.377991
0.396393 0.356384 0.421356
0.532379 0.446808 0.479675
0.193481 0.281372 0.374451
0.220764 0.296173 0.382507
0.297119 0.342896 0.404877
0.408051 0.405396 0.438080
0.545898 0.485077 0.501801
0.245239 0.443634 0.436554
0.273895 0.455322 0.443726
0.351715 0.481201 0.471130
0.454254 0.526825 0.505188
0.606171 0.587494 0.559082
0.398346 0.635193 0.560547
0.415283 0.638245 0.557312
0.470856 0.655457 0.576080
0.549866 0.686676 0.605347
0.684845 0.731873 0.647491
0.568024 0.830383 0.683197
0.580261 0.837555 0.690369
0.624847 0.848175 0.698822
0.694855 0.867188 0.726013
0.786774 0.900970 0.763336
