assets/luts/0005.CUBE
#Created by: Adobe Photoshop Export Color Lookup Plugin
TITLE "Screenshot from 2024-08-15 12-32-58.png"
#LUT size
LUT_3D_SIZE 8
#data domain
#LUT data points
DOMAIN_MIN 0.000000 0.000000 0.000000
DOMAIN_MAX 0.903226 0.903226 0.903226
0.000000 0.007812 0.082306
0.093750 0.000000 0.076569
0.185669 0.000000 0.000000
0.276062 0.000000 0.000000
0.383087 0.000000 0.000000
0.520386 0.000000 0.000000
0.682617 0.000000 0.000000
0.871521 0.024719 0.000000
0.000000 0.066406 0.055969
0.028381 0.058350 0.000000
0.135681 0.066681 0.000000
0.226593 0.080200 0.000000
0.339630 0.105988 0.000000
0.493469 0.128845 0.000000
0.666626 0.156281 0.000000
0.859802 0.182037 0.000000
0.000000 0.169556 0.004150
0.006500 0.166168 0.000000
0.163849 0.169037 0.000000
0.277374 0.183868 0.000000
0.372223 0.217377 0.000000
0.510284 0.265778 0.000000
0.669525 0.311920 0.000000
0.847809 0.348724 0.000000
0.000000 0.314392 0.041656
0.000000 0.318512 0.000000
0.199219 0.315430 0.000000
0.343475 0.330231 0.000000
0.476410 0.338470 0.000000
0.596680 0.379608 0.000000
0.744812 0.428467 0.000000
0.899597 0.471008 0.000000
0.000000 0.488251 0.145508
0.007294 0.497101 0.014587
0.241089 0.494781 0.000000
0.436035 0.494476 0.000000
0.576141 0.501007 0.000000
0.727966 0.512634 0.000000
0.854492 0.539612 0.000000
0.965485 0.575104 0.000000
0.141815 0.681030 0.208679
0.173370 0.684479 0.135223
0.326324 0.681976 0.006073
0.537201 0.671814 0.006470
0.677887 0.668304 0.000000
0.816650 0.669525 0.000000
0.955200 0.673340 0.000000
1.000000 0.678040 0.000000
0.302795 0.838806 0.232513
0.323181 0.842041 0.217468
0.406067 0.846100 0.087769
0.564209 0.839630 0.010132
0.745819 0.818115 0.000000
0.874542 0.810852 0.000000
0.985565 0.799957 0.000000
1.000000 0.786469 0.000000
0.410553 0.969788 0.299805
0.405334 0.971924 0.234924
0.426544 0.971924 0.127167
0.571228 0.965485 0.043884
0.741394 0.947205 0.000000
0.905701 0.919983 0.000000
1.000000 0.905334 0.000000
1.000000 0.889038 0.000000
0.000000 0.015900 0.124207
0.000000 0.000793 0.147675
0.092987 0.001556 0.205231
0.221375 0.002075 0.153931
0.368256 0.001556 0.100189
0.536102 0.000000 0.012512
0.718048 0.000000 0.008606
0.916718 0.000000 0.000275
0.000000 0.065887 0.099243
0.002625 0.062256 0.088287
0.142975 0.058868 0.067963
0.258850 0.049988 0.043213
0.397705 0.016724 0.006256
0.558899 0.008087 0.002350
0.732452 0.007294 0.000000
0.928040 0.002869 0.000000
0.000000 0.169281 0.146362
0.000000 0.165894 0.116394
0.150787 0.174530 0.056000
0.253632 0.195068 0.022675
0.365967 0.228058 0.005219
0.519073 0.255920 0.004700
0.714417 0.276001 0.000000
0.896942 0.294617 0.000000
0.000000 0.308655 0.197144
0.000000 0.319275 0.151062
0.145325 0.326050 0.069519
0.329163 0.335693 0.068237
0.468536 0.350739 0.013580
0.583466 0.389099 0.003387
0.732178 0.432526 0.000000
0.897644 0.476379 0.000000
0.000000 0.489288 0.262146
0.009399 0.492950 0.224976
0.187378 0.499969 0.113495
0.419922 0.494232 0.080750
0.563385 0.503113 0.080963
0.715363 0.520660 0.044952
0.841675 0.547943 0.003387
0.961884 0.581940 0.000000
0.180542 0.680511 0.317352
0.225067 0.682037 0.286621
0.288727 0.686188 0.149689
0.489380 0.680939 0.116577
0.679108 0.674927 0.106995
0.809052 0.672699 0.097015
0.945312 0.676788 0.071869
1.000000 0.681091 0.000000
0.332733 0.833466 0.363983
0.367157 0.835205 0.355957
0.373322 0.846619 0.199310
0.539734 0.844574 0.158936
0.728516 0.821594 0.108673
0.870819 0.817810 0.117035
0.978180 0.801819 0.077667
1.000000 0.788239 0.059631
0.421356 0.964111 0.399750
0.430511 0.961975 0.363220
0.447266 0.969788 0.242035
0.560425 0.970367 0.148773
0.728119 0.947998 0.069672
0.902527 0.923889 0.006317
0.997345 0.912109 0.018494
1.000000 0.887177 0.000000
0.000000 0.025024 0.210175
0.000000 0.038544 0.219818
0.000000 0.044006 0.228149
0.103180 0.071075 0.300293
0.239532 0.087494 0.369049
0.442505 0.098450 0.363495
0.644989 0.098969 0.344696
0.856354 0.045685 0.287201
0.000000 0.082825 0.127075
0.000000 0.101837 0.154175
0.003143 0.102356 0.198730
0.139862 0.109344 0.285187
0.290863 0.129150 0.334473
0.473877 0.144623 0.329895
0.669800 0.149445 0.300201
0.886780 0.132782 0.251587
0.000000 0.170074 0.177612
0.000000 0.169800 0.176544
0.107849 0.183075 0.184906
0.245361 0.195587 0.213806
0.388824 0.211426 0.204651
0.553497 0.226929 0.203033
0.743469 0.227173 0.165466
0.939575 0.230438 0.107880
0.000000 0.315155 0.280731
0.000000 0.321899 0.279175
0.084656 0.331512 0.258606
0.307861 0.336212 0.202881
0.435272 0.364288 0.177155
0.570068 0.402893 0.163910
0.749817 0.421448 0.153870
0.946228 0.433685 0.075378
0.000000 0.489288 0.372009
0.010681 0.492950 0.370758
0.178162 0.496857 0.318604
0.385406 0.507019 0.229370
0.550629 0.512787 0.229431
0.700470 0.532074 0.206085
0.825104 0.565002 0.170837
0.945312 0.592255 0.119507
0.144928 0.675903 0.462219
0.219147 0.674225 0.434235
0.329926 0.683502 0.391113
0.452850 0.694641 0.269928
0.657043 0.676117 0.251892
0.789032 0.679077 0.249420
0.932068 0.680573 0.225494
1.000000 0.698090 0.169647
0.328857 0.834381 0.509888
0.358704 0.837280 0.498322
0.422363 0.837738 0.442017
0.492157 0.848480 0.298187
0.688385 0.832367 0.264191
0.860016 0.816711 0.258026
0.970947 0.805969 0.249908
1.000000 0.796814 0.225342
0.419250 0.960205 0.528137
0.445312 0.964111 0.511627
0.505859 0.964111 0.463348
0.531525 0.972534 0.326569
0.680725 0.960327 0.259430
0.878113 0.927795 0.218506
0.988220 0.911255 0.194550
1.000000 0.894012 0.175842
0.000000 0.055725 0.304993
0.000000 0.078400 0.303436
0.000000 0.113800 0.279205
0.000000 0.113007 0.330231
0.162506 0.141663 0.421448
0.329376 0.171295 0.534943
0.515564 0.221649 0.604309
0.750641 0.245758 0.625427
0.000000 0.110931 0.211487
0.000000 0.129425 0.239105
0.000000 0.146606 0.274231
0.008362 0.145599 0.316895
0.206268 0.176300 0.418823
0.361633 0.209503 0.533112
0.549866 0.250519 0.589813
0.786163 0.274506 0.599945
0.000000 0.186462 0.227875
0.000000 0.194550 0.220581
0.000000 0.216156 0.251831
0.136200 0.228912 0.311768
0.285187 0.256226 0.424377
0.440704 0.286682 0.508240
0.639496 0.312561 0.531342
0.859619 0.335876 0.529297
0.000000 0.319275 0.313599
0.000000 0.320587 0.310730
0.125519 0.331787 0.309692
0.274475 0.353668 0.332581
0.425293 0.372162 0.368042
0.585876 0.391998 0.389862
0.772614 0.406006 0.390503
0.954742 0.420532 0.376343
0.000000 0.493713 0.462646
0.021820 0.498383 0.451447
0.185486 0.506012 0.439484
0.351959 0.520111 0.423035
0.526398 0.525726 0.363770
0.673584 0.551483 0.349640
0.810150 0.578827 0.340027
0.967651 0.574860 0.306885
0.141357 0.671814 0.546051
0.176971 0.671356 0.542816
0.325195 0.681305 0.534485
0.452789 0.686371 0.492432
0.615936 0.694214 0.398132
0.773346 0.688599 0.387207
0.910522 0.693542 0.364349
0.989258 0.714081 0.328827
0.301849 0.837280 0.637970
0.346466 0.834900 0.624054
0.422485 0.838928 0.603546
0.525696 0.834106 0.545685
0.629608 0.847565 0.416840
0.839447 0.822693 0.386078
0.956512 0.813263 0.379089
1.000000 0.806885 0.360443
0.414398 0.960999 0.660431
0.435150 0.960724 0.657867
0.492279 0.957794 0.628876
0.582214 0.961578 0.557678
0.641052 0.966644 0.412476
0.828369 0.943787 0.372742
0.977905 0.918427 0.347076
1.000000 0.900391 0.331085
0.000000 0.096313 0.374908
0.000000 0.115021 0.378998
0.000000 0.144958 0.359436
0.000000 0.166107 0.374878
0.020569 0.189697 0.453949
0.262329 0.233185 0.566589
0.455719 0.274139 0.697357
0.657043 0.314148 0.811340
0.000000 0.136902 0.308472
0.000000 0.152039 0.330566
0.000000 0.180634 0.365234
0.000000 0.198608 0.367828
0.085754 0.215271 0.447968
0.295685 0.258728 0.561798
0.489655 0.299561 0.703064
0.683136 0.341644 0.811646
0.000000 0.215302 0.254730
0.000000 0.229675 0.285553
0.000000 0.251770 0.336060
0.000000 0.279327 0.394073
0.194611 0.296783 0.456818
0.370789 0.322144 0.567841
0.549927 0.360504 0.695862
0.738983 0.403748 0.786011
0.000000 0.341644 0.385162
0.000000 0.339783 0.372406
0.015137 0.360657 0.366699
0.069916 0.386200 0.394409
0.346283 0.402222 0.465881
0.499207 0.428101 0.590332
0.658661 0.463562 0.681915
0.853271 0.478424 0.712280
0.040100 0.498108 0.473480
0.095612 0.500000 0.472198
0.247620 0.508057 0.475525
0.379456 0.525482 0.482300
0.510284 0.537445 0.496918
0.658234 0.553711 0.535431
0.819672 0.567963 0.557983
0.971924 0.577423 0.568665
0.171539 0.675293 0.629578
0.233765 0.680359 0.630585
0.331055 0.684418 0.622894
0.464478 0.691833 0.604645
0.590820 0.698090 0.576843
0.752289 0.701569 0.519196
0.877106 0.708130 0.489960
0.974091 0.724030 0.474762
0.304077 0.837280 0.712341
0.358856 0.839966 0.707672
0.421448 0.833435 0.697235
0.525574 0.834595 0.672699
0.641724 0.840729 0.631256
0.790039 0.839264 0.519043
0.940796 0.828766 0.514801
1.000000 0.814209 0.478424
0.409424 0.960938 0.762390
0.415741 0.957031 0.759735
0.489014 0.957733 0.745819
0.573853 0.952606 0.715424
0.679382 0.955658 0.651733
0.784027 0.956299 0.509216
0.960907 0.922394 0.476624
1.000000 0.907166 0.459564
0.000000 0.147339 0.456848
0.000000 0.155762 0.458099
0.000000 0.184845 0.465912
0.000000 0.207947 0.456665
0.000000 0.243500 0.503784
0.162109 0.276459 0.605316
0.395782 0.326782 0.730591
0.601685 0.376709 0.865784
0.000000 0.175171 0.411682
0.000000 0.188568 0.425171
0.000000 0.221313 0.465088
0.000000 0.249237 0.475311
0.000000 0.275055 0.501617
0.204681 0.301453 0.601685
0.423889 0.355225 0.735992
0.628296 0.393188 0.860962
0.000000 0.255707 0.368225
0.000000 0.263306 0.384521
0.000000 0.287048 0.430695
0.000000 0.323395 0.497162
0.000000 0.346741 0.508545
0.299408 0.366425 0.602142
0.494843 0.411621 0.732849
0.703979 0.443726 0.871094
0.000000 0.371490 0.394531
0.000000 0.386292 0.400024
0.000000 0.397888 0.413635
0.000000 0.430023 0.483795
0.017975 0.464203 0.558655
0.426666 0.476288 0.617371
0.607056 0.503906 0.741211
0.779510 0.521912 0.864136
0.077362 0.511200 0.513275
0.101410 0.514893 0.527191
0.183594 0.533142 0.548676
0.292389 0.547852 0.532867
0.391541 0.580933 0.563049
0.571747 0.591614 0.638000
0.733490 0.604126 0.748016
0.868683 0.620117 0.847290
0.311066 0.678375 0.631439
0.338013 0.683716 0.638000
0.408752 0.687103 0.632355
0.500977 0.689636 0.629547
0.615295 0.699127 0.638824
0.727814 0.709808 0.652405
0.862610 0.713379 0.680786
0.982819 0.714447 0.701111
0.331940 0.836761 0.801422
0.370361 0.840942 0.794434
0.434998 0.833893 0.784363
0.543762 0.838654 0.764709
0.638885 0.838409 0.742706
0.766968 0.844269 0.717712
0.927917 0.833771 0.649139
1.000000 0.831940 0.616394
0.409485 0.961853 0.844055
0.433289 0.960358 0.845154
0.492493 0.958832 0.825958
0.576721 0.955414 0.809814
0.672791 0.951172 0.791229
0.786835 0.949280 0.733490
0.914246 0.936493 0.609406
1.000000 0.909821 0.598694
0.000000 0.187042 0.549011
0.000000 0.199219 0.554871
0.000000 0.227783 0.566589
0.000000 0.259888 0.573029
0.000000 0.303772 0.584625
0.000000 0.343536 0.654633
0.309967 0.374847 0.763397
0.545227 0.424774 0.891083
0.000000 0.222900 0.514038
0.000000 0.233643 0.532501
0.000000 0.264862 0.564758
0.000000 0.291046 0.581451
0.000000 0.328857 0.593658
0.000000 0.370941 0.661102
0.348938 0.397614 0.767120
0.564972 0.446411 0.894867
0.000000 0.292816 0.476379
0.000000 0.302826 0.489502
0.000000 0.324768 0.529022
0.000000 0.368073 0.593201
0.000000 0.406677 0.627136
0.021362 0.436188 0.665131
0.440033 0.460449 0.778046
0.638092 0.496002 0.897003
0.000000 0.412201 0.460236
0.000000 0.425354 0.482208
0.000000 0.437622 0.512634
0.000000 0.471039 0.582703
0.000000 0.509674 0.656891
0.148254 0.537262 0.688782
0.536713 0.541382 0.777710
0.731415 0.571106 0.898041
0.000000 0.553497 0.577118
0.000000 0.557709 0.574310
0.013031 0.571198 0.564270
0.060181 0.594543 0.575043
0.113770 0.627045 0.657684
0.338440 0.650269 0.722595
0.665833 0.644379 0.788727
0.812439 0.653931 0.891083
0.400482 0.685272 0.646729
0.425629 0.689819 0.661865
0.429840 0.696014 0.681946
0.477051 0.708649 0.704529
0.537781 0.727509 0.696228
0.608246 0.751617 0.717773
0.772461 0.751862 0.788391
0.915436 0.748138 0.891388
0.454895 0.832489 0.777527
0.471924 0.828583 0.769196
0.515320 0.836182 0.769073
0.600891 0.836517 0.769073
0.685059 0.837738 0.769562
0.788361 0.838470 0.770294
0.900055 0.840607 0.774841
0.995697 0.833435 0.786591
0.416870 0.956970 0.924744
0.449463 0.956696 0.925140
0.492401 0.956970 0.915222
0.583954 0.952728 0.901489
0.685089 0.948334 0.869415
0.788544 0.942413 0.843140
0.887665 0.937714 0.801239
1.000000 0.915619 0.725586
0.000000 0.239380 0.646027
0.000000 0.251160 0.657288
0.000000 0.277191 0.672394
0.000000 0.314240 0.686707
0.000000 0.360992 0.701447
0.000000 0.404541 0.720917
0.000000 0.451630 0.821930
0.495117 0.481049 0.934296
0.000000 0.271759 0.631500
0.000000 0.287659 0.644653
0.000000 0.305450 0.667816
0.000000 0.345551 0.697968
0.000000 0.390289 0.715302
0.000000 0.430206 0.728455
0.050415 0.467865 0.817566
0.513489 0.496735 0.927521
0.000000 0.342133 0.595001
0.000000 0.349030 0.604919
0.000000 0.374023 0.643341
0.000000 0.417084 0.697845
0.000000 0.460876 0.744232
0.000000 0.489746 0.751099
0.196198 0.526337 0.828491
0.575073 0.543915 0.933838
0.000000 0.458282 0.576813
0.000000 0.466095 0.589630
0.000000 0.486145 0.623230
0.000000 0.517975 0.681030
0.000000 0.560486 0.754395
0.000000 0.593781 0.796844
0.356384 0.609344 0.830475
0.664368 0.612793 0.935272
0.000000 0.591187 0.594849
0.000000 0.593781 0.592987
0.000000 0.607635 0.613678
0.000000 0.638062 0.670532
0.000000 0.669220 0.743652
0.000000 0.704620 0.823120
0.485443 0.707581 0.843536
0.747284 0.701782 0.929443
0.077148 0.722809 0.751740
0.130768 0.722870 0.748810
0.190155 0.735901 0.745178
0.317047 0.749390 0.735687
0.399445 0.765381 0.724060
0.450806 0.790405 0.795074
0.560730 0.810394 0.870422
0.838623 0.788879 0.921417
0.541779 0.835083 0.764252
0.558044 0.834351 0.772247
0.595276 0.837616 0.785614
0.621063 0.841278 0.807556
0.655365 0.851562 0.842010
0.720337 0.864716 0.823547
0.779663 0.877838 0.837830
0.921295 0.868561 0.891083
0.540375 0.952789 0.886505
0.560913 0.951019 0.888672
0.596588 0.951172 0.883972
0.652893 0.948700 0.882568
0.734680 0.947113 0.873932
0.820618 0.941345 0.866547
0.922974 0.930786 0.848511
0.993561 0.922211 0.853790
