assets/luts/0005.CUBE
#Created by: Adobe Photoshop Export Color Lookup Plugin
TITLE "Screenshot from 2024-08-15 12-32-58.png"
#LUT size
LUT_3D_SIZE 32
#data domain
DOMAIN_MIN 0.0 0.0 0.0
DOMAIN_MAX 1.0 1.0 1.0
#LUT data points
0.000000 0.007812 0.082306
0.016144 0.003784 0.076233
0.033203 0.000000 0.070831
0.063599 0.000000 0.074860
0.093750 0.000000 0.076569
0.122131 0.000000 0.062439
0.148590 0.000000 0.045959
0.166870 0.000000 0.019592
0.185669 0.000000 0.000000
0.205841 0.000000 0.000000
0.227356 0.000000 0.000000
0.251709 0.000000 0.000000
0.276062 0.000000 0.000000
0.300415 0.000000 0.000000
0.326599 0.000000 0.000000
0.354980 0.000000 0.000000
0.383087 0.000000 0.000000
0.410919 0.000000 0.000000
0.444580 0.000000 0.000000
0.483063 0.000000 0.000000
0.520386 0.000000 0.000000
0.556976 0.000000 0.000000
0.597595 0.000000 0.000000
0.640106 0.000000 0.000000
0.682617 0.000000 0.000000
0.725128 0.000000 0.000000
0.772522 0.000000 0.000000
0.821106 0.000000 0.000000
0.871521 0.024719 0.000000
0.922241 0.053131 0.000000
0.961517 0.107941 0.000000
1.000000 0.164581 0.000000
0.000000 0.013855 0.074219
0.000000 0.009827 0.049866
0.017059 0.005798 0.043549
0.047455 0.002014 0.034363
0.078400 0.001770 0.037903
0.112061 0.000000 0.036072
0.138458 0.000000 0.024658
0.156647 0.000000 0.019592
0.175476 0.000000 0.000000
0.195740 0.000000 0.000000
0.215973 0.000000 0.000000
0.237579 0.000000 0.000000
0.262665 0.000000 0.000000
0.288177 0.000000 0.000000
0.315247 0.000000 0.000000
0.344757 0.000000 0.000000
0.376007 0.001038 0.000000
0.406860 0.002014 0.000000
0.439423 0.007568 0.000000
0.476990 0.012115 0.000000
0.514252 0.013336 0.000000
0.550781 0.014130 0.000000
0.592865 0.032013 0.000000
0.636047 0.040497 0.000000
0.683075 0.037506 0.000000
0.727142 0.036469 0.000000
0.764771 0.054474 0.000000
0.811005 0.058807 0.000000
0.864960 0.060547 0.000000
0.916199 0.085541 0.000000
0.961121 0.125275 0.000000
1.000000 0.180878 0.000000
0.000000 0.020966 0.066406
0.000000 0.017059 0.041656
0.000793 0.013153 0.018890
0.031189 0.009125 0.008789
0.062103 0.005219 0.000000
0.096558 0.003204 0.000000
0.127991 0.002075 0.000000
0.146149 0.002075 0.000000
0.164856 0.002472 0.000000
0.185181 0.002472 0.000000
0.205750 0.002472 0.000000
0.226074 0.002472 0.000000
0.248810 0.002869 0.000000
0.275024 0.002869 0.000000
0.302887 0.003265 0.000000
0.333313 0.003265 0.000000
0.365540 0.004669 0.000000
0.399445 0.006653 0.000000
0.434998 0.012573 0.000000
0.471466 0.022675 0.000000
0.508453 0.028320 0.000000
0.544922 0.030334 0.000000
0.586670 0.047455 0.000000
0.631317 0.073822 0.000000
0.678894 0.078400 0.000000
0.727478 0.074341 0.000000
0.766907 0.090668 0.000000
0.803375 0.113007 0.000000
0.855530 0.117523 0.000000
0.910278 0.119537 0.000000
0.955475 0.156250 0.000000
1.000000 0.196747 0.000000
0.000000 0.043304 0.062378
0.000000 0.041290 0.031952
0.000793 0.037506 0.008789
0.012878 0.035492 0.008789
0.043823 0.031464 0.000000
0.078247 0.027557 0.000000
0.109955 0.027466 0.000000
0.130005 0.034515 0.000000
0.148712 0.036072 0.000000
0.169037 0.040955 0.000000
0.190613 0.040955 0.000000
0.213837 0.040955 0.000000
0.237244 0.043304 0.000000
0.264954 0.047394 0.000000
0.291260 0.050140 0.000000
0.319183 0.053833 0.000000
0.351410 0.058014 0.000000
0.385315 0.063446 0.000000
0.422852 0.065430 0.000000
0.461365 0.071381 0.000000
0.502808 0.081482 0.000000
0.542877 0.087128 0.000000
0.582092 0.090515 0.000000
0.625153 0.108246 0.000000
0.672821 0.121033 0.000000
0.721405 0.120911 0.000000
0.768372 0.126740 0.000000
0.807404 0.145447 0.000000
0.856293 0.148315 0.000000
0.910278 0.149933 0.000000
0.955475 0.168945 0.000000
1.000000 0.206848 0.000000
0.000000 0.066406 0.055969
0.000000 0.064667 0.028442
0.000397 0.062378 0.000000
0.012115 0.060089 0.000000
0.028381 0.058350 0.000000
0.062836 0.054291 0.000000
0.094818 0.051300 0.000000
0.115112 0.059387 0.000000
0.135681 0.066681 0.000000
0.156006 0.072723 0.000000
0.177063 0.077362 0.000000
0.201294 0.077362 0.000000
0.226593 0.080200 0.000000
0.254974 0.086273 0.000000
0.282440 0.092590 0.000000
0.308807 0.098633 0.000000
0.339630 0.105988 0.000000
0.373535 0.114075 0.000000
0.410522 0.119354 0.000000
0.451019 0.121368 0.000000
0.493469 0.128845 0.000000
0.538025 0.138947 0.000000
0.579803 0.145447 0.000000
0.620300 0.149475 0.000000
0.666626 0.156281 0.000000
0.715332 0.164337 0.000000
0.762573 0.173553 0.000000
0.809113 0.181763 0.000000
0.859802 0.182037 0.000000
0.910522 0.182037 0.000000
0.955475 0.199890 0.000000
1.000000 0.220062 0.000000
0.000000 0.094788 0.033661
0.000000 0.094788 0.025574
0.000397 0.092773 0.000000
0.006439 0.086731 0.000000
0.022339 0.084717 0.000000
0.066864 0.084717 0.000000
0.098969 0.081055 0.000000
0.121185 0.079681 0.000000
0.141998 0.086731 0.000000
0.164093 0.091034 0.000000
0.184357 0.096436 0.000000
0.205322 0.099701 0.000000
0.229584 0.103577 0.000000
0.254974 0.112640 0.000000
0.282440 0.119598 0.000000
0.308807 0.127014 0.000000
0.341156 0.135162 0.000000
0.377563 0.144470 0.000000
0.412872 0.151459 0.000000
0.451019 0.155792 0.000000
0.491516 0.165253 0.000000
0.533966 0.177429 0.000000
0.575775 0.186157 0.000000
0.616272 0.191986 0.000000
0.661346 0.197632 0.000000
0.709290 0.204987 0.000000
0.757874 0.219574 0.000000
0.805084 0.230316 0.000000
0.858765 0.226105 0.000000
0.910522 0.224548 0.000000
0.955475 0.235870 0.000000
1.000000 0.254486 0.000000
0.000000 0.122009 0.014069
0.000000 0.122009 0.007538
0.000000 0.121857 0.000000
0.005280 0.116333 0.000000
0.017059 0.111053 0.000000
0.061981 0.111053 0.000000
0.103394 0.111450 0.000000
0.125732 0.109436 0.000000
0.149628 0.108185 0.000000
0.171967 0.112213 0.000000
0.194794 0.116669 0.000000
0.214966 0.120697 0.000000
0.235992 0.126312 0.000000
0.260345 0.136383 0.000000
0.285187 0.145966 0.000000
0.311554 0.154053 0.000000
0.342712 0.163513 0.000000
0.380585 0.173584 0.000000
0.418091 0.182648 0.000000
0.454529 0.188690 0.000000
0.491913 0.199310 0.000000
0.532410 0.213440 0.000000
0.573700 0.224640 0.000000
0.614197 0.232727 0.000000
0.658875 0.238586 0.000000
0.705566 0.244781 0.000000
0.752594 0.258606 0.000000
0.801178 0.274750 0.000000
0.853943 0.274292 0.000000
0.908691 0.268219 0.000000
0.954285 0.276825 0.000000
0.998840 0.288940 0.000000
0.000000 0.144196 0.005981
0.000000 0.144196 0.005981
0.000000 0.144073 0.000000
0.000000 0.142059 0.000000
0.011017 0.137299 0.000000
0.061584 0.137299 0.000000
0.103394 0.137665 0.000000
0.131775 0.139709 0.000000
0.156189 0.138214 0.000000
0.186096 0.138458 0.000000
0.209717 0.143188 0.000000
0.235291 0.149109 0.000000
0.255524 0.153900 0.000000
0.276611 0.160736 0.000000
0.300903 0.170837 0.000000
0.325684 0.180420 0.000000
0.354950 0.190491 0.000000
0.388641 0.201843 0.000000
0.426880 0.213104 0.000000
0.464630 0.223114 0.000000
0.498596 0.232910 0.000000
0.534424 0.245850 0.000000
0.577759 0.260071 0.000000
0.620392 0.271332 0.000000
0.663879 0.274902 0.000000
0.709595 0.279205 0.000000
0.752930 0.291809 0.000000
0.799164 0.307190 0.000000
0.847717 0.316284 0.000000
0.900482 0.314789 0.000000
0.947693 0.314392 0.000000
0.992767 0.323395 0.000000
0.000000 0.169556 0.004150
0.000000 0.169556 0.000000
0.000000 0.169556 0.000000
0.000000 0.167908 0.000000
0.006500 0.166168 0.000000
0.057098 0.166168 0.000000
0.104980 0.166168 0.000000
0.133911 0.168060 0.000000
0.163849 0.169037 0.000000
0.194244 0.169037 0.000000
0.224365 0.171021 0.000000
0.250732 0.177216 0.000000
0.277374 0.183868 0.000000
0.297668 0.189911 0.000000
0.319275 0.196228 0.000000
0.343475 0.206329 0.000000
0.372223 0.217377 0.000000
0.404114 0.229279 0.000000
0.436005 0.240295 0.000000
0.474487 0.252563 0.000000
0.510284 0.265778 0.000000
0.542725 0.277893 0.000000
0.582367 0.291412 0.000000
0.627045 0.305695 0.000000
0.669525 0.311920 0.000000
0.714050 0.313934 0.000000
0.757477 0.325226 0.000000
0.799988 0.339355 0.000000
0.847809 0.348724 0.000000
0.896393 0.356781 0.000000
0.943146 0.359375 0.000000
0.989838 0.359375 0.000000
0.000000 0.203979 0.020294
0.000000 0.203979 0.004150
0.000000 0.203979 0.000000
0.000000 0.203979 0.000000
0.006500 0.202606 0.000000
0.057098 0.202606 0.000000
0.104980 0.202606 0.000000
0.141571 0.202606 0.000000
0.172058 0.203461 0.000000
0.206482 0.201447 0.000000
0.236847 0.203430 0.000000
0.266876 0.209625 0.000000
0.294800 0.216553 0.000000
0.323914 0.224365 0.000000
0.345123 0.229492 0.000000
0.367828 0.234711 0.000000
0.397064 0.245758 0.000000
0.430481 0.257660 0.000000
0.458252 0.267487 0.000000
0.486725 0.276764 0.000000
0.523987 0.291473 0.000000
0.558990 0.306274 0.000000
0.596893 0.319763 0.000000
0.639130 0.333923 0.000000
0.677704 0.342194 0.000000
0.718079 0.346375 0.000000
0.762634 0.356537 0.000000
0.806061 0.369751 0.000000
0.853943 0.380371 0.000000
0.902588 0.389221 0.000000
0.949249 0.397278 0.000000
0.995880 0.399872 0.000000
0.000000 0.239075 0.033234
0.000000 0.239075 0.015106
0.000000 0.239227 0.000000
0.000000 0.239777 0.000000
0.005463 0.239502 0.000000
0.054504 0.239075 0.000000
0.105499 0.239075 0.000000
0.144165 0.239075 0.000000
0.179169 0.239075 0.000000
0.213348 0.237183 0.000000
0.249756 0.238464 0.000000
0.280029 0.244659 0.000000
0.312927 0.249603 0.000000
0.343353 0.257690 0.000000
0.371399 0.262634 0.000000
0.393738 0.266693 0.000000
0.420135 0.274139 0.000000
0.454010 0.286041 0.000000
0.485229 0.297150 0.000000
0.509583 0.305237 0.000000
0.540710 0.317688 0.000000
0.577179 0.333984 0.000000
0.616425 0.347504 0.000000
0.656921 0.361633 0.000000
0.693756 0.373108 0.000000
0.730225 0.379272 0.000000
0.772552 0.388306 0.000000
0.817078 0.400421 0.000000
0.862610 0.411407 0.000000
0.911316 0.421509 0.000000
0.953461 0.429047 0.000000
1.000000 0.437134 0.000000
0.000000 0.275543 0.039429
0.000000 0.275543 0.017090
0.000000 0.275665 0.000000
0.000000 0.277832 0.000000
0.005463 0.278107 0.000000
0.047974 0.275940 0.000000
0.097443 0.275543 0.000000
0.150177 0.275543 0.000000
0.187256 0.275543 0.000000
0.217651 0.275543 0.000000
0.253784 0.276947 0.000000
0.294281 0.285156 0.000000
0.327728 0.289734 0.000000
0.365692 0.292145 0.000000
0.394257 0.296570 0.000000
0.420105 0.297089 0.000000
0.445374 0.304169 0.000000
0.474335 0.314453 0.000000
0.507355 0.326477 0.000000
0.537842 0.337646 0.000000
0.568390 0.349518 0.000000
0.603424 0.364380 0.000000
0.642700 0.376465 0.000000
0.683289 0.388000 0.000000
0.719269 0.403717 0.000000
0.754578 0.415741 0.000000
0.795929 0.421814 0.000000
0.839417 0.430817 0.000000
0.880432 0.442932 0.000000
0.925446 0.453918 0.000000
0.958893 0.460236 0.000000
1.000000 0.467529 0.000000
0.000000 0.314392 0.041656
0.000000 0.315155 0.023224
0.000000 0.315155 0.001953
0.000000 0.316620 0.000000
0.000000 0.318512 0.000000
0.031555 0.316895 0.000000
0.086212 0.314789 0.000000
0.149109 0.314392 0.000000
0.199219 0.315430 0.000000
0.231171 0.315948 0.000000
0.264832 0.316589 0.000000
0.305328 0.324402 0.000000
0.343475 0.330231 0.000000
0.381958 0.332245 0.000000
0.418091 0.334900 0.000000
0.444489 0.334900 0.000000
0.476410 0.338470 0.000000
0.504364 0.348389 0.000000
0.533966 0.357208 0.000000
0.566254 0.369293 0.000000
0.596680 0.379608 0.000000
0.631134 0.393860 0.000000
0.668945 0.406860 0.000000
0.709564 0.416962 0.000000
0.744812 0.428467 0.000000
0.779266 0.444763 0.000000
0.819489 0.455963 0.000000
0.862000 0.462006 0.000000
0.899597 0.471008 0.000000
0.940094 0.483093 0.000000
0.967590 0.490326 0.000000
1.000000 0.496368 0.000000
0.000000 0.357025 0.037628
0.000000 0.359039 0.025391
0.000000 0.359833 0.007996
0.000000 0.359833 0.001953
0.000000 0.361023 0.000000
0.000000 0.361023 0.000000
0.043701 0.359436 0.000000
0.149048 0.357422 0.000000
0.209320 0.358063 0.000000
0.251831 0.362122 0.000000
0.287018 0.363281 0.000000
0.327515 0.365295 0.000000
0.365692 0.370728 0.000000
0.400116 0.372742 0.000000
0.436798 0.375671 0.000000
0.470703 0.379425 0.000000
0.504150 0.382507 0.000000
0.542816 0.388885 0.000000
0.572113 0.396698 0.000000
0.602844 0.403748 0.000000
0.631409 0.412231 0.000000
0.659515 0.420258 0.000000
0.696686 0.434418 0.000000
0.735809 0.447357 0.000000
0.770325 0.455963 0.000000
0.803467 0.466949 0.000000
0.842926 0.481598 0.000000
0.884338 0.492401 0.000000
0.917938 0.498474 0.000000
0.954224 0.507446 0.000000
0.973938 0.515778 0.000000
1.000000 0.522736 0.000000
0.000000 0.400543 0.059113
0.000000 0.401642 0.033234
0.000000 0.403778 0.019958
0.000000 0.405334 0.005280
0.005219 0.405334 0.000000
0.018250 0.405334 0.000000
0.031921 0.404968 0.000000
0.128418 0.402954 0.000000
0.221771 0.400909 0.000000
0.267426 0.403778 0.000000
0.309296 0.407166 0.000000
0.349792 0.409180 0.000000
0.388733 0.411987 0.000000
0.423309 0.414124 0.000000
0.456818 0.415253 0.000000
0.491272 0.419281 0.000000
0.528564 0.422485 0.000000
0.568542 0.428467 0.000000
0.606903 0.433563 0.000000
0.637299 0.439606 0.000000
0.670746 0.446655 0.000000
0.696960 0.452850 0.000000
0.725983 0.460785 0.000000
0.764465 0.474915 0.000000
0.797546 0.485443 0.000000
0.829956 0.493530 0.000000
0.864410 0.503815 0.000000
0.905029 0.518066 0.000000
0.938446 0.527039 0.000000
0.970734 0.533112 0.000000
0.981689 0.540131 0.000000
1.000000 0.548218 0.000000
0.000000 0.445068 0.111725
0.000000 0.445068 0.069214
0.000000 0.446289 0.042297
0.000000 0.450348 0.013885
0.005219 0.451904 0.000000
0.045715 0.451904 0.000000
0.072418 0.451508 0.000000
0.143341 0.449493 0.000000
0.227814 0.447479 0.000000
0.286621 0.445465 0.000000
0.331635 0.447662 0.000000
0.372131 0.449677 0.000000
0.411072 0.452484 0.000000
0.447510 0.456512 0.000000
0.481171 0.457764 0.000000
0.513611 0.457764 0.000000
0.550873 0.460754 0.000000
0.590729 0.462891 0.000000
0.629913 0.467804 0.000000
0.667572 0.472046 0.000000
0.703033 0.479401 0.000000
0.739624 0.487305 0.000000
0.765839 0.493378 0.000000
0.794861 0.501282 0.000000
0.827362 0.512421 0.000000
0.858368 0.521912 0.000000
0.889160 0.529968 0.000000
0.923187 0.540253 0.000000
0.956665 0.550995 0.000000
0.989044 0.559479 0.000000
0.991119 0.565521 0.000000
1.000000 0.572571 0.000000
0.000000 0.488251 0.145508
0.000000 0.491333 0.111206
0.000000 0.491333 0.069977
0.000000 0.493591 0.044281
0.007294 0.497101 0.014587
0.053986 0.497101 0.000000
0.101135 0.496704 0.000000
0.173309 0.494690 0.000000
0.241089 0.494781 0.000000
0.299866 0.494812 0.000000
0.356659 0.492767 0.000000
0.399414 0.493988 0.000000
0.436035 0.494476 0.000000
0.471741 0.497772 0.000000
0.509125 0.500885 0.000000
0.541870 0.501007 0.000000
0.576141 0.501007 0.000000
0.615997 0.502991 0.000000
0.655090 0.505157 0.000000
0.693573 0.509186 0.000000
0.727966 0.512634 0.000000
0.766571 0.520844 0.000000
0.804047 0.527588 0.000000
0.830261 0.533630 0.000000
0.854492 0.539612 0.000000
0.884888 0.549713 0.000000
0.918365 0.557159 0.000000
0.948761 0.565216 0.000000
0.965485 0.575104 0.000000
0.997925 0.585327 0.000000
1.000000 0.590607 0.000000
1.000000 0.596680 0.000000
0.000000 0.530090 0.161530
0.000000 0.536163 0.135162
0.000000 0.539124 0.101898
0.000000 0.539124 0.079559
0.007294 0.540924 0.052460
0.064087 0.540924 0.013977
0.117157 0.540527 0.000000
0.192078 0.538513 0.000000
0.261078 0.538605 0.000000
0.319855 0.544800 0.000000
0.376678 0.544647 0.000000
0.429260 0.542511 0.000000
0.467926 0.542267 0.000000
0.498352 0.540253 0.000000
0.535065 0.542725 0.000000
0.573547 0.544739 0.000000
0.608032 0.544830 0.000000
0.643921 0.544830 0.000000
0.683044 0.546906 0.000000
0.721497 0.549164 0.000000
0.755035 0.551971 0.000000
0.786438 0.554749 0.000000
0.826324 0.561493 0.000000
0.864166 0.567535 0.000000
0.886017 0.572083 0.000000
0.908844 0.577637 0.000000
0.944153 0.584473 0.000000
0.978699 0.591156 0.000000
0.984375 0.601013 0.000000
0.997925 0.611145 0.000000
1.000000 0.615570 0.000000
1.000000 0.620514 0.000000
0.028992 0.579041 0.177612
0.034515 0.582886 0.161316
0.035431 0.588562 0.134674
0.042297 0.588562 0.108429
0.047241 0.588287 0.080627
0.096313 0.587433 0.031036
0.150360 0.587433 0.000000
0.213806 0.586151 0.000000
0.280914 0.585175 0.000000
0.335541 0.590118 0.000000
0.395630 0.592377 0.000000
0.450562 0.589325 0.000000
0.498474 0.588806 0.000000
0.530548 0.587433 0.000000
0.560028 0.584503 0.000000
0.597504 0.585938 0.000000
0.637756 0.589996 0.000000
0.673889 0.590240 0.000000
0.705688 0.588013 0.000000
0.744141 0.590179 0.000000
0.782104 0.591125 0.000000
0.812531 0.593140 0.000000
0.847534 0.596802 0.000000
0.888031 0.602844 0.000000
0.916870 0.604065 0.000000
0.937195 0.608124 0.000000
0.956055 0.613770 0.000000
0.992523 0.619843 0.000000
0.997864 0.627197 0.000000
0.999878 0.637268 0.000000
1.000000 0.641693 0.000000
1.000000 0.645752 0.000000
0.081726 0.633789 0.193756
0.091797 0.635834 0.185699
0.098267 0.639282 0.169128
0.112396 0.639282 0.138702
0.124207 0.639008 0.106995
0.162659 0.636993 0.042145
0.209015 0.636139 0.000000
0.251678 0.636139 0.000000
0.307281 0.635895 0.000000
0.351807 0.637909 0.000000
0.407715 0.638916 0.000000
0.470551 0.632874 0.000000
0.520813 0.631439 0.000000
0.561310 0.633453 0.000000
0.592468 0.631195 0.000000
0.620850 0.627167 0.000000
0.660095 0.630615 0.000000
0.701935 0.636566 0.000000
0.734070 0.634705 0.000000
0.762451 0.630676 0.000000
0.800934 0.631500 0.000000
0.838898 0.631622 0.000000
0.873413 0.635010 0.000000
0.910370 0.639313 0.000000
0.940369 0.639374 0.000000
0.965576 0.638519 0.000000
0.977661 0.644196 0.000000
0.994537 0.650238 0.000000
0.999207 0.656281 0.000000
0.999878 0.663635 0.000000
1.000000 0.668060 0.000000
1.000000 0.672119 0.000000
0.141815 0.681030 0.208679
0.146942 0.680573 0.199371
0.156128 0.682617 0.190643
0.160278 0.683716 0.166962
0.173370 0.684479 0.135223
0.196198 0.686401 0.082153
0.237396 0.684357 0.023163
0.284241 0.683533 0.008667
0.326324 0.681976 0.006073
0.369415 0.681091 0.002472
0.419189 0.683136 0.010315
0.481415 0.679413 0.017426
0.537201 0.671814 0.006470
0.578613 0.671082 0.000000
0.620087 0.674011 0.000000
0.650787 0.671295 0.000000
0.677887 0.668304 0.000000
0.717987 0.673401 0.000000
0.754669 0.676086 0.000000
0.783325 0.672302 0.000000
0.816650 0.669525 0.000000
0.855133 0.669525 0.000000
0.892242 0.672241 0.000000
0.928711 0.676300 0.000000
0.955200 0.673340 0.000000
0.981567 0.671326 0.000000
0.988617 0.673340 0.000000
0.998688 0.679413 0.000000
1.000000 0.678040 0.000000
1.000000 0.684082 0.000000
1.000000 0.691956 0.000000
1.000000 0.696014 0.000000
0.206512 0.723572 0.222809
0.208527 0.721527 0.212708
0.212769 0.721069 0.202759
0.208740 0.723114 0.184570
0.211853 0.724976 0.159576
0.218048 0.731049 0.118958
0.243591 0.732941 0.071716
0.296173 0.730927 0.037292
0.342468 0.728516 0.020203
0.382965 0.722473 0.010101
0.431305 0.721588 0.014343
0.492096 0.723633 0.038696
0.547272 0.718353 0.034851
0.591827 0.708282 0.006470
0.634186 0.708435 0.000000
0.676849 0.712494 0.000000
0.706268 0.710815 0.000000
0.732086 0.708832 0.000000
0.766785 0.710541 0.000000
0.799194 0.710541 0.000000
0.832825 0.708008 0.000000
0.869263 0.705963 0.000000
0.906372 0.708710 0.000000
0.942841 0.712738 0.000000
0.968811 0.709290 0.000000
0.991669 0.703766 0.000000
0.996765 0.704987 0.000000
0.998688 0.707794 0.000000
1.000000 0.703308 0.000000
1.000000 0.700348 0.000000
1.000000 0.710205 0.000000
1.000000 0.718323 0.000000
0.247955 0.763336 0.225983
0.249969 0.762695 0.220001
0.252533 0.760803 0.210541
0.257233 0.761566 0.203522
0.251892 0.763855 0.179626
0.246857 0.768799 0.126801
0.263184 0.773682 0.092438
0.318787 0.772644 0.070801
0.362549 0.770630 0.045746
0.393646 0.766266 0.040741
0.439362 0.762177 0.020233
0.498749 0.763458 0.020752
0.554871 0.760803 0.035706
0.600616 0.750702 0.015594
0.645172 0.745178 0.000000
0.688232 0.748291 0.000000
0.725403 0.748199 0.000000
0.752258 0.745880 0.000000
0.781708 0.744965 0.000000
0.814148 0.744965 0.000000
0.844086 0.742493 0.000000
0.880035 0.740356 0.000000
0.917847 0.739685 0.000000
0.954315 0.743744 0.000000
0.973358 0.741638 0.000000
0.995697 0.735596 0.000000
1.000000 0.733307 0.000000
1.000000 0.735321 0.000000
1.000000 0.732971 0.000000
1.000000 0.726898 0.000000
1.000000 0.727753 0.000000
1.000000 0.737854 0.000000
0.278381 0.801819 0.223969
0.280396 0.801819 0.219910
0.282928 0.801300 0.214600
0.293152 0.801300 0.214600
0.296570 0.802338 0.201813
0.282288 0.806366 0.139008
0.287415 0.810150 0.092438
0.346191 0.810150 0.084381
0.392944 0.809113 0.072113
0.411102 0.807098 0.074127
0.447449 0.804688 0.058716
0.504211 0.804688 0.016205
0.558899 0.801300 0.007294
0.607605 0.791199 0.007294
0.653381 0.785675 0.000000
0.697906 0.785675 0.000000
0.735474 0.784668 0.000000
0.767395 0.780670 0.000000
0.798004 0.779419 0.000000
0.830414 0.779419 0.000000
0.860382 0.776947 0.000000
0.888763 0.772888 0.000000
0.926056 0.772125 0.000000
0.964539 0.772125 0.000000
0.982910 0.770172 0.000000
0.995697 0.765991 0.000000
1.000000 0.763214 0.000000
1.000000 0.761688 0.000000
1.000000 0.760071 0.000000
1.000000 0.757172 0.000000
1.000000 0.754913 0.000000
1.000000 0.756012 0.000000
0.302795 0.838806 0.232513
0.307800 0.837280 0.235992
0.309692 0.837677 0.231293
0.312988 0.841797 0.221619
0.323181 0.842041 0.217468
0.323883 0.844849 0.173370
0.315491 0.847717 0.117188
0.350952 0.846619 0.097961
0.406067 0.846100 0.087769
0.437012 0.844055 0.080933
0.464355 0.842041 0.077759
0.516876 0.841187 0.047180
0.564209 0.839630 0.010132
0.607056 0.831696 0.000000
0.653931 0.822540 0.000000
0.698517 0.820160 0.000000
0.745819 0.818115 0.000000
0.781982 0.814148 0.000000
0.810852 0.811249 0.000000
0.842102 0.810852 0.000000
0.874542 0.810852 0.000000
0.903442 0.807343 0.000000
0.933197 0.803314 0.000000
0.971161 0.803040 0.000000
0.985565 0.799957 0.000000
0.997650 0.795898 0.000000
1.000000 0.793518 0.000000
1.000000 0.791473 0.000000
1.000000 0.786469 0.000000
1.000000 0.784302 0.000000
1.000000 0.779266 0.000000
1.000000 0.777252 0.000000
0.325104 0.875244 0.244781
0.331177 0.873230 0.250824
0.336060 0.872131 0.253632
0.336060 0.878174 0.239349
0.339325 0.882538 0.225525
0.349426 0.884552 0.193237
0.355988 0.886200 0.155823
0.372284 0.884186 0.127411
0.404053 0.882538 0.106079
0.448578 0.880524 0.089813
0.488708 0.878510 0.077759
0.535400 0.876495 0.063629
0.578461 0.874084 0.038513
0.610748 0.870056 0.010132
0.651794 0.863037 0.000000
0.696442 0.854950 0.000000
0.743805 0.850555 0.000000
0.793579 0.846558 0.000000
0.826996 0.843658 0.000000
0.853363 0.841644 0.000000
0.884613 0.841278 0.000000
0.917053 0.841278 0.000000
0.947327 0.837738 0.000000
0.977722 0.833710 0.000000
0.991608 0.830353 0.000000
0.997650 0.826172 0.000000
1.000000 0.823792 0.000000
1.000000 0.821747 0.000000
1.000000 0.816223 0.000000
1.000000 0.810669 0.000000
1.000000 0.804871 0.000000
1.000000 0.799591 0.000000
0.358856 0.908447 0.268311
0.361633 0.908051 0.269470
0.366791 0.906311 0.273193
0.360809 0.909363 0.247040
0.361847 0.914642 0.234863
0.370544 0.915283 0.225861
0.379089 0.916931 0.186493
0.386627 0.916138 0.133240
0.406525 0.914642 0.111145
0.443298 0.913727 0.101593
0.489136 0.911713 0.085968
0.536743 0.909698 0.071747
0.581848 0.906891 0.052917
0.618500 0.902863 0.025360
0.655396 0.898834 0.004303
0.699310 0.892181 0.000000
0.743591 0.885193 0.000000
0.791565 0.880615 0.000000
0.834045 0.874390 0.000000
0.863007 0.870819 0.000000
0.894318 0.867493 0.000000
0.927124 0.866669 0.000000
0.955444 0.865295 0.000000
0.985352 0.861542 0.000000
0.993164 0.855988 0.000000
0.998840 0.851715 0.000000
1.000000 0.850891 0.000000
1.000000 0.848877 0.000000
1.000000 0.838470 0.000000
1.000000 0.832397 0.000000
1.000000 0.827972 0.000000
1.000000 0.821930 0.000000
0.395294 0.940887 0.294525
0.397339 0.940887 0.294525
0.399200 0.940735 0.293365
0.391144 0.942780 0.263092
0.386200 0.945038 0.239044
0.394257 0.945038 0.241058
0.401428 0.945312 0.224976
0.403442 0.945312 0.156097
0.414612 0.945038 0.109131
0.445007 0.945038 0.105072
0.483063 0.944122 0.096191
0.531647 0.942108 0.081909
0.577698 0.939331 0.062988
0.620331 0.935272 0.036621
0.661591 0.931244 0.016418
0.704102 0.927216 0.004303
0.747620 0.921661 0.000000
