assets/luts/0005.CUBE
#Created by: Adobe Photoshop Export Color Lookup Plugin
TITLE "Screenshot from 2024-08-15 12-32-58.png"
#LUT size
LUT_3D_SIZE 5
#data domain
#LUT data points
DOMAIN_MIN 0.000000 0.000000 0.000000
DOMAIN_MAX 0.903226 0.903226 0.903226
0.000000 0.007812 0.082306
0.166870 0.000000 0.019592
0.326599 0.000000 0.000000
0.556976 0.000000 0.000000
0.871521 0.024719 0.000000
0.000000 0.144196 0.005981
0.131775 0.139709 0.000000
0.300903 0.170837 0.000000
0.534424 0.245850 0.000000
0.847717 0.316284 0.000000
0.000000 0.400543 0.059113
0.128418 0.402954 0.000000
0.456818 0.415253 0.000000
0.696960 0.452850 0.000000
0.938446 0.527039 0.000000
0.206512 0.723572 0.222809
0.296173 0.730927 0.037292
0.634186 0.708435 0.000000
0.869263 0.705963 0.000000
1.000000 0.703308 0.000000
0.410553 0.969788 0.299805
0.415100 0.971924 0.189301
0.653534 0.958405 0.012878
0.939636 0.914825 0.000000
1.000000 0.889038 0.000000
0.000000 0.021942 0.187317
0.000000 0.028748 0.208466
0.201538 0.058228 0.312622
0.515259 0.055542 0.280731
0.876648 0.021606 0.184082
0.000000 0.141205 0.149170
0.075439 0.148590 0.153992
0.312897 0.168427 0.172607
0.598297 0.177155 0.120850
0.942566 0.170715 0.032532
0.000000 0.405029 0.310791
0.069824 0.408936 0.258331
0.434875 0.426971 0.184967
0.664642 0.472687 0.123932
0.925110 0.529572 0.076843
0.220795 0.724274 0.441681
0.328949 0.719849 0.380035
0.575531 0.724609 0.230438
0.850403 0.716187 0.216614
1.000000 0.721008 0.130981
0.422211 0.961700 0.492126
0.486298 0.964111 0.432892
0.608368 0.964905 0.237640
0.922638 0.922913 0.162964
1.000000 0.891449 0.130280
0.000000 0.078125 0.340607
0.000000 0.123749 0.322571
0.000000 0.150299 0.393250
0.338531 0.208771 0.586304
0.686432 0.295410 0.746552
0.000000 0.181335 0.222626
0.000000 0.209167 0.288452
0.135895 0.238739 0.380493
0.427887 0.292908 0.584198
0.777435 0.355560 0.690491
0.000000 0.408356 0.394806
0.110321 0.417664 0.391724
0.382080 0.441467 0.412262
0.669556 0.478394 0.474243
0.961182 0.497467 0.476898
0.197418 0.719391 0.614380
0.327240 0.725128 0.603516
0.538422 0.727600 0.543152
0.814972 0.728638 0.458099
0.994812 0.747162 0.404266
0.407562 0.959839 0.718262
0.463226 0.953247 0.698273
0.631470 0.955414 0.604004
0.845032 0.943939 0.433502
1.000000 0.904358 0.401855
0.000000 0.157440 0.479065
0.000000 0.185974 0.489716
0.000000 0.239929 0.492371
0.202606 0.298798 0.645813
0.586121 0.390991 0.873016
0.000000 0.242920 0.404022
0.000000 0.266418 0.446259
0.000000 0.327301 0.520599
0.303131 0.366455 0.646484
0.660187 0.440125 0.871887
0.000000 0.453094 0.484924
0.000000 0.469330 0.477234
0.077698 0.520813 0.543915
0.528259 0.547180 0.664185
0.818207 0.579834 0.877441
0.351562 0.722900 0.669922
0.421143 0.726624 0.676880
0.579742 0.736572 0.674194
0.776520 0.748291 0.686829
0.985809 0.746338 0.724854
0.416992 0.960876 0.865417
0.484222 0.956696 0.847107
0.624359 0.952789 0.815002
0.812134 0.946289 0.749695
1.000000 0.911926 0.628113
0.000000 0.239380 0.646027
0.000000 0.270569 0.674866
0.000000 0.336700 0.688477
0.000000 0.419220 0.746185
0.495117 0.481049 0.934296
0.000000 0.319214 0.600006
0.000000 0.346191 0.639252
0.000000 0.417664 0.719543
0.000000 0.484558 0.760742
0.558380 0.527100 0.933319
0.000000 0.523132 0.570648
0.000000 0.545929 0.614777
0.000000 0.594940 0.710968
0.005981 0.654510 0.819183
0.702637 0.654266 0.928101
0.238861 0.753754 0.786255
0.295502 0.759003 0.785858
0.443909 0.782928 0.758698
0.552826 0.816315 0.810760
0.862946 0.813110 0.913391
0.540375 0.952789 0.886505
0.587799 0.952148 0.885468
0.698090 0.947968 0.870331
0.844971 0.939850 0.859497
0.993561 0.922211 0.853790
