assets/luts/0006.CUBE
#Created by: Adobe Photoshop Export Color Lookup Plugin
TITLE "Screenshot from 2024-08-15 12-32-58.png"
#LUT size
LUT_3D_SIZE 32
#data domain
DOMAIN_MIN 0.0 0.0 0.0
DOMAIN_MAX 1.0 1.0 1.0
#LUT data points
0.031250 0.047150 0.082306
0.049561 0.051178 0.084320
0.067566 0.055206 0.086334
0.081696 0.059235 0.088348
0.097412 0.063812 0.091675
0.123779 0.071869 0.103912
0.149353 0.080750 0.114594
0.171692 0.092987 0.118622
0.195587 0.105194 0.123688
0.223969 0.117310 0.131775
0.251007 0.128754 0.137878
0.275238 0.138855 0.139893
0.298737 0.150574 0.145050
0.321075 0.164825 0.155121
0.344299 0.176300 0.162567
0.368652 0.184357 0.166718
0.391754 0.195465 0.172852
0.413605 0.209351 0.180786
0.436829 0.221252 0.187714
0.461182 0.231476 0.193756
0.485535 0.242859 0.201050
0.509857 0.254944 0.209106
0.532776 0.267059 0.215820
0.554962 0.279175 0.221893
0.580261 0.291382 0.231018
0.606628 0.303619 0.241241
0.629730 0.314117 0.246490
0.652069 0.324219 0.250519
0.681427 0.337830 0.259827
0.711853 0.351959 0.269928
0.736450 0.362427 0.278137
0.760681 0.372650 0.286194
0.047516 0.067322 0.090363
0.057617 0.067322 0.090363
0.076050 0.071228 0.092133
0.095978 0.073364 0.090363
0.110870 0.078217 0.093445
0.131836 0.088165 0.103912
0.157837 0.096619 0.115356
0.181793 0.107117 0.122650
0.204132 0.118286 0.126678
0.228027 0.127411 0.131775
0.255066 0.139557 0.139191
0.279266 0.151093 0.143951
0.301971 0.161194 0.147522
0.323090 0.172882 0.155121
0.346313 0.184357 0.162567
0.370667 0.192444 0.166718
0.392731 0.201477 0.172852
0.413605 0.213409 0.180786
0.439026 0.226379 0.189911
0.465210 0.237518 0.197784
0.484589 0.248901 0.202606
0.505829 0.261017 0.209106
0.531464 0.270386 0.217194
0.554962 0.281189 0.223907
0.581757 0.293396 0.230042
0.608643 0.305634 0.239227
0.630127 0.317780 0.247711
0.652069 0.328247 0.252533
0.681427 0.336578 0.256561
0.711853 0.349945 0.265900
0.734558 0.366089 0.277863
0.758667 0.376678 0.286194
0.063416 0.087646 0.098572
0.073639 0.087769 0.098572
0.084106 0.088165 0.098846
0.104431 0.090179 0.096802
0.124207 0.092834 0.095703
0.144379 0.103088 0.105927
0.165894 0.113007 0.115112
0.190247 0.123108 0.123169
0.214081 0.132538 0.130066
0.236420 0.140625 0.134125
0.259369 0.149628 0.138916
0.283569 0.161896 0.144989
0.306274 0.173309 0.151154
0.326599 0.183380 0.157227
0.348480 0.192688 0.162689
0.372833 0.200775 0.166870
0.394745 0.209808 0.172974
0.414612 0.219757 0.180939
0.438782 0.230682 0.189789
0.467163 0.242920 0.199890
0.488770 0.255219 0.206635
0.505035 0.267334 0.210693
0.527832 0.276703 0.217316
0.554047 0.284790 0.225403
0.581757 0.295807 0.232208
0.610138 0.308044 0.238373
0.632141 0.320190 0.246094
0.652466 0.332306 0.254181
0.681580 0.340759 0.258728
0.711975 0.348816 0.262756
0.734833 0.364441 0.274078
0.757019 0.380737 0.286194
0.073486 0.109955 0.108795
0.085754 0.112000 0.108795
0.096375 0.112518 0.109070
0.112518 0.118561 0.113098
0.131775 0.120850 0.111328
0.144379 0.125275 0.112000
0.166931 0.134705 0.119843
0.198334 0.141266 0.119141
0.222168 0.150360 0.125641
0.244476 0.156891 0.128052
0.267456 0.164337 0.133392
0.291779 0.171967 0.140961
0.314453 0.183380 0.147766
0.334656 0.193481 0.155212
0.354980 0.203552 0.162231
0.376862 0.212891 0.168884
0.397888 0.221985 0.174988
0.416626 0.231995 0.182953
0.437866 0.240906 0.189850
0.463135 0.251007 0.197876
0.490265 0.264404 0.207947
0.511108 0.277405 0.214722
0.531403 0.286865 0.220123
0.556061 0.295013 0.227417
0.582397 0.304565 0.235596
0.610138 0.316132 0.242432
0.633636 0.328247 0.250122
0.654480 0.340363 0.258209
0.683594 0.347198 0.262756
0.713989 0.354889 0.266785
0.738617 0.368744 0.274597
0.761078 0.384766 0.286194
0.084381 0.133331 0.120300
0.096619 0.135101 0.119537
0.108856 0.137115 0.119659
0.124725 0.142914 0.123566
0.140381 0.148956 0.127594
0.152496 0.153015 0.127594
0.166687 0.157440 0.127716
0.199097 0.163483 0.125702
0.228912 0.169037 0.124207
0.251251 0.175232 0.126221
0.274506 0.181122 0.128906
0.298859 0.187164 0.136963
0.322388 0.194519 0.144531
0.342560 0.204620 0.152588
0.363068 0.213928 0.159943
0.383362 0.224030 0.168152
0.403503 0.233826 0.176239
0.421387 0.243896 0.184174
0.440643 0.252869 0.191345
0.462982 0.260956 0.197388
0.487274 0.272491 0.206451
0.513641 0.286621 0.216553
0.537476 0.296722 0.223633
0.559662 0.304901 0.229706
0.584412 0.314514 0.237610
0.610779 0.324615 0.245819
0.634155 0.336334 0.253906
0.656494 0.348450 0.261993
0.685608 0.355560 0.267059
0.716003 0.361603 0.271088
0.740356 0.374786 0.278137
0.764587 0.389069 0.286194
0.100677 0.163757 0.140472
0.112762 0.163757 0.134430
0.125000 0.165497 0.133789
0.137085 0.167511 0.135803
0.152496 0.173309 0.139709
0.164734 0.179382 0.143738
0.178009 0.183807 0.144135
0.197083 0.189850 0.145905
0.226898 0.194855 0.143860
0.249237 0.197418 0.142365
0.272888 0.202911 0.143097
0.298859 0.207336 0.143036
0.323944 0.214233 0.149536
0.348602 0.222931 0.154602
0.369751 0.230286 0.159973
0.391449 0.236267 0.163971
0.414703 0.245270 0.172119
0.437653 0.253998 0.180145
0.453491 0.262970 0.188171
0.471069 0.271027 0.195374
0.493408 0.281677 0.206390
0.517670 0.294830 0.218567
0.542694 0.304840 0.224548
0.565857 0.312988 0.229706
0.588043 0.322601 0.238831
0.612823 0.332672 0.247833
0.637543 0.344391 0.255920
0.660522 0.356506 0.264008
0.688141 0.365234 0.272064
0.718018 0.371826 0.277161
0.740753 0.381653 0.279297
0.764587 0.395111 0.286194
0.119293 0.194153 0.159515
0.129822 0.193756 0.154633
0.141541 0.193878 0.148987
0.152893 0.195923 0.150726
0.164459 0.197937 0.152222
0.176453 0.203735 0.155884
0.189453 0.208984 0.159912
0.207642 0.215057 0.161926
0.225677 0.220856 0.163696
0.248016 0.222870 0.161682
0.270844 0.225525 0.159668
0.297211 0.229553 0.157623
0.323151 0.234009 0.156799
0.349396 0.242218 0.160828
0.375427 0.249329 0.163574
0.397766 0.253357 0.165588
0.420807 0.258270 0.169525
0.446777 0.266205 0.177612
0.468994 0.274231 0.185303
0.483093 0.282318 0.193359
0.502625 0.291748 0.202820
0.524963 0.303986 0.216949
0.548676 0.313416 0.225403
0.573029 0.321472 0.229431
0.595398 0.331055 0.238464
0.617615 0.341156 0.248688
0.641907 0.352509 0.256378
0.666260 0.364624 0.264465
0.692169 0.374084 0.274078
0.720581 0.382263 0.282166
0.742798 0.391846 0.285767
0.765015 0.401947 0.287781
0.147675 0.224548 0.173798
0.151703 0.222534 0.173798
0.161865 0.222290 0.169281
0.167908 0.224304 0.169281
0.178741 0.226318 0.170532
0.186798 0.228333 0.168518
0.199554 0.233337 0.172150
0.215820 0.235382 0.176178
0.233490 0.241425 0.178223
0.250031 0.247223 0.179962
0.272369 0.249878 0.177948
0.295197 0.253906 0.175934
0.320740 0.257172 0.173920
0.345367 0.260376 0.173065
0.373474 0.268524 0.175293
0.401794 0.275574 0.175812
0.422943 0.278564 0.177795
0.444763 0.282349 0.181641
0.472046 0.290436 0.188599
0.495361 0.298584 0.195374
0.515656 0.305420 0.199738
0.539093 0.314087 0.206848
0.562805 0.323517 0.218231
0.587158 0.331573 0.225403
0.608490 0.341156 0.235535
0.629852 0.351227 0.246674
0.655304 0.361450 0.251892
0.680389 0.372803 0.258392
0.699463 0.384918 0.273499
0.724609 0.394379 0.284180
0.745422 0.402466 0.292389
0.767151 0.412048 0.295990
0.173950 0.253876 0.189056
0.176941 0.252380 0.188019
0.180969 0.250366 0.187744
0.186646 0.251617 0.186981
0.193481 0.253632 0.187500
0.202118 0.255646 0.186249
0.210968 0.258087 0.185028
0.226959 0.260223 0.188934
0.243744 0.262787 0.192963
0.259888 0.268829 0.194977
0.274902 0.274750 0.198334
0.297211 0.278778 0.196320
0.320282 0.282562 0.193207
0.344513 0.284576 0.191193
0.369415 0.288300 0.190094
0.399841 0.296356 0.190094
0.425934 0.301300 0.189545
0.445923 0.303284 0.191528
0.469513 0.308136 0.194733
0.497894 0.316345 0.200775
0.526367 0.322723 0.204346
0.550568 0.328766 0.206360
0.575378 0.336212 0.211792
0.599701 0.344299 0.221893
0.621063 0.352295 0.231476
0.641388 0.362396 0.243744
0.666504 0.371521 0.249359
0.692749 0.381744 0.253387
0.713593 0.392578 0.266418
0.731873 0.404694 0.282562
0.754150 0.414093 0.292816
0.774475 0.422150 0.300995
0.194122 0.280121 0.207214
0.194122 0.280121 0.203186
0.197113 0.278625 0.201874
0.201172 0.276611 0.197845
0.207611 0.277832 0.197571
0.219849 0.279877 0.201630
0.229248 0.282288 0.201172
0.241364 0.286469 0.203186
0.257843 0.289154 0.207092
0.276031 0.293182 0.211121
0.290253 0.299225 0.215118
0.301270 0.305145 0.222687
0.324310 0.309204 0.219055
0.348541 0.312958 0.213409
0.371918 0.315887 0.212280
0.395813 0.320709 0.212280
0.422913 0.325653 0.210236
0.445923 0.327637 0.207672
0.468323 0.331879 0.209686
0.493866 0.338562 0.212891
0.525970 0.344208 0.216461
0.556763 0.348938 0.218475
0.582336 0.356476 0.220490
0.607788 0.364624 0.225922
0.629150 0.369690 0.231598
0.649445 0.376648 0.239685
0.674652 0.383484 0.245331
0.700958 0.391846 0.249359
0.725433 0.400177 0.258667
0.746002 0.410736 0.272461
0.773743 0.422974 0.286713
0.796661 0.432373 0.296844
0.213043 0.305756 0.224121
0.214996 0.305756 0.220734
0.215271 0.305756 0.216949
0.219299 0.304260 0.213959
0.223846 0.302765 0.210175
0.235291 0.304779 0.213043
0.247498 0.306793 0.217102
0.259613 0.310699 0.219360
0.270721 0.314819 0.221893
0.288239 0.318848 0.225952
0.305115 0.323578 0.229980
0.315338 0.329651 0.238190
0.328400 0.333618 0.242828
0.352631 0.337646 0.236633
0.375305 0.342346 0.231934
0.397614 0.346375 0.231934
0.420837 0.350006 0.230530
0.444794 0.351990 0.226562
0.468964 0.356201 0.225220
0.493317 0.362274 0.227234
0.523224 0.367096 0.230560
0.557678 0.371124 0.232574
0.587189 0.376648 0.231354
0.613434 0.384857 0.233368
0.638519 0.389313 0.236938
0.658813 0.393341 0.241119
0.683380 0.398376 0.243866
0.709747 0.404419 0.247925
0.736237 0.412933 0.257233
0.760437 0.420990 0.267303
0.786591 0.430969 0.279236
0.814972 0.443207 0.293365
0.229340 0.330109 0.238373
0.235382 0.330109 0.236359
0.237579 0.330109 0.233246
0.241638 0.330109 0.233246
0.246185 0.329132 0.230499
0.254242 0.331146 0.228485
0.265656 0.333160 0.231354
0.277771 0.335175 0.235382
0.288879 0.339050 0.238190
0.297089 0.343079 0.242218
0.313324 0.347809 0.246246
0.327423 0.354004 0.250305
0.339996 0.357697 0.255341
0.356781 0.357971 0.254944
0.379181 0.362915 0.249725
0.399658 0.368713 0.246185
0.422852 0.372711 0.245178
0.446808 0.376343 0.242828
0.471008 0.380554 0.241058
0.495361 0.386627 0.241516
0.524658 0.391449 0.246002
0.557678 0.395477 0.250885
0.587921 0.399506 0.246063
0.615448 0.405029 0.241577
0.644775 0.408630 0.245087
0.670929 0.411499 0.249176
0.694519 0.415558 0.250000
0.719849 0.420563 0.251953
0.749725 0.430237 0.261261
0.776733 0.439301 0.271362
0.799072 0.445465 0.279541
0.825043 0.455322 0.291351
0.247894 0.354462 0.252594
0.253174 0.354462 0.252899
0.258820 0.354462 0.250641
0.261566 0.354462 0.248688
0.265900 0.354980 0.248932
0.273468 0.357513 0.247955
0.282318 0.359528 0.245544
0.294434 0.361542 0.248047
0.306549 0.364075 0.252594
0.315247 0.368134 0.256897
0.326691 0.372162 0.262207
0.341095 0.378204 0.266510
0.355225 0.383575 0.268982
0.371490 0.383575 0.268982
0.387268 0.384735 0.268738
0.407440 0.390778 0.264709
0.427979 0.396606 0.263275
0.451935 0.400574 0.261292
0.475342 0.404907 0.258057
0.499695 0.410980 0.258057
0.526672 0.415009 0.258667
0.559082 0.419037 0.264709
0.589478 0.423859 0.264313
0.617737 0.427887 0.256226
0.645233 0.429657 0.254822
0.675629 0.431671 0.258850
0.703491 0.437653 0.262726
0.727844 0.441681 0.262726
0.757477 0.447937 0.266083
0.787872 0.458191 0.276154
0.810669 0.464539 0.282806
0.832855 0.470612 0.290894
0.270081 0.378815 0.266724
0.274139 0.378815 0.270752
0.279022 0.378815 0.270813
0.279022 0.378815 0.264771
0.282043 0.379333 0.263062
0.288208 0.383362 0.265076
0.296570 0.385895 0.263733
0.308685 0.387909 0.259674
0.320801 0.390442 0.262695
0.332916 0.394501 0.268738
0.344879 0.398529 0.274323
0.363159 0.402557 0.282410
0.377563 0.407776 0.285126
0.391693 0.411835 0.285126
0.407043 0.412720 0.285126
0.421692 0.415009 0.284882
0.441742 0.421082 0.283936
0.462036 0.426941 0.285492
0.485107 0.430969 0.281281
0.507782 0.435333 0.276215
0.533356 0.438904 0.274994
0.561127 0.441376 0.274811
0.592072 0.446777 0.276733
0.621765 0.452240 0.274384
0.647125 0.453278 0.270813
0.673615 0.454010 0.270966
0.704041 0.462524 0.278259
0.731873 0.470093 0.282928
0.761505 0.472351 0.279419
0.791931 0.478363 0.282227
0.814758 0.484802 0.286652
0.837036 0.490906 0.292908
0.291443 0.404053 0.283630
0.294586 0.404053 0.284027
0.298615 0.404053 0.287811
0.300171 0.404053 0.284088
0.300934 0.404327 0.278290
0.307098 0.407715 0.278320
0.313263 0.411346 0.279938
0.323792 0.413391 0.276947
0.335938 0.415405 0.274506
0.348083 0.419037 0.279785
0.361481 0.423065 0.285858
0.379517 0.427124 0.293671
0.397034 0.431152 0.298615
0.411285 0.435181 0.298615
0.425415 0.437408 0.298615
0.439667 0.439423 0.298615
0.455078 0.444397 0.303284
0.474945 0.450470 0.305267
0.495209 0.454529 0.301910
0.517548 0.458588 0.295868
0.540527 0.462280 0.293213
0.566895 0.464294 0.291199
0.595062 0.469116 0.289612
0.625336 0.475159 0.289612
0.651154 0.479462 0.290863
0.675507 0.479462 0.288849
0.702026 0.483063 0.289520
0.732422 0.493134 0.297577
0.762817 0.497101 0.296906
0.793213 0.499115 0.292877
0.815125 0.504089 0.295502
0.837433 0.510254 0.299530
0.311768 0.430450 0.303955
0.313782 0.430450 0.299896
0.316895 0.430450 0.300049
0.320953 0.430450 0.300049
0.323273 0.430695 0.296570
0.329346 0.432709 0.292419
0.335449 0.435699 0.292053
0.341492 0.437744 0.292053
0.352081 0.439758 0.290649
0.364319 0.441772 0.292786
0.377777 0.445404 0.298096
0.393921 0.449463 0.304138
0.411163 0.453491 0.308838
0.427429 0.457520 0.308838
0.441681 0.459747 0.308838
0.455811 0.459747 0.308838
0.471008 0.464813 0.313965
0.487183 0.472687 0.323547
0.507233 0.476532 0.320007
0.527618 0.478760 0.312134
0.549957 0.482788 0.309814
0.572937 0.486511 0.309479
0.600677 0.491333 0.307465
0.629517 0.497498 0.305908
0.655273 0.503571 0.308899
0.679535 0.507843 0.311157
0.703888 0.507843 0.307526
0.730408 0.511444 0.307800
0.760803 0.516266 0.308838
0.791199 0.519440 0.307129
0.812042 0.523346 0.308777
0.833282 0.528442 0.311768
0.336029 0.455536 0.319946
0.338043 0.456543 0.316956
0.339935 0.456543 0.313171
0.342194 0.456543 0.313171
0.346741 0.456818 0.312897
0.353546 0.458832 0.309540
0.359619 0.460449 0.305786
0.365662 0.461853 0.305145
0.372772 0.464935 0.307251
0.384460 0.467987 0.310883
0.396698 0.469360 0.310394
0.412140 0.472656 0.314178
0.427490 0.476685 0.320251
0.443512 0.480713 0.320984
0.458893 0.482941 0.320984
0.473022 0.482941 0.320984
0.491150 0.487030 0.325073
0.507172 0.494995 0.335022
0.521454 0.500702 0.339142
0.541626 0.502716 0.331085
0.561005 0.506989 0.331116
0.583344 0.511047 0.331116
0.605682 0.514404 0.326599
0.634064 0.520599 0.324585
0.658325 0.523621 0.323975
0.682556 0.529663 0.328003
0.708923 0.535004 0.329620
0.733276 0.535004 0.325592
0.758789 0.538513 0.325073
0.789215 0.542572 0.325073
0.813202 0.545563 0.324921
0.833374 0.549622 0.326935
0.363983 0.479370 0.331879
0.365997 0.481384 0.329865
0.367889 0.482361 0.327057
0.367889 0.482361 0.327057
0.370697 0.482635 0.326813
0.378784 0.484650 0.324799
0.385559 0.486267 0.321808
0.391632 0.486267 0.319794
0.398712 0.488770 0.321259
0.408813 0.494965 0.329346
0.420532 0.497314 0.330231
0.432770 0.497314 0.324188
0.447479 0.500641 0.328186
0.461609 0.504700 0.334229
0.476746 0.506897 0.334869
0.491028 0.506897 0.334869
0.509155 0.511017 0.338989
0.531006 0.518951 0.346924
0.544952 0.524750 0.351410
0.557648 0.528656 0.350922
0.576569 0.533173 0.351624
0.595245 0.538971 0.357056
0.616211 0.541626 0.351501
0.638031 0.544434 0.344421
0.661835 0.546021 0.342407
0.684540 0.547546 0.341919
0.712128 0.555328 0.345947
0.739227 0.560944 0.347443
0.761810 0.564484 0.346924
0.787231 0.568512 0.346924
0.813843 0.570648 0.345032
0.837463 0.573578 0.344818
0.389862 0.505707 0.345001
0.395294 0.506622 0.342987
0.397186 0.508636 0.341095
0.397186 0.509613 0.341095
0.397949 0.509613 0.341095
0.405182 0.510773 0.339935
0.412872 0.513184 0.337921
0.418915 0.514618 0.335876
0.425476 0.515656 0.335999
0.434998 0.521210 0.343506
0.445068 0.525421 0.348297
0.456848 0.525421 0.343109
0.469086 0.526245 0.341003
0.482880 0.529968 0.346771
0.497009 0.534027 0.351013
0.511261 0.534424 0.351196
0.523376 0.535431 0.353241
0.544739 0.543121 0.361023
0.566772 0.547821 0.366821
0.579010 0.551849 0.366821
0.593872 0.557129 0.367218
0.612030 0.563202 0.373413
0.626038 0.567627 0.375458
0.646332 0.569641 0.367249
0.667023 0.572357 0.364746
0.689209 0.572357 0.362732
0.715240 0.577820 0.363373
0.743622 0.586029 0.367401
0.766724 0.589478 0.365723
0.789062 0.593506 0.365723
0.815186 0.595673 0.364929
0.841553 0.597687 0.362915
0.414093 0.534088 0.359131
0.422302 0.534088 0.357117
0.427582 0.535004 0.355225
0.427582 0.537018 0.355225
0.428375 0.537994 0.355225
0.434418 0.537994 0.355225
0.441254 0.539551 0.354065
0.447296 0.543579 0.352020
0.453888 0.546082 0.352142
0.461945 0.550110 0.358307
0.471436 0.553680 0.362549
0.481537 0.553680 0.360413
0.493286 0.554504 0.359192
0.505524 0.556671 0.363342
0.519348 0.560394 0.367279
0.533478 0.564423 0.369293
0.545593 0.565857 0.371552
0.555634 0.567841 0.375519
0.576996 0.572174 0.381073
0.599213 0.574188 0.385132
0.613922 0.579468 0.385132
0.630310 0.585510 0.385529
0.643005 0.590210 0.388885
0.654419 0.593994 0.389587
0.674713 0.597504 0.387482
0.695404 0.600769 0.387085
0.720856 0.605652 0.386688
0.747650 0.612244 0.387726
0.770752 0.615051 0.384735
0.793091 0.617737 0.381989
0.819214 0.619873 0.381989
0.845581 0.621887 0.381226
0.442108 0.562469 0.377045
0.447754 0.562469 0.376282
0.455414 0.562469 0.374390
0.455414 0.563385 0.374390
0.455688 0.565155 0.373352
0.459778 0.565155 0.369446
0.466248 0.565521 0.370209
0.473206 0.568726 0.370728
0.479279 0.571716 0.369751
0.486633 0.574310 0.374451
0.495331 0.578339 0.377350
0.505432 0.579529 0.374664
0.515533 0.579529 0.372559
0.527283 0.581207 0.375305
0.540436 0.584198 0.381256
0.554565 0.588226 0.384247
0.564514 0.591217 0.384216
0.574127 0.593201 0.387543
0.587524 0.595215 0.392670
0.609344 0.597229 0.396820
0.626678 0.600555 0.399628
0.642944 0.606628 0.399628
0.659973 0.613770 0.406036
0.670074 0.617828 0.408051
0.682800 0.620605 0.409790
0.703125 0.624634 0.409790
0.728302 0.629089 0.408569
0.754517 0.635132 0.408569
0.774811 0.638916 0.406189
0.797119 0.640930 0.402161
0.821991 0.644165 0.400665
0.848389 0.646210 0.400665
0.472504 0.590851 0.397369
0.476532 0.590851 0.397369
0.481659 0.590851 0.396729
0.481659 0.590851 0.396729
0.481934 0.591522 0.395691
0.483948 0.591522 0.387604
0.488464 0.591919 0.384460
0.496643 0.593933 0.388519
0.503632 0.596069 0.390076
0.509674 0.596069 0.392090
0.517670 0.598663 0.393494
0.527771 0.602692 0.389465
0.537842 0.603882 0.386810
0.547943 0.603882 0.384796
0.560608 0.606384 0.389313
0.574860 0.610443 0.397400
0.584808 0.613403 0.398346
0.590790 0.615387 0.396362
0.603668 0.617401 0.400726
0.619812 0.619415 0.406769
0.636749 0.622772 0.409698
0.651031 0.626923 0.411743
0.668579 0.634338 0.418671
0.686218 0.642151 0.428345
0.697906 0.644714 0.430389
0.711182 0.646973 0.432129
0.736389 0.651031 0.430511
0.762726 0.655457 0.428864
0.781921 0.659729 0.427002
0.801178 0.663269 0.424377
0.825378 0.667175 0.422211
0.850403 0.670563 0.420837
0.497437 0.616516 0.410736
0.500092 0.617889 0.412109
0.503876 0.617889 0.412109
0.503876 0.617889 0.412109
0.504395 0.617615 0.412109
0.507538 0.616516 0.408478
0.510712 0.617279 0.401978
0.518860 0.620300 0.404053
0.524963 0.621796 0.407043
0.528473 0.621796 0.408203
0.535858 0.622437 0.408295
0.545990 0.625763 0.404236
0.556854 0.629028 0.403320
0.567535 0.629608 0.403076
0.576721 0.631409 0.404755
0.589569 0.635468 0.412384
0.603729 0.639465 0.416321
0.611084 0.641785 0.414673
0.622650 0.642700 0.415985
0.638794 0.644440 0.421783
0.652466 0.647705 0.425354
0.666595 0.651855 0.427399
0.682220 0.653198 0.430786
0.700378 0.661285 0.441010
0.715424 0.666229 0.446503
0.727661 0.668243 0.448517
0.744446 0.673340 0.448639
0.770844 0.677399 0.446625
0.791412 0.682800 0.447327
0.809570 0.686829 0.445160
0.830811 0.690857 0.441772
0.855133 0.694916 0.439758
0.519775 0.640869 0.420837
0.521790 0.642883 0.422852
0.524200 0.644257 0.424225
0.524200 0.644257 0.424225
0.524719 0.643982 0.424225
0.528748 0.641968 0.424225
0.533051 0.641632 0.422150
0.541107 0.645691 0.422150
0.547150 0.648163 0.423187
0.547150 0.648163 0.423187
0.552002 0.648804 0.422394
0.562225 0.650818 0.418365
0.573151 0.653351 0.417450
0.585236 0.655396 0.421478
0.595032 0.657776 0.424927
0.603088 0.661835 0.431122
0.615845 0.665833 0.434601
0.629883 0.669800 0.434601
0.642975 0.671082 0.436310
0.659119 0.671082 0.440338
0.672791 0.674072 0.443665
0.684875 0.678101 0.445679
0.700378 0.679443 0.449066
0.716644 0.679443 0.453094
0.731812 0.684509 0.458740
0.745819 0.688416 0.462646
0.761322 0.693817 0.463043
0.778900 0.699707 0.462769
0.799866 0.705505 0.464264
0.819672 0.711182 0.465485
0.839844 0.715210 0.461578
0.861206 0.719238 0.458038
0.540497 0.666626 0.438538
0.544128 0.665649 0.439056
0.546021 0.667786 0.441071
0.546021 0.670624 0.442444
0.546783 0.670868 0.442688
0.552063 0.671356 0.443939
0.555725 0.669708 0.443542
0.560455 0.671539 0.442444
0.568024 0.674530 0.441376
0.570953 0.674530 0.439423
0.573547 0.675171 0.439423
0.582855 0.677185 0.437103
0.590698 0.678436 0.434631
0.599945 0.679749 0.437225
0.613007 0.682648 0.440338
0.622894 0.686707 0.445312
0.632965 0.689667 0.448303
0.646484 0.693176 0.448303
0.659454 0.696075 0.451630
0.674835 0.696472 0.456055
0.689819 0.698944 0.457611
0.702209 0.702972 0.459381
0.715668 0.707031 0.464142
0.731812 0.707275 0.468292
0.749603 0.708771 0.472351
0.763733 0.712799 0.476379
0.779480 0.718475 0.480255
0.795776 0.724670 0.480255
0.804962 0.727753 0.482025
0.825134 0.733795 0.484039
0.846954 0.739563 0.481873
0.867249 0.743591 0.477844
0.560699 0.692841 0.458832
0.564850 0.690826 0.458832
0.568329 0.690002 0.459351
0.568329 0.694153 0.461365
0.569122 0.697266 0.463013
0.575165 0.699280 0.465027
0.580048 0.700104 0.465881
0.582092 0.700104 0.463867
0.586304 0.700897 0.461700
0.592346 0.700897 0.457672
0.597900 0.701538 0.455719
0.605957 0.703552 0.455719
0.612885 0.704803 0.454926
0.616943 0.704803 0.454926
0.627136 0.707001 0.456635
0.641388 0.711060 0.458649
0.653259 0.714020 0.460419
0.665192 0.716003 0.460419
0.677612 0.718414 0.463745
0.689728 0.720428 0.469818
0.703949 0.723297 0.471741
0.718201 0.727325 0.471741
0.731964 0.731354 0.476257
0.746094 0.735413 0.482300
0.763733 0.737152 0.486481
0.782013 0.739166 0.490509
0.797791 0.744843 0.494659
0.813934 0.750916 0.498535
0.821289 0.753479 0.500305
0.829163 0.756012 0.502319
0.851379 0.762177 0.500580
0.873322 0.767944 0.498169
0.589111 0.719208 0.475800
0.588287 0.718811 0.475800
0.592316 0.716919 0.475922
0.593811 0.717987 0.477936
0.593811 0.721893 0.479706
0.595764 0.723907 0.480347
0.601868 0.725128 0.481201
0.606445 0.723907 0.477936
0.609497 0.724426 0.476959
0.615540 0.725525 0.476257
0.620941 0.726166 0.473511
0.627075 0.728210 0.473511
0.635132 0.730225 0.472717
0.640869 0.731079 0.471893
0.647644 0.733856 0.472778
0.660400 0.738647 0.474823
0.672516 0.739594 0.476807
0.683868 0.740356 0.477417
0.693665 0.743469 0.477417
0.704742 0.746033 0.481903
0.720581 0.749268 0.489288
0.735596 0.753326 0.490875
0.745728 0.753235 0.488129
0.759094 0.756500 0.492889
0.774719 0.762024 0.500458
0.792877 0.764313 0.504730
0.807922 0.767944 0.507141
0.824066 0.774017 0.511322
0.841187 0.778168 0.518494
0.847260 0.780182 0.520508
0.865295 0.786011 0.523651
0.887604 0.792206 0.521637
0.619537 0.745575 0.491943
0.617493 0.745575 0.491943
0.616547 0.745300 0.492065
0.618561 0.745300 0.494080
0.620056 0.746094 0.495850
0.620056 0.748108 0.495850
0.622040 0.749359 0.495331
0.628235 0.747345 0.491272
0.633850 0.746613 0.489075
0.639893 0.748627 0.491089
0.645294 0.750397 0.491669
0.649323 0.752411 0.491669
0.655457 0.754425 0.490906
0.663513 0.756439 0.488861
0.671997 0.760101 0.488922
0.682068 0.766266 0.490967
0.692688 0.767975 0.492950
