assets/luts/0006.CUBE
#Created by: Adobe Photoshop Export Color Lookup Plugin
TITLE "Screenshot from 2024-08-15 12-32-58.png"
#LUT size
LUT_3D_SIZE 8
#data domain
#LUT data points
DOMAIN_MIN 0.000000 0.000000 0.000000
DOMAIN_MAX 0.903226 0.903226 0.903226
0.031250 0.047150 0.082306
0.097412 0.063812 0.091675
0.195587 0.105194 0.123688
0.298737 0.150574 0.145050
0.391754 0.195465 0.172852
0.485535 0.242859 0.201050
0.580261 0.291382 0.231018
0.681427 0.337830 0.259827
0.084381 0.133331 0.120300
0.140381 0.148956 0.127594
0.228912 0.169037 0.124207
0.322388 0.194519 0.144531
0.403503 0.233826 0.176239
0.487274 0.272491 0.206451
0.584412 0.314514 0.237610
0.685608 0.355560 0.267059
0.173950 0.253876 0.189056
0.193481 0.253632 0.187500
0.243744 0.262787 0.192963
0.320282 0.282562 0.193207
0.425934 0.301300 0.189545
0.526367 0.322723 0.204346
0.621063 0.352295 0.231476
0.713593 0.392578 0.266418
0.247894 0.354462 0.252594
0.265900 0.354980 0.248932
0.306549 0.364075 0.252594
0.355225 0.383575 0.268982
0.427979 0.396606 0.263275
0.526672 0.415009 0.258667
0.645233 0.429657 0.254822
0.757477 0.447937 0.266083
0.336029 0.455536 0.319946
0.346741 0.456818 0.312897
0.372772 0.464935 0.307251
0.427490 0.476685 0.320251
0.491150 0.487030 0.325073
0.561005 0.506989 0.331116
0.658325 0.523621 0.323975
0.758789 0.538513 0.325073
0.442108 0.562469 0.377045
0.455688 0.565155 0.373352
0.479279 0.571716 0.369751
0.515533 0.579529 0.372559
0.564514 0.591217 0.384216
0.626678 0.600555 0.399628
0.682800 0.620605 0.409790
0.774811 0.638916 0.406189
0.540497 0.666626 0.438538
0.546783 0.670868 0.442688
0.568024 0.674530 0.441376
0.590698 0.678436 0.434631
0.632965 0.689667 0.448303
0.689819 0.698944 0.457611
0.749603 0.708771 0.472351
0.804962 0.727753 0.482025
0.641144 0.771942 0.511719
0.645172 0.775177 0.515625
0.653839 0.773682 0.508331
0.672180 0.778564 0.507202
0.706909 0.791992 0.508484
0.749573 0.800140 0.516327
0.806244 0.806702 0.528076
0.865417 0.822968 0.544983
0.035950 0.059387 0.103638
0.092712 0.076324 0.120575
0.169037 0.125000 0.160187
0.262787 0.174194 0.201569
0.364685 0.216888 0.234161
0.465393 0.254120 0.254608
0.570892 0.294830 0.281250
0.676483 0.340485 0.302338
0.099762 0.140900 0.148438
0.132812 0.152863 0.167725
0.206024 0.173676 0.188812
0.295349 0.209106 0.212769
0.390717 0.241852 0.233337
0.481110 0.275421 0.253906
0.585480 0.316284 0.282562
0.684235 0.353668 0.305389
0.169556 0.246582 0.220337
0.182281 0.253876 0.224243
0.242950 0.263031 0.225800
0.318512 0.282562 0.221649
0.425446 0.301575 0.230225
0.499573 0.333679 0.270264
0.596375 0.365326 0.291748
0.696075 0.401642 0.312042
0.247650 0.354706 0.278687
0.259369 0.358612 0.281555
0.300537 0.367218 0.280762
0.357056 0.382782 0.289612
0.429565 0.396851 0.292236
0.532928 0.413330 0.279327
0.648224 0.427765 0.286102
0.746033 0.454346 0.303253
0.332397 0.459442 0.339783
0.339966 0.457581 0.340790
0.381348 0.465210 0.332947
0.423859 0.474579 0.334045
0.486206 0.487030 0.346283
0.558807 0.507751 0.349152
0.657715 0.526581 0.346832
0.764618 0.538269 0.339203
0.441132 0.562225 0.384857
0.453461 0.567566 0.388214
0.479004 0.569580 0.388428
0.509216 0.577911 0.387756
0.563141 0.590942 0.401154
0.627197 0.599121 0.410583
0.679688 0.620880 0.420074
0.772736 0.634613 0.413116
0.536743 0.667938 0.457245
0.543854 0.672119 0.456268
0.568390 0.672638 0.452362
0.596222 0.681610 0.454193
0.631256 0.690674 0.455750
0.685211 0.702271 0.470337
0.746918 0.710022 0.483765
0.804962 0.729889 0.494629
0.629303 0.773682 0.526489
0.636261 0.773956 0.522858
0.655029 0.773438 0.521820
0.675110 0.780914 0.520386
0.704590 0.790100 0.516876
0.756073 0.802795 0.534637
0.806244 0.806702 0.541229
0.869720 0.821075 0.557861
0.058594 0.068756 0.141937
0.100800 0.085693 0.161224
0.176300 0.140869 0.204163
0.235962 0.190094 0.234161
0.315704 0.240570 0.274689
0.414978 0.285461 0.314240
0.523346 0.326294 0.343903
0.633331 0.363861 0.365295
0.108582 0.149231 0.192963
0.130219 0.158081 0.201294
0.190369 0.189575 0.225800
0.261993 0.226593 0.253876
0.336548 0.268463 0.291656
0.438965 0.304840 0.324615
0.541046 0.341949 0.345673
0.650513 0.380280 0.371582
0.167480 0.253357 0.245026
0.190887 0.257538 0.253113
0.235168 0.271118 0.270599
0.307312 0.287781 0.294281
0.388367 0.314789 0.307800
0.476074 0.344757 0.336609
0.578766 0.372437 0.351318
0.681824 0.408569 0.370758
0.252075 0.352631 0.311188
0.267731 0.358887 0.317444
0.293243 0.364594 0.319000
0.354187 0.383301 0.332306
0.441284 0.399475 0.326294
0.533081 0.413330 0.325592
0.620605 0.438354 0.358429
0.720032 0.467712 0.378357
0.339966 0.453156 0.364227
0.354828 0.460480 0.370270
0.373260 0.465973 0.366608
0.423309 0.477448 0.372894
0.488068 0.489410 0.381409
0.554779 0.513367 0.380646
0.662933 0.526581 0.376984
0.768829 0.533203 0.376678
0.449188 0.561249 0.423584
0.456757 0.558319 0.420135
0.479065 0.572235 0.426270
0.517120 0.580566 0.425293
0.558716 0.589050 0.430450
0.620636 0.600372 0.439240
0.685516 0.623993 0.448120
0.776550 0.636230 0.442993
0.545044 0.667664 0.489563
0.551880 0.673035 0.486633
0.561829 0.676025 0.485718
0.599152 0.680115 0.485657
0.633942 0.690186 0.486694
0.687164 0.700104 0.495422
0.747070 0.709747 0.508240
0.803619 0.731659 0.521545
0.638794 0.771027 0.548798
0.645172 0.776825 0.554230
0.652985 0.776550 0.552246
0.679230 0.781189 0.544312
0.705078 0.790131 0.545593
0.749969 0.802277 0.554779
0.809875 0.809967 0.565491
0.864899 0.824738 0.584045
0.097168 0.097168 0.199982
0.122894 0.117950 0.210144
0.171906 0.157043 0.241119
0.251801 0.206238 0.275299
0.315979 0.254059 0.309296
0.394745 0.304962 0.342682
0.476776 0.352539 0.386383
0.587921 0.395905 0.421326
0.123169 0.161469 0.233643
0.153900 0.178101 0.246063
0.194519 0.201813 0.262512
0.259888 0.234924 0.290405
0.326141 0.275940 0.317078
0.404663 0.325714 0.354462
0.488861 0.368011 0.392059
0.602570 0.407745 0.421204
0.179657 0.255219 0.290405
0.199219 0.265900 0.300812
0.239349 0.281799 0.310394
0.298981 0.302643 0.326294
0.363220 0.331207 0.352356
0.429138 0.364807 0.378845
0.529572 0.399750 0.407043
0.640808 0.436829 0.430908
0.263519 0.359131 0.341949
0.280243 0.363312 0.343262
0.298462 0.371124 0.351318
0.346619 0.387482 0.373199
0.423584 0.404663 0.391937
0.505371 0.427979 0.409546
0.601624 0.453156 0.420868
0.694122 0.479980 0.446930
0.350922 0.460205 0.404083
0.360260 0.460724 0.404846
0.384430 0.468872 0.410065
0.423828 0.480591 0.421051
0.492493 0.493591 0.417877
0.565796 0.513123 0.421631
0.670319 0.528534 0.428375
0.744202 0.547058 0.458435
0.456665 0.561249 0.455475
0.464844 0.559814 0.454163
0.487793 0.569824 0.467194
0.512390 0.583160 0.467438
0.561066 0.592987 0.466125
0.622101 0.602264 0.476288
0.682465 0.619965 0.482300
0.784180 0.635712 0.481384
0.556244 0.668213 0.524353
0.559753 0.668732 0.521423
0.577179 0.674530 0.526489
0.598633 0.680847 0.528961
0.640808 0.690247 0.527710
0.687012 0.701355 0.527008
0.748108 0.715088 0.542114
0.799622 0.729645 0.549408
0.648743 0.773682 0.583649
0.651703 0.771942 0.583649
0.663544 0.774353 0.581696
0.679993 0.785614 0.582275
0.717499 0.791504 0.584167
0.751007 0.800201 0.584961
0.804810 0.808197 0.592194
0.866394 0.826874 0.610992
0.139282 0.129608 0.250397
0.148621 0.145538 0.264252
0.192627 0.177795 0.283813
0.262482 0.218506 0.314484
0.323029 0.262115 0.347565
0.397797 0.314453 0.380280
0.474823 0.363922 0.411957
0.562347 0.415161 0.446564
0.153870 0.185120 0.278290
0.171326 0.194244 0.289307
0.213806 0.217438 0.306213
0.267426 0.252563 0.333771
0.333679 0.283295 0.358002
0.408386 0.334320 0.387177
0.487549 0.382965 0.425629
0.573975 0.430237 0.455261
0.197601 0.267151 0.330414
0.215576 0.274963 0.335327
0.248627 0.292999 0.349457
0.297638 0.311401 0.366119
0.368134 0.337402 0.387878
0.432159 0.374084 0.409760
0.513184 0.417084 0.439606
0.599274 0.457214 0.467346
0.268707 0.363525 0.383484
0.278900 0.367706 0.387390
0.311768 0.376831 0.395264
0.347137 0.393250 0.406494
0.415253 0.415863 0.426270
0.477448 0.443298 0.441956
0.556824 0.476379 0.464722
0.653809 0.505219 0.497650
0.360504 0.467316 0.431702
0.372467 0.467590 0.436127
0.397461 0.473267 0.439178
0.439697 0.483978 0.449341
0.486206 0.501648 0.463348
0.551147 0.518311 0.482971
0.639282 0.539856 0.506317
0.724487 0.560547 0.527191
0.465149 0.568634 0.487946
0.476807 0.571503 0.489044
0.492004 0.575928 0.494629
0.524017 0.584961 0.501862
0.560791 0.593475 0.515228
0.627289 0.607971 0.523071
0.695862 0.622833 0.519104
0.791168 0.635620 0.523315
0.563568 0.673492 0.551392
0.568115 0.673798 0.554810
0.580414 0.674011 0.557312
0.608978 0.681610 0.559509
0.644684 0.693115 0.572479
0.683411 0.704010 0.566711
0.745209 0.720551 0.583344
0.807617 0.731171 0.580200
0.654022 0.773071 0.612915
0.658325 0.770905 0.616486
0.668182 0.771729 0.619659
0.690613 0.780487 0.622955
0.714050 0.788574 0.628143
0.762939 0.802307 0.628662
0.807037 0.811646 0.634369
0.868927 0.830780 0.649536
0.172455 0.165710 0.305420
0.183533 0.177155 0.314209
0.219299 0.204742 0.333984
0.265350 0.235504 0.355682
0.337067 0.276611 0.388092
0.404572 0.321228 0.415131
0.486389 0.374664 0.453644
0.574799 0.423615 0.484283
0.189667 0.208038 0.332031
0.204315 0.220703 0.340851
0.228912 0.234528 0.353088
0.283051 0.268951 0.373505
0.349579 0.302216 0.402740
0.414215 0.340393 0.429077
0.498169 0.391663 0.463684
0.582672 0.436371 0.489288
0.232269 0.288574 0.376831
0.236267 0.289032 0.377808
0.269958 0.302277 0.389771
0.312927 0.323334 0.406525
0.373352 0.353851 0.427338
0.442413 0.385864 0.450073
0.520752 0.424164 0.477722
0.605835 0.471527 0.505920
0.289795 0.374756 0.425629
0.305817 0.382477 0.433411
0.317474 0.387665 0.438507
0.366302 0.404388 0.445465
0.415985 0.426788 0.459564
0.492401 0.451294 0.481171
0.563110 0.484161 0.501770
0.643402 0.520233 0.523773
0.376556 0.469788 0.475372
0.382477 0.472260 0.477844
0.401276 0.481293 0.482483
0.450012 0.489380 0.490631
0.486633 0.509674 0.503357
0.548248 0.522644 0.513031
0.619324 0.556732 0.538300
0.683563 0.581970 0.556274
0.480194 0.571716 0.520844
0.494568 0.575897 0.519165
0.507843 0.580780 0.523529
0.539673 0.588287 0.534454
0.568207 0.597656 0.544159
0.622559 0.614746 0.561249
0.689545 0.629669 0.586884
0.765228 0.652557 0.609802
0.567566 0.673035 0.582947
0.579987 0.674530 0.587830
0.591766 0.676727 0.593231
0.613068 0.684479 0.595459
0.644379 0.695740 0.610657
0.693726 0.706512 0.618988
0.755402 0.724304 0.626099
0.819458 0.733551 0.622192
0.658356 0.773560 0.643097
0.661346 0.774353 0.647644
0.675171 0.775635 0.646484
0.698090 0.785736 0.656921
0.726654 0.793732 0.669250
0.762573 0.804138 0.675476
0.808258 0.812622 0.672638
0.870392 0.830780 0.695251
0.206573 0.199677 0.362549
0.220184 0.208923 0.368530
0.249878 0.227692 0.379303
0.291565 0.261108 0.406830
0.349457 0.298309 0.432068
0.420807 0.339600 0.459595
0.496460 0.384644 0.491974
0.579498 0.433197 0.518097
0.220276 0.231598 0.377808
0.233490 0.242004 0.385620
0.259888 0.260803 0.401764
0.305634 0.286377 0.419464
0.355408 0.316650 0.438660
0.430115 0.356354 0.473022
0.506042 0.399536 0.497559
0.591095 0.446747 0.523956
0.250916 0.299896 0.418060
0.265106 0.306213 0.425812
0.288574 0.316193 0.431274
0.335571 0.334320 0.446289
0.384949 0.365601 0.466583
0.457611 0.399200 0.490784
0.535858 0.437531 0.515167
0.616302 0.476532 0.543945
0.306213 0.389038 0.467102
0.316071 0.390808 0.468994
0.344055 0.398010 0.468292
0.380096 0.412415 0.486633
0.430664 0.432678 0.494385
0.496246 0.462219 0.520691
0.573212 0.491302 0.541443
0.652863 0.529480 0.565033
0.393768 0.478607 0.511780
0.409271 0.481293 0.511871
0.429657 0.484497 0.519653
0.462219 0.498962 0.525574
0.501770 0.516907 0.540253
0.555939 0.539551 0.555878
0.625153 0.560333 0.576874
0.691101 0.588654 0.596436
0.498535 0.579803 0.558105
0.505310 0.583618 0.565735
0.525085 0.589935 0.574677
0.538666 0.593628 0.578430
0.585724 0.602112 0.588654
0.623077 0.625244 0.603088
0.680573 0.639191 0.617310
0.744446 0.663574 0.631561
0.584167 0.678436 0.615082
0.588409 0.678162 0.616333
0.600037 0.681366 0.622437
0.632141 0.691833 0.622772
0.659912 0.695984 0.634247
0.699677 0.708008 0.641968
0.749603 0.728455 0.670624
0.808716 0.741333 0.684235
0.668884 0.775848 0.671875
0.673492 0.777985 0.674835
0.685669 0.782166 0.681946
0.705139 0.788879 0.688965
0.736969 0.797699 0.696167
0.772919 0.802246 0.707672
0.811310 0.816650 0.719330
0.871216 0.832550 0.730560
0.244598 0.232361 0.414062
0.258972 0.239166 0.419159
0.276672 0.256622 0.430511
0.316925 0.283905 0.452423
0.369324 0.317810 0.472778
0.431732 0.357849 0.503052
0.519073 0.397156 0.532745
0.593353 0.445435 0.559235
0.253723 0.260529 0.431244
0.265106 0.266876 0.436951
0.287598 0.280487 0.445740
0.329041 0.305969 0.463501
0.380219 0.336945 0.487183
0.442963 0.374207 0.512573
0.523499 0.411163 0.542084
0.600464 0.460480 0.565430
0.286804 0.320770 0.464386
0.298218 0.324921 0.466217
0.320770 0.333557 0.470795
0.357910 0.355103 0.491638
0.409637 0.383911 0.510345
0.464233 0.412354 0.526245
0.547974 0.447510 0.552399
0.622375 0.487366 0.579041
0.339996 0.401215 0.508362
0.346466 0.403351 0.511749
0.368073 0.414795 0.516541
0.403351 0.425629 0.529419
0.453430 0.448029 0.542908
0.511627 0.470490 0.560303
0.586945 0.498871 0.575500
0.660034 0.541962 0.607483
0.424286 0.485718 0.548340
0.426910 0.486176 0.550446
0.441559 0.498199 0.561096
0.472870 0.511078 0.568695
0.514862 0.522095 0.573883
0.571594 0.546875 0.598511
0.627075 0.568054 0.614349
0.701599 0.597473 0.636414
0.513031 0.590393 0.608887
0.518250 0.589294 0.605103
0.532532 0.590698 0.605072
0.554962 0.600861 0.617096
0.594147 0.611237 0.629852
0.626984 0.629150 0.636932
0.685272 0.649292 0.657837
0.747955 0.670013 0.680298
0.598053 0.682587 0.653717
0.603577 0.683777 0.656372
0.616760 0.689697 0.663422
0.637421 0.694305 0.669617
0.662262 0.704559 0.680542
0.713013 0.716705 0.693787
0.743225 0.731384 0.701935
0.805908 0.752075 0.724304
0.682617 0.781891 0.705261
0.687561 0.784302 0.705902
0.699402 0.784180 0.709686
0.717377 0.790863 0.719330
0.751556 0.801849 0.726654
0.783661 0.807129 0.734406
0.823944 0.822052 0.751495
0.874023 0.838593 0.772308
