assets/luts/0006.CUBE
#Created by: Adobe Photoshop Export Color Lookup Plugin
TITLE "Screenshot from 2024-08-15 12-32-58.png"
#LUT size
LUT_3D_SIZE 5
#data domain
#LUT data points
DOMAIN_MIN 0.000000 0.000000 0.000000
DOMAIN_MAX 0.903226 0.903226 0.903226
0.031250 0.047150 0.082306
0.171692 0.092987 0.118622
0.344299 0.176300 0.162567
0.509857 0.254944 0.209106
0.681427 0.337830 0.259827
0.147675 0.224548 0.173798
0.215820 0.235382 0.176178
0.373474 0.268524 0.175293
0.539093 0.314087 0.206848
0.699463 0.384918 0.273499
0.291443 0.404053 0.283630
0.323792 0.413391 0.276947
0.425415 0.437408 0.298615
0.566895 0.464294 0.291199
0.762817 0.497101 0.296906
0.472504 0.590851 0.397369
0.496643 0.593933 0.388519
0.560608 0.606384 0.389313
0.651031 0.626923 0.411743
0.781921 0.659729 0.427002
0.641144 0.771942 0.511719
0.646637 0.775177 0.510803
0.687469 0.784576 0.505127
0.767242 0.804169 0.523468
0.865417 0.822968 0.544983
0.050446 0.066681 0.132751
0.156067 0.123749 0.184906
0.281799 0.215729 0.251099
0.450439 0.286072 0.304047
0.645538 0.358765 0.350189
0.147186 0.226044 0.222748
0.209351 0.241669 0.243195
0.343384 0.283325 0.282928
0.500549 0.333740 0.317200
0.681824 0.394409 0.352570
0.296844 0.406158 0.334869
0.323792 0.413391 0.334290
0.420929 0.435303 0.343994
0.572632 0.463654 0.337341
0.752533 0.500366 0.361877
0.476227 0.588257 0.427399
0.492096 0.593079 0.428040
0.554932 0.610046 0.429138
0.655396 0.632599 0.454132
0.779297 0.658447 0.454987
0.635742 0.773041 0.539642
0.648407 0.777588 0.541199
0.691925 0.785156 0.539642
0.763153 0.803314 0.551025
0.867981 0.824738 0.578033
0.116272 0.113525 0.222046
0.172272 0.157471 0.253510
0.292633 0.236755 0.316254
0.411591 0.319489 0.370911
0.570496 0.409821 0.437622
0.176178 0.240784 0.299042
0.225739 0.263611 0.317078
0.323792 0.302948 0.350891
0.442749 0.369934 0.398102
0.605621 0.437744 0.450256
0.308899 0.412781 0.387482
0.344299 0.419678 0.392883
0.415527 0.444031 0.417877
0.554871 0.479584 0.450317
0.709290 0.521667 0.487213
0.486877 0.588898 0.488220
0.509094 0.596069 0.492523
0.559448 0.610291 0.504791
0.652985 0.632660 0.512970
0.795624 0.659088 0.512268
0.652985 0.770630 0.599945
0.659973 0.767181 0.596680
0.697113 0.787567 0.602661
0.765350 0.804840 0.606110
0.862152 0.827789 0.629150
0.178528 0.173920 0.317688
0.217255 0.203766 0.341431
0.303955 0.262756 0.384735
0.424744 0.333344 0.433441
0.577332 0.427155 0.494385
0.221375 0.266174 0.371399
0.254456 0.284393 0.384918
0.336182 0.325775 0.416016
0.454132 0.384003 0.458435
0.599030 0.462555 0.506927
0.340271 0.425293 0.461975
0.359863 0.434418 0.469513
0.428040 0.460663 0.486908
0.541290 0.496002 0.509216
0.660736 0.550690 0.548706
0.508575 0.596069 0.545074
0.528809 0.606293 0.545929
0.580170 0.617462 0.557617
0.652985 0.645172 0.587616
0.776886 0.673248 0.627533
0.661926 0.774078 0.650757
0.671875 0.775574 0.656799
0.712433 0.786499 0.663818
0.776245 0.806702 0.685669
0.871490 0.832275 0.700836
0.244598 0.232361 0.414062
0.269592 0.250061 0.423950
0.341125 0.300385 0.461639
0.454529 0.368500 0.513245
0.593353 0.445435 0.559235
0.274658 0.301971 0.451141
0.303467 0.313690 0.461639
0.372314 0.351349 0.490997
0.481781 0.410797 0.530457
0.619324 0.480255 0.576477
0.374237 0.443909 0.528839
0.396667 0.455841 0.539520
0.460388 0.474579 0.550629
0.558197 0.514130 0.580933
0.677124 0.563843 0.618347
0.535339 0.612640 0.625641
0.548462 0.611725 0.618500
0.594940 0.629333 0.634766
0.655396 0.654541 0.657196
0.765106 0.690765 0.689972
0.682617 0.781891 0.705261
0.696350 0.785156 0.709167
0.732819 0.796356 0.723969
0.792877 0.811707 0.738983
0.874023 0.838593 0.772308
